Testpart_subro
N10 ; MACHINE
N15 ;   VENDOR AUTODESK
N20 ;   MODEL GENERIC DED
N25 ;   DESCRIPTION GENERIC DIRECT ENERGY DEPOSITION MACHINE WITH EXPORT TO SIMULATION AND POWERMILL
N30 ; T1  D=0 CR=0 - ZMIN=0.001 - ELECTRIC ARC WIRE
N35 #MCS OFF
N40 #CS OFF
N45 G71 G80 G90
N50 G17 G40
N55 G53
N60 ; PROCESS ON
N65 ; PROCESS OFF
N70 ; PROCESS ON
N75 ; PROCESS OFF
N80 G0 G53 Z0
N85 X0 Y0
N90 G53 A0. C0.
N95 ; FEATURE CONSTRUCTION2
N100 T1 M6
N105 S0
N110 M3
N115 G4 K3
N120 G0
N125 G54
;(ORGX58=0,ORGY58=0,ORGZ58=0)
N130 G58
N135 D1
N140 G0 X79.18 Y147.081
N145 G43 Z53.1
N150 G0 Z2.001
N155 G94 G1 Z0.001 F2000
N160 ; LAYER 1 START
N165 ; DEPOSITION ON
N170 G180 D0.25 U0.75
N175 Y202.961 F508
N180 ; DEPOSITION OFF
N185 G181 D0.25 U0.75
N190 G0 Z4.001
N195 X75.793 Y147.081
N200 Z2.001
N205 G1 Z0.001 F2000
N210 ; DEPOSITION ON
N215 G180 D0.25 U0.75
N220 Y202.961 F508
N225 ; DEPOSITION OFF
N230 G181 D0.25 U0.75
N235 G0 Z4.001
N240 X72.406 Y147.081
N245 Z2.001
N250 G1 Z0.001 F2000
N255 ; DEPOSITION ON
N260 G180 D0.25 U0.75
N265 Y202.961 F508
N270 ; DEPOSITION OFF
N275 G181 D0.25 U0.75
N280 G0 Z4.001
N285 X69.019 Y147.081
N290 Z2.001
N295 G1 Z0.001 F2000
N300 ; DEPOSITION ON
N305 G180 D0.25 U0.75
N310 Y202.961 F508
N315 ; DEPOSITION OFF
N320 G181 D0.25 U0.75
N325 G0 Z4.001
N330 X127.439 Y147.081
N335 Z2.001
N340 G1 Z0.001 F2000
N345 ; DEPOSITION ON
N350 G180 D0.25 U0.75
N355 Y202.961 F508
N360 ; DEPOSITION OFF
N365 G181 D0.25 U0.75
N370 G0 Z4.001
N375 X124.052 Y147.081
N380 Z2.001
N385 G1 Z0.001 F2000
N390 ; DEPOSITION ON
N395 G180 D0.25 U0.75
N400 Y202.961 F508
N405 ; DEPOSITION OFF
N410 G181 D0.25 U0.75
N415 G0 Z4.001
N420 X120.666 Y147.081
N425 Z2.001
N430 G1 Z0.001 F2000
N435 ; DEPOSITION ON
N440 G180 D0.25 U0.75
N445 Y202.961 F508
N450 ; DEPOSITION OFF
N455 G181 D0.25 U0.75
N460 G0 Z4.001
N465 X117.279 Y147.081
N470 Z2.001
N475 G1 Z0.001 F2000
N480 ; DEPOSITION ON
N485 G180 D0.25 U0.75
N490 Y202.961 F508
N495 G181 D0.25 U0.75
N500 V.P.layer_num = 1
N505 P12011=0
N510 #PCALL decking.nc P1 = V.P.layer_num
N515 P12012= 1
N520 P12011=1
N525 ; LAYER 1  END
N530 ; DEPOSITION OFF
N535 G181 D0.25 U0.75
N540 G0 Z6
N545 X80.127 Y147.081
N550 Z4
N555 G1 Z2 F2000
N560 ; LAYER 2 START
N565 ; DEPOSITION ON
N570 G180 D0.25 U0.75
N575 Y202.961 F508
N580 ; DEPOSITION OFF
N585 G181 D0.25 U0.75
N590 G0 Z6
N595 X76.442 Y147.081
N600 Z4
N605 G1 Z2 F2000
N610 ; DEPOSITION ON
N615 G180 D0.25 U0.75
N620 Y202.961 F508
N625 ; DEPOSITION OFF
N630 G181 D0.25 U0.75
N635 G0 Z6
N640 X72.757 Y147.081
N645 Z4
N650 G1 Z2 F2000
N655 ; DEPOSITION ON
N660 G180 D0.25 U0.75
N665 Y202.961 F508
N670 ; DEPOSITION OFF
N675 G181 D0.25 U0.75
N680 G0 Z6
N685 X69.072 Y147.081
N690 Z4
N695 G1 Z2 F2000
N700 ; DEPOSITION ON
N705 G180 D0.25 U0.75
N710 Y202.961 F508
N715 ; DEPOSITION OFF
N720 G181 D0.25 U0.75
N725 G0 Z6
N730 X127.387 Y147.081
N735 Z4
N740 G1 Z2 F2000
N745 ; DEPOSITION ON
N750 G180 D0.25 U0.75
N755 Y202.961 F508
N760 ; DEPOSITION OFF
N765 G181 D0.25 U0.75
N770 G0 Z6
N775 X123.702 Y147.081
N780 Z4
N785 G1 Z2 F2000
N790 ; DEPOSITION ON
N795 G180 D0.25 U0.75
N800 Y202.961 F508
N805 ; DEPOSITION OFF
N810 G181 D0.25 U0.75
N815 G0 Z6
N820 X120.017 Y147.081
N825 Z4
N830 G1 Z2 F2000
N835 ; DEPOSITION ON
N840 G180 D0.25 U0.75
N845 Y202.961 F508
N850 ; DEPOSITION OFF
N855 G181 D0.25 U0.75
N860 G0 Z6
N865 X116.332 Y147.081
N870 Z4
N875 G1 Z2 F2000
N880 ; DEPOSITION ON
N885 G180 D0.25 U0.75
N890 Y202.961 F508
N895 G181 D0.25 U0.75
N900 V.P.layer_num = 2
N905 P12011=0
N910 #PCALL decking.nc P1 = V.P.layer_num
N915 P12012= 2
N920 P12011=1
N925 ; LAYER 2  END
N930 ; DEPOSITION OFF
N935 G181 D0.25 U0.75
N940 G0 Z8
N945 X81.179 Y147.081
N950 Z6
N955 G1 Z4 F2000
N960 ; LAYER 3 START
N965 ; DEPOSITION ON
N970 G180 D0.25 U0.75
N975 Y202.961 F508
N980 ; DEPOSITION OFF
N985 G181 D0.25 U0.75
N990 G0 Z8
N995 X78.139 Y147.081
N1000 Z6
N1005 G1 Z4 F2000
N1010 ; DEPOSITION ON
N1015 G180 D0.25 U0.75
N1020 Y202.961 F508
N1025 ; DEPOSITION OFF
N1030 G181 D0.25 U0.75
N1035 G0 Z8
N1040 X75.099 Y147.081
N1045 Z6
N1050 G1 Z4 F2000
N1055 ; DEPOSITION ON
N1060 G180 D0.25 U0.75
N1065 Y202.961 F508
N1070 ; DEPOSITION OFF
N1075 G181 D0.25 U0.75
N1080 G0 Z8
N1085 X72.059 Y147.081
N1090 Z6
N1095 G1 Z4 F2000
N1100 ; DEPOSITION ON
N1105 G180 D0.25 U0.75
N1110 Y202.961 F508
N1115 ; DEPOSITION OFF
N1120 G181 D0.25 U0.75
N1125 G0 Z8
N1130 X69.019 Y147.081
N1135 Z6
N1140 G1 Z4 F2000
N1145 ; DEPOSITION ON
N1150 G180 D0.25 U0.75
N1155 Y202.961 F508
N1160 ; DEPOSITION OFF
N1165 G181 D0.25 U0.75
N1170 G0 Z8
N1175 X127.439 Y147.081
N1180 Z6
N1185 G1 Z4 F2000
N1190 ; DEPOSITION ON
N1195 G180 D0.25 U0.75
N1200 Y202.961 F508
N1205 ; DEPOSITION OFF
N1210 G181 D0.25 U0.75
N1215 G0 Z8
N1220 X124.399 Y147.081
N1225 Z6
N1230 G1 Z4 F2000
N1235 ; DEPOSITION ON
N1240 G180 D0.25 U0.75
N1245 Y202.961 F508
N1250 ; DEPOSITION OFF
N1255 G181 D0.25 U0.75
N1260 G0 Z8
N1265 X121.359 Y147.081
N1270 Z6
N1275 G1 Z4 F2000
N1280 ; DEPOSITION ON
N1285 G180 D0.25 U0.75
N1290 Y202.961 F508
N1295 ; DEPOSITION OFF
N1300 G181 D0.25 U0.75
N1305 G0 Z8
N1310 X118.319 Y147.081
N1315 Z6
N1320 G1 Z4 F2000
N1325 ; DEPOSITION ON
N1330 G180 D0.25 U0.75
N1335 Y202.961 F508
N1340 ; DEPOSITION OFF
N1345 G181 D0.25 U0.75
N1350 G0 Z8
N1355 X115.279 Y147.081
N1360 Z6
N1365 G1 Z4 F2000
N1370 ; DEPOSITION ON
N1375 G180 D0.25 U0.75
N1380 Y202.961 F508
N1385 G181 D0.25 U0.75
N1390 V.P.layer_num = 3
N1395 P12011=0
N1400 #PCALL decking.nc P1 = V.P.layer_num
N1405 P12012= 3
N1410 P12011=1
N1415 ; LAYER 3  END
N1420 ; DEPOSITION OFF
N1425 G181 D0.25 U0.75
N1430 G0 Z10
N1435 X82.179 Y147.081
N1440 Z8
N1445 G1 Z6 F2000
N1450 ; LAYER 4 START
N1455 ; DEPOSITION ON
N1460 G180 D0.25 U0.75
N1465 Y202.961 F508
N1470 ; DEPOSITION OFF
N1475 G181 D0.25 U0.75
N1480 G0 Z10
N1485 X78.889 Y147.081
N1490 Z8
N1495 G1 Z6 F2000
N1500 ; DEPOSITION ON
N1505 G180 D0.25 U0.75
N1510 Y202.961 F508
N1515 ; DEPOSITION OFF
N1520 G181 D0.25 U0.75
N1525 G0 Z10
N1530 X75.599 Y147.081
N1535 Z8
N1540 G1 Z6 F2000
N1545 ; DEPOSITION ON
N1550 G180 D0.25 U0.75
N1555 Y202.961 F508
N1560 ; DEPOSITION OFF
N1565 G181 D0.25 U0.75
N1570 G0 Z10
N1575 X72.309 Y147.081
N1580 Z8
N1585 G1 Z6 F2000
N1590 ; DEPOSITION ON
N1595 G180 D0.25 U0.75
N1600 Y202.961 F508
N1605 ; DEPOSITION OFF
N1610 G181 D0.25 U0.75
N1615 G0 Z10
N1620 X69.019 Y147.081
N1625 Z8
N1630 G1 Z6 F2000
N1635 ; DEPOSITION ON
N1640 G180 D0.25 U0.75
N1645 Y202.961 F508
N1650 ; DEPOSITION OFF
N1655 G181 D0.25 U0.75
N1660 G0 Z10
N1665 X127.439 Y147.081
N1670 Z8
N1675 G1 Z6 F2000
N1680 ; DEPOSITION ON
N1685 G180 D0.25 U0.75
N1690 Y202.961 F508
N1695 ; DEPOSITION OFF
N1700 G181 D0.25 U0.75
N1705 G0 Z10
N1710 X124.149 Y147.081
N1715 Z8
N1720 G1 Z6 F2000
N1725 ; DEPOSITION ON
N1730 G180 D0.25 U0.75
N1735 Y202.961 F508
N1740 ; DEPOSITION OFF
N1745 G181 D0.25 U0.75
N1750 G0 Z10
N1755 X120.859 Y147.081
N1760 Z8
N1765 G1 Z6 F2000
N1770 ; DEPOSITION ON
N1775 G180 D0.25 U0.75
N1780 Y202.961 F508
N1785 ; DEPOSITION OFF
N1790 G181 D0.25 U0.75
N1795 G0 Z10
N1800 X117.569 Y147.081
N1805 Z8
N1810 G1 Z6 F2000
N1815 ; DEPOSITION ON
N1820 G180 D0.25 U0.75
N1825 Y202.961 F508
N1830 ; DEPOSITION OFF
N1835 G181 D0.25 U0.75
N1840 G0 Z10
N1845 X114.279 Y147.081
N1850 Z8
N1855 G1 Z6 F2000
N1860 ; DEPOSITION ON
N1865 G180 D0.25 U0.75
N1870 Y202.961 F508
N1875 G181 D0.25 U0.75
N1880 V.P.layer_num = 4
N1885 P12011=0
N1890 #PCALL decking.nc P1 = V.P.layer_num
N1895 P12012= 4
N1900 P12011=1
N1905 ; LAYER 4  END
N1910 ; DEPOSITION OFF
N1915 G181 D0.25 U0.75
N1920 G0 Z12
N1925 X83.179 Y147.081
N1930 Z10
N1935 G1 Z8 F2000
N1940 ; LAYER 5 START
N1945 ; DEPOSITION ON
N1950 G180 D0.25 U0.75
N1955 Y202.961 F508
N1960 ; DEPOSITION OFF
N1965 G181 D0.25 U0.75
N1970 G0 Z12
N1975 X79.639 Y147.081
N1980 Z10
N1985 G1 Z8 F2000
N1990 ; DEPOSITION ON
N1995 G180 D0.25 U0.75
N2000 Y202.961 F508
N2005 ; DEPOSITION OFF
N2010 G181 D0.25 U0.75
N2015 G0 Z12
N2020 X76.099 Y147.081
N2025 Z10
N2030 G1 Z8 F2000
N2035 ; DEPOSITION ON
N2040 G180 D0.25 U0.75
N2045 Y202.961 F508
N2050 ; DEPOSITION OFF
N2055 G181 D0.25 U0.75
N2060 G0 Z12
N2065 X72.559 Y147.081
N2070 Z10
N2075 G1 Z8 F2000
N2080 ; DEPOSITION ON
N2085 G180 D0.25 U0.75
N2090 Y202.961 F508
N2095 ; DEPOSITION OFF
N2100 G181 D0.25 U0.75
N2105 G0 Z12
N2110 X69.019 Y147.081
N2115 Z10
N2120 G1 Z8 F2000
N2125 ; DEPOSITION ON
N2130 G180 D0.25 U0.75
N2135 Y202.961 F508
N2140 ; DEPOSITION OFF
N2145 G181 D0.25 U0.75
N2150 G0 Z12
N2155 X127.439 Y147.081
N2160 Z10
N2165 G1 Z8 F2000
N2170 ; DEPOSITION ON
N2175 G180 D0.25 U0.75
N2180 Y202.961 F508
N2185 ; DEPOSITION OFF
N2190 G181 D0.25 U0.75
N2195 G0 Z12
N2200 X123.899 Y147.081
N2205 Z10
N2210 G1 Z8 F2000
N2215 ; DEPOSITION ON
N2220 G180 D0.25 U0.75
N2225 Y202.961 F508
N2230 ; DEPOSITION OFF
N2235 G181 D0.25 U0.75
N2240 G0 Z12
N2245 X120.359 Y147.081
N2250 Z10
N2255 G1 Z8 F2000
N2260 ; DEPOSITION ON
N2265 G180 D0.25 U0.75
N2270 Y202.961 F508
N2275 ; DEPOSITION OFF
N2280 G181 D0.25 U0.75
N2285 G0 Z12
N2290 X116.819 Y147.081
N2295 Z10
N2300 G1 Z8 F2000
N2305 ; DEPOSITION ON
N2310 G180 D0.25 U0.75
N2315 Y202.961 F508
N2320 ; DEPOSITION OFF
N2325 G181 D0.25 U0.75
N2330 G0 Z12
N2335 X113.279 Y147.081
N2340 Z10
N2345 G1 Z8 F2000
N2350 ; DEPOSITION ON
N2355 G180 D0.25 U0.75
N2360 Y202.961 F508
N2365 G181 D0.25 U0.75
N2370 V.P.layer_num = 5
N2375 P12011=0
N2380 #PCALL decking.nc P1 = V.P.layer_num
N2385 P12012= 5
N2390 P12011=1
N2395 ; LAYER 5  END
N2400 ; DEPOSITION OFF
N2405 G181 D0.25 U0.75
N2410 G0 Z14
N2415 X84.179 Y147.081
N2420 Z12
N2425 G1 Z10 F2000
N2430 ; LAYER 6 START
N2435 ; DEPOSITION ON
N2440 G180 D0.25 U0.75
N2445 Y202.961 F508
N2450 ; DEPOSITION OFF
N2455 G181 D0.25 U0.75
N2460 G0 Z14
N2465 X81.147 Y147.081
N2470 Z12
N2475 G1 Z10 F2000
N2480 ; DEPOSITION ON
N2485 G180 D0.25 U0.75
N2490 Y202.961 F508
N2495 ; DEPOSITION OFF
N2500 G181 D0.25 U0.75
N2505 G0 Z14
N2510 X78.115 Y147.081
N2515 Z12
N2520 G1 Z10 F2000
N2525 ; DEPOSITION ON
N2530 G180 D0.25 U0.75
N2535 Y202.961 F508
N2540 ; DEPOSITION OFF
N2545 G181 D0.25 U0.75
N2550 G0 Z14
N2555 X75.083 Y147.081
N2560 Z12
N2565 G1 Z10 F2000
N2570 ; DEPOSITION ON
N2575 G180 D0.25 U0.75
N2580 Y202.961 F508
N2585 ; DEPOSITION OFF
N2590 G181 D0.25 U0.75
N2595 G0 Z14
N2600 X72.051 Y147.081
N2605 Z12
N2610 G1 Z10 F2000
N2615 ; DEPOSITION ON
N2620 G180 D0.25 U0.75
N2625 Y202.961 F508
N2630 ; DEPOSITION OFF
N2635 G181 D0.25 U0.75
N2640 G0 Z14
N2645 X69.019 Y147.081
N2650 Z12
N2655 G1 Z10 F2000
N2660 ; DEPOSITION ON
N2665 G180 D0.25 U0.75
N2670 Y202.961 F508
N2675 ; DEPOSITION OFF
N2680 G181 D0.25 U0.75
N2685 G0 Z14
N2690 X127.439 Y147.081
N2695 Z12
N2700 G1 Z10 F2000
N2705 ; DEPOSITION ON
N2710 G180 D0.25 U0.75
N2715 Y202.961 F508
N2720 ; DEPOSITION OFF
N2725 G181 D0.25 U0.75
N2730 G0 Z14
N2735 X124.407 Y147.081
N2740 Z12
N2745 G1 Z10 F2000
N2750 ; DEPOSITION ON
N2755 G180 D0.25 U0.75
N2760 Y202.961 F508
N2765 ; DEPOSITION OFF
N2770 G181 D0.25 U0.75
N2775 G0 Z14
N2780 X121.375 Y147.081
N2785 Z12
N2790 G1 Z10 F2000
N2795 ; DEPOSITION ON
N2800 G180 D0.25 U0.75
N2805 Y202.961 F508
N2810 ; DEPOSITION OFF
N2815 G181 D0.25 U0.75
N2820 G0 Z14
N2825 X118.343 Y147.081
N2830 Z12
N2835 G1 Z10 F2000
N2840 ; DEPOSITION ON
N2845 G180 D0.25 U0.75
N2850 Y202.961 F508
N2855 ; DEPOSITION OFF
N2860 G181 D0.25 U0.75
N2865 G0 Z14
N2870 X115.311 Y147.081
N2875 Z12
N2880 G1 Z10 F2000
N2885 ; DEPOSITION ON
N2890 G180 D0.25 U0.75
N2895 Y202.961 F508
N2900 ; DEPOSITION OFF
N2905 G181 D0.25 U0.75
N2910 G0 Z14
N2915 X112.279 Y147.081
N2920 Z12
N2925 G1 Z10 F2000
N2930 ; DEPOSITION ON
N2935 G180 D0.25 U0.75
N2940 Y202.961 F508
N2945 G181 D0.25 U0.75
N2950 V.P.layer_num = 6
N2955 P12011=0
N2960 #PCALL decking.nc P1 = V.P.layer_num
N2965 P12012= 6
N2970 P12011=1
N2975 ; LAYER 6  END
N2980 ; DEPOSITION OFF
N2985 G181 D0.25 U0.75
N2990 G0 Z16
N2995 X85.179 Y147.081
N3000 Z14
N3005 G1 Z12 F2000
N3010 ; LAYER 7 START
N3015 ; DEPOSITION ON
N3020 G180 D0.25 U0.75
N3025 Y202.961 F508
N3030 ; DEPOSITION OFF
N3035 G181 D0.25 U0.75
N3040 G0 Z16
N3045 X81.947 Y147.081
N3050 Z14
N3055 G1 Z12 F2000
N3060 ; DEPOSITION ON
N3065 G180 D0.25 U0.75
N3070 Y202.961 F508
N3075 ; DEPOSITION OFF
N3080 G181 D0.25 U0.75
N3085 G0 Z16
N3090 X78.715 Y147.081
N3095 Z14
N3100 G1 Z12 F2000
N3105 ; DEPOSITION ON
N3110 G180 D0.25 U0.75
N3115 Y202.961 F508
N3120 ; DEPOSITION OFF
N3125 G181 D0.25 U0.75
N3130 G0 Z16
N3135 X75.483 Y147.081
N3140 Z14
N3145 G1 Z12 F2000
N3150 ; DEPOSITION ON
N3155 G180 D0.25 U0.75
N3160 Y202.961 F508
N3165 ; DEPOSITION OFF
N3170 G181 D0.25 U0.75
N3175 G0 Z16
N3180 X72.251 Y147.081
N3185 Z14
N3190 G1 Z12 F2000
N3195 ; DEPOSITION ON
N3200 G180 D0.25 U0.75
N3205 Y202.961 F508
N3210 ; DEPOSITION OFF
N3215 G181 D0.25 U0.75
N3220 G0 Z16
N3225 X69.019 Y147.081
N3230 Z14
N3235 G1 Z12 F2000
N3240 ; DEPOSITION ON
N3245 G180 D0.25 U0.75
N3250 Y202.961 F508
N3255 ; DEPOSITION OFF
N3260 G181 D0.25 U0.75
N3265 G0 Z16
N3270 X127.439 Y147.081
N3275 Z14
N3280 G1 Z12 F2000
N3285 ; DEPOSITION ON
N3290 G180 D0.25 U0.75
N3295 Y202.961 F508
N3300 ; DEPOSITION OFF
N3305 G181 D0.25 U0.75
N3310 G0 Z16
N3315 X124.207 Y147.081
N3320 Z14
N3325 G1 Z12 F2000
N3330 ; DEPOSITION ON
N3335 G180 D0.25 U0.75
N3340 Y202.961 F508
N3345 ; DEPOSITION OFF
N3350 G181 D0.25 U0.75
N3355 G0 Z16
N3360 X120.975 Y147.081
N3365 Z14
N3370 G1 Z12 F2000
N3375 ; DEPOSITION ON
N3380 G180 D0.25 U0.75
N3385 Y202.961 F508
N3390 ; DEPOSITION OFF
N3395 G181 D0.25 U0.75
N3400 G0 Z16
N3405 X117.743 Y147.081
N3410 Z14
N3415 G1 Z12 F2000
N3420 ; DEPOSITION ON
N3425 G180 D0.25 U0.75
N3430 Y202.961 F508
N3435 ; DEPOSITION OFF
N3440 G181 D0.25 U0.75
N3445 G0 Z16
N3450 X114.511 Y147.081
N3455 Z14
N3460 G1 Z12 F2000
N3465 ; DEPOSITION ON
N3470 G180 D0.25 U0.75
N3475 Y202.961 F508
N3480 ; DEPOSITION OFF
N3485 G181 D0.25 U0.75
N3490 G0 Z16
N3495 X111.279 Y147.081
N3500 Z14
N3505 G1 Z12 F2000
N3510 ; DEPOSITION ON
N3515 G180 D0.25 U0.75
N3520 Y202.961 F508
N3525 G181 D0.25 U0.75
N3530 V.P.layer_num = 7
N3535 P12011=0
N3540 #PCALL decking.nc P1 = V.P.layer_num
N3545 P12012= 7
N3550 P12011=1
N3555 ; LAYER 7  END
N3560 ; DEPOSITION OFF
N3565 G181 D0.25 U0.75
N3570 G0 Z18
N3575 X86.179 Y147.081
N3580 Z16
N3585 G1 Z14 F2000
N3590 ; LAYER 8 START
N3595 ; DEPOSITION ON
N3600 G180 D0.25 U0.75
N3605 Y202.961 F508
N3610 ; DEPOSITION OFF
N3615 G181 D0.25 U0.75
N3620 G0 Z18
N3625 X82.747 Y147.081
N3630 Z16
N3635 G1 Z14 F2000
N3640 ; DEPOSITION ON
N3645 G180 D0.25 U0.75
N3650 Y202.961 F508
N3655 ; DEPOSITION OFF
N3660 G181 D0.25 U0.75
N3665 G0 Z18
N3670 X79.315 Y147.081
N3675 Z16
N3680 G1 Z14 F2000
N3685 ; DEPOSITION ON
N3690 G180 D0.25 U0.75
N3695 Y202.961 F508
N3700 ; DEPOSITION OFF
N3705 G181 D0.25 U0.75
N3710 G0 Z18
N3715 X75.883 Y147.081
N3720 Z16
N3725 G1 Z14 F2000
N3730 ; DEPOSITION ON
N3735 G180 D0.25 U0.75
N3740 Y202.961 F508
N3745 ; DEPOSITION OFF
N3750 G181 D0.25 U0.75
N3755 G0 Z18
N3760 X72.451 Y147.081
N3765 Z16
N3770 G1 Z14 F2000
N3775 ; DEPOSITION ON
N3780 G180 D0.25 U0.75
N3785 Y202.961 F508
N3790 ; DEPOSITION OFF
N3795 G181 D0.25 U0.75
N3800 G0 Z18
N3805 X69.019 Y147.081
N3810 Z16
N3815 G1 Z14 F2000
N3820 ; DEPOSITION ON
N3825 G180 D0.25 U0.75
N3830 Y202.961 F508
N3835 ; DEPOSITION OFF
N3840 G181 D0.25 U0.75
N3845 G0 Z18
N3850 X127.439 Y147.081
N3855 Z16
N3860 G1 Z14 F2000
N3865 ; DEPOSITION ON
N3870 G180 D0.25 U0.75
N3875 Y202.961 F508
N3880 ; DEPOSITION OFF
N3885 G181 D0.25 U0.75
N3890 G0 Z18
N3895 X124.007 Y147.081
N3900 Z16
N3905 G1 Z14 F2000
N3910 ; DEPOSITION ON
N3915 G180 D0.25 U0.75
N3920 Y202.961 F508
N3925 ; DEPOSITION OFF
N3930 G181 D0.25 U0.75
N3935 G0 Z18
N3940 X120.575 Y147.081
N3945 Z16
N3950 G1 Z14 F2000
N3955 ; DEPOSITION ON
N3960 G180 D0.25 U0.75
N3965 Y202.961 F508
N3970 ; DEPOSITION OFF
N3975 G181 D0.25 U0.75
N3980 G0 Z18
N3985 X117.143 Y147.081
N3990 Z16
N3995 G1 Z14 F2000
N4000 ; DEPOSITION ON
N4005 G180 D0.25 U0.75
N4010 Y202.961 F508
N4015 ; DEPOSITION OFF
N4020 G181 D0.25 U0.75
N4025 G0 Z18
N4030 X113.711 Y147.081
N4035 Z16
N4040 G1 Z14 F2000
N4045 ; DEPOSITION ON
N4050 G180 D0.25 U0.75
N4055 Y202.961 F508
N4060 ; DEPOSITION OFF
N4065 G181 D0.25 U0.75
N4070 G0 Z18
N4075 X110.279 Y147.081
N4080 Z16
N4085 G1 Z14 F2000
N4090 ; DEPOSITION ON
N4095 G180 D0.25 U0.75
N4100 Y202.961 F508
N4105 G181 D0.25 U0.75
N4110 V.P.layer_num = 8
N4115 P12011=0
N4120 #PCALL decking.nc P1 = V.P.layer_num
N4125 P12012= 8
N4130 P12011=1
N4135 ; LAYER 8  END
N4140 ; DEPOSITION OFF
N4145 G181 D0.25 U0.75
N4150 G0 Z20
N4155 X87.179 Y147.081
N4160 Z18
N4165 G1 Z16 F2000
N4170 ; LAYER 9 START
N4175 ; DEPOSITION ON
N4180 G180 D0.25 U0.75
N4185 Y202.961 F508
N4190 ; DEPOSITION OFF
N4195 G181 D0.25 U0.75
N4200 G0 Z20
N4205 X83.547 Y147.081
N4210 Z18
N4215 G1 Z16 F2000
N4220 ; DEPOSITION ON
N4225 G180 D0.25 U0.75
N4230 Y202.961 F508
N4235 ; DEPOSITION OFF
N4240 G181 D0.25 U0.75
N4245 G0 Z20
N4250 X79.915 Y147.081
N4255 Z18
N4260 G1 Z16 F2000
N4265 ; DEPOSITION ON
N4270 G180 D0.25 U0.75
N4275 Y202.961 F508
N4280 ; DEPOSITION OFF
N4285 G181 D0.25 U0.75
N4290 G0 Z20
N4295 X76.283 Y147.081
N4300 Z18
N4305 G1 Z16 F2000
N4310 ; DEPOSITION ON
N4315 G180 D0.25 U0.75
N4320 Y202.961 F508
N4325 ; DEPOSITION OFF
N4330 G181 D0.25 U0.75
N4335 G0 Z20
N4340 X72.651 Y147.081
N4345 Z18
N4350 G1 Z16 F2000
N4355 ; DEPOSITION ON
N4360 G180 D0.25 U0.75
N4365 Y202.961 F508
N4370 ; DEPOSITION OFF
N4375 G181 D0.25 U0.75
N4380 G0 Z20
N4385 X69.019 Y147.081
N4390 Z18
N4395 G1 Z16 F2000
N4400 ; DEPOSITION ON
N4405 G180 D0.25 U0.75
N4410 Y202.961 F508
N4415 ; DEPOSITION OFF
N4420 G181 D0.25 U0.75
N4425 G0 Z20
N4430 X127.439 Y147.081
N4435 Z18
N4440 G1 Z16 F2000
N4445 ; DEPOSITION ON
N4450 G180 D0.25 U0.75
N4455 Y202.961 F508
N4460 ; DEPOSITION OFF
N4465 G181 D0.25 U0.75
N4470 G0 Z20
N4475 X123.807 Y147.081
N4480 Z18
N4485 G1 Z16 F2000
N4490 ; DEPOSITION ON
N4495 G180 D0.25 U0.75
N4500 Y202.961 F508
N4505 ; DEPOSITION OFF
N4510 G181 D0.25 U0.75
N4515 G0 Z20
N4520 X120.175 Y147.081
N4525 Z18
N4530 G1 Z16 F2000
N4535 ; DEPOSITION ON
N4540 G180 D0.25 U0.75
N4545 Y202.961 F508
N4550 ; DEPOSITION OFF
N4555 G181 D0.25 U0.75
N4560 G0 Z20
N4565 X116.543 Y147.081
N4570 Z18
N4575 G1 Z16 F2000
N4580 ; DEPOSITION ON
N4585 G180 D0.25 U0.75
N4590 Y202.961 F508
N4595 ; DEPOSITION OFF
N4600 G181 D0.25 U0.75
N4605 G0 Z20
N4610 X112.911 Y147.081
N4615 Z18
N4620 G1 Z16 F2000
N4625 ; DEPOSITION ON
N4630 G180 D0.25 U0.75
N4635 Y202.961 F508
N4640 ; DEPOSITION OFF
N4645 G181 D0.25 U0.75
N4650 G0 Z20
N4655 X109.279 Y147.081
N4660 Z18
N4665 G1 Z16 F2000
N4670 ; DEPOSITION ON
N4675 G180 D0.25 U0.75
N4680 Y202.961 F508
N4685 G181 D0.25 U0.75
N4690 V.P.layer_num = 9
N4695 P12011=0
N4700 #PCALL decking.nc P1 = V.P.layer_num
N4705 P12012= 9
N4710 P12011=1
N4715 ; LAYER 9  END
N4720 ; DEPOSITION OFF
N4725 G181 D0.25 U0.75
N4730 G0 Z22
N4735 X88.179 Y147.081
N4740 Z20
N4745 G1 Z18 F2000
N4750 ; LAYER 10 START
N4755 ; DEPOSITION ON
N4760 G180 D0.25 U0.75
N4765 Y202.961 F508
N4770 ; DEPOSITION OFF
N4775 G181 D0.25 U0.75
N4780 G0 Z22
N4785 X84.986 Y147.081
N4790 Z20
N4795 G1 Z18 F2000
N4800 ; DEPOSITION ON
N4805 G180 D0.25 U0.75
N4810 Y202.961 F508
N4815 ; DEPOSITION OFF
N4820 G181 D0.25 U0.75
N4825 G0 Z22
N4830 X81.792 Y147.081
N4835 Z20
N4840 G1 Z18 F2000
N4845 ; DEPOSITION ON
N4850 G180 D0.25 U0.75
N4855 Y202.961 F508
N4860 ; DEPOSITION OFF
N4865 G181 D0.25 U0.75
N4870 G0 Z22
N4875 X78.599 Y147.081
N4880 Z20
N4885 G1 Z18 F2000
N4890 ; DEPOSITION ON
N4895 G180 D0.25 U0.75
N4900 Y202.961 F508
N4905 ; DEPOSITION OFF
N4910 G181 D0.25 U0.75
N4915 G0 Z22
N4920 X75.406 Y147.081
N4925 Z20
N4930 G1 Z18 F2000
N4935 ; DEPOSITION ON
N4940 G180 D0.25 U0.75
N4945 Y202.961 F508
N4950 ; DEPOSITION OFF
N4955 G181 D0.25 U0.75
N4960 G0 Z22
N4965 X72.213 Y147.081
N4970 Z20
N4975 G1 Z18 F2000
N4980 ; DEPOSITION ON
N4985 G180 D0.25 U0.75
N4990 Y202.961 F508
N4995 ; DEPOSITION OFF
N5000 G181 D0.25 U0.75
N5005 G0 Z22
N5010 X69.019 Y147.081
N5015 Z20
N5020 G1 Z18 F2000
N5025 ; DEPOSITION ON
N5030 G180 D0.25 U0.75
N5035 Y202.961 F508
N5040 ; DEPOSITION OFF
N5045 G181 D0.25 U0.75
N5050 G0 Z22
N5055 X127.439 Y147.081
N5060 Z20
N5065 G1 Z18 F2000
N5070 ; DEPOSITION ON
N5075 G180 D0.25 U0.75
N5080 Y202.961 F508
N5085 ; DEPOSITION OFF
N5090 G181 D0.25 U0.75
N5095 G0 Z22
N5100 X124.246 Y147.081
N5105 Z20
N5110 G1 Z18 F2000
N5115 ; DEPOSITION ON
N5120 G180 D0.25 U0.75
N5125 Y202.961 F508
N5130 ; DEPOSITION OFF
N5135 G181 D0.25 U0.75
N5140 G0 Z22
N5145 X121.052 Y147.081
N5150 Z20
N5155 G1 Z18 F2000
N5160 ; DEPOSITION ON
N5165 G180 D0.25 U0.75
N5170 Y202.961 F508
N5175 ; DEPOSITION OFF
N5180 G181 D0.25 U0.75
N5185 G0 Z22
N5190 X117.859 Y147.081
N5195 Z20
N5200 G1 Z18 F2000
N5205 ; DEPOSITION ON
N5210 G180 D0.25 U0.75
N5215 Y202.961 F508
N5220 ; DEPOSITION OFF
N5225 G181 D0.25 U0.75
N5230 G0 Z22
N5235 X114.666 Y147.081
N5240 Z20
N5245 G1 Z18 F2000
N5250 ; DEPOSITION ON
N5255 G180 D0.25 U0.75
N5260 Y202.961 F508
N5265 ; DEPOSITION OFF
N5270 G181 D0.25 U0.75
N5275 G0 Z22
N5280 X111.473 Y147.081
N5285 Z20
N5290 G1 Z18 F2000
N5295 ; DEPOSITION ON
N5300 G180 D0.25 U0.75
N5305 Y202.961 F508
N5310 ; DEPOSITION OFF
N5315 G181 D0.25 U0.75
N5320 G0 Z22
N5325 X108.279 Y147.081
N5330 Z20
N5335 G1 Z18 F2000
N5340 ; DEPOSITION ON
N5345 G180 D0.25 U0.75
N5350 Y202.961 F508
N5355 G181 D0.25 U0.75
N5360 V.P.layer_num = 10
N5365 P12011=0
N5370 #PCALL decking.nc P1 = V.P.layer_num
N5375 P12012= 10
N5380 P12011=1
N5385 ; LAYER 10  END
N5390 ; DEPOSITION OFF
N5395 G181 D0.25 U0.75
N5400 G0 Z24
N5405 X89.179 Y147.081
N5410 Z22
N5415 G1 Z20 F2000
N5420 ; LAYER 11 START
N5425 ; DEPOSITION ON
N5430 G180 D0.25 U0.75
N5435 Y202.961 F508
N5440 ; DEPOSITION OFF
N5445 G181 D0.25 U0.75
N5450 G0 Z24
N5455 X85.819 Y147.081
N5460 Z22
N5465 G1 Z20 F2000
N5470 ; DEPOSITION ON
N5475 G180 D0.25 U0.75
N5480 Y202.961 F508
N5485 ; DEPOSITION OFF
N5490 G181 D0.25 U0.75
N5495 G0 Z24
N5500 X82.459 Y147.081
N5505 Z22
N5510 G1 Z20 F2000
N5515 ; DEPOSITION ON
N5520 G180 D0.25 U0.75
N5525 Y202.961 F508
N5530 ; DEPOSITION OFF
N5535 G181 D0.25 U0.75
N5540 G0 Z24
N5545 X79.099 Y147.081
N5550 Z22
N5555 G1 Z20 F2000
N5560 ; DEPOSITION ON
N5565 G180 D0.25 U0.75
N5570 Y202.961 F508
N5575 ; DEPOSITION OFF
N5580 G181 D0.25 U0.75
N5585 G0 Z24
N5590 X75.739 Y147.081
N5595 Z22
N5600 G1 Z20 F2000
N5605 ; DEPOSITION ON
N5610 G180 D0.25 U0.75
N5615 Y202.961 F508
N5620 ; DEPOSITION OFF
N5625 G181 D0.25 U0.75
N5630 G0 Z24
N5635 X72.379 Y147.081
N5640 Z22
N5645 G1 Z20 F2000
N5650 ; DEPOSITION ON
N5655 G180 D0.25 U0.75
N5660 Y202.961 F508
N5665 ; DEPOSITION OFF
N5670 G181 D0.25 U0.75
N5675 G0 Z24
N5680 X69.019 Y147.081
N5685 Z22
N5690 G1 Z20 F2000
N5695 ; DEPOSITION ON
N5700 G180 D0.25 U0.75
N5705 Y202.961 F508
N5710 ; DEPOSITION OFF
N5715 G181 D0.25 U0.75
N5720 G0 Z24
N5725 X127.439 Y147.081
N5730 Z22
N5735 G1 Z20 F2000
N5740 ; DEPOSITION ON
N5745 G180 D0.25 U0.75
N5750 Y202.961 F508
N5755 ; DEPOSITION OFF
N5760 G181 D0.25 U0.75
N5765 G0 Z24
N5770 X124.079 Y147.081
N5775 Z22
N5780 G1 Z20 F2000
N5785 ; DEPOSITION ON
N5790 G180 D0.25 U0.75
N5795 Y202.961 F508
N5800 ; DEPOSITION OFF
N5805 G181 D0.25 U0.75
N5810 G0 Z24
N5815 X120.719 Y147.081
N5820 Z22
N5825 G1 Z20 F2000
N5830 ; DEPOSITION ON
N5835 G180 D0.25 U0.75
N5840 Y202.961 F508
N5845 ; DEPOSITION OFF
N5850 G181 D0.25 U0.75
N5855 G0 Z24
N5860 X117.359 Y147.081
N5865 Z22
N5870 G1 Z20 F2000
N5875 ; DEPOSITION ON
N5880 G180 D0.25 U0.75
N5885 Y202.961 F508
N5890 ; DEPOSITION OFF
N5895 G181 D0.25 U0.75
N5900 G0 Z24
N5905 X113.999 Y147.081
N5910 Z22
N5915 G1 Z20 F2000
N5920 ; DEPOSITION ON
N5925 G180 D0.25 U0.75
N5930 Y202.961 F508
N5935 ; DEPOSITION OFF
N5940 G181 D0.25 U0.75
N5945 G0 Z24
N5950 X110.639 Y147.081
N5955 Z22
N5960 G1 Z20 F2000
N5965 ; DEPOSITION ON
N5970 G180 D0.25 U0.75
N5975 Y202.961 F508
N5980 ; DEPOSITION OFF
N5985 G181 D0.25 U0.75
N5990 G0 Z24
N5995 X107.279 Y147.081
N6000 Z22
N6005 G1 Z20 F2000
N6010 ; DEPOSITION ON
N6015 G180 D0.25 U0.75
N6020 Y202.961 F508
N6025 G181 D0.25 U0.75
N6030 V.P.layer_num = 11
N6035 P12011=0
N6040 #PCALL decking.nc P1 = V.P.layer_num
N6045 P12012= 11
N6050 P12011=1
N6055 ; LAYER 11  END
N6060 ; DEPOSITION OFF
N6065 G181 D0.25 U0.75
N6070 G0 Z26
N6075 X90.179 Y147.081
N6080 Z24
N6085 G1 Z22 F2000
N6090 ; LAYER 12 START
N6095 ; DEPOSITION ON
N6100 G180 D0.25 U0.75
N6105 Y202.961 F508
N6110 ; DEPOSITION OFF
N6115 G181 D0.25 U0.75
N6120 G0 Z26
N6125 X86.652 Y147.081
N6130 Z24
N6135 G1 Z22 F2000
N6140 ; DEPOSITION ON
N6145 G180 D0.25 U0.75
N6150 Y202.961 F508
N6155 ; DEPOSITION OFF
N6160 G181 D0.25 U0.75
N6165 G0 Z26
N6170 X83.126 Y147.081
N6175 Z24
N6180 G1 Z22 F2000
N6185 ; DEPOSITION ON
N6190 G180 D0.25 U0.75
N6195 Y202.961 F508
N6200 ; DEPOSITION OFF
N6205 G181 D0.25 U0.75
N6210 G0 Z26
N6215 X79.599 Y147.081
N6220 Z24
N6225 G1 Z22 F2000
N6230 ; DEPOSITION ON
N6235 G180 D0.25 U0.75
N6240 Y202.961 F508
N6245 ; DEPOSITION OFF
N6250 G181 D0.25 U0.75
N6255 G0 Z26
N6260 X76.073 Y147.081
N6265 Z24
N6270 G1 Z22 F2000
N6275 ; DEPOSITION ON
N6280 G180 D0.25 U0.75
N6285 Y202.961 F508
N6290 ; DEPOSITION OFF
N6295 G181 D0.25 U0.75
N6300 G0 Z26
N6305 X72.546 Y147.081
N6310 Z24
N6315 G1 Z22 F2000
N6320 ; DEPOSITION ON
N6325 G180 D0.25 U0.75
N6330 Y202.961 F508
N6335 ; DEPOSITION OFF
N6340 G181 D0.25 U0.75
N6345 G0 Z26
N6350 X69.019 Y147.081
N6355 Z24
N6360 G1 Z22 F2000
N6365 ; DEPOSITION ON
N6370 G180 D0.25 U0.75
N6375 Y202.961 F508
N6380 ; DEPOSITION OFF
N6385 G181 D0.25 U0.75
N6390 G0 Z26
N6395 X127.439 Y147.081
N6400 Z24
N6405 G1 Z22 F2000
N6410 ; DEPOSITION ON
N6415 G180 D0.25 U0.75
N6420 Y202.961 F508
N6425 ; DEPOSITION OFF
N6430 G181 D0.25 U0.75
N6435 G0 Z26
N6440 X123.912 Y147.081
N6445 Z24
N6450 G1 Z22 F2000
N6455 ; DEPOSITION ON
N6460 G180 D0.25 U0.75
N6465 Y202.961 F508
N6470 ; DEPOSITION OFF
N6475 G181 D0.25 U0.75
N6480 G0 Z26
N6485 X120.386 Y147.081
N6490 Z24
N6495 G1 Z22 F2000
N6500 ; DEPOSITION ON
N6505 G180 D0.25 U0.75
N6510 Y202.961 F508
N6515 ; DEPOSITION OFF
N6520 G181 D0.25 U0.75
N6525 G0 Z26
N6530 X116.859 Y147.081
N6535 Z24
N6540 G1 Z22 F2000
N6545 ; DEPOSITION ON
N6550 G180 D0.25 U0.75
N6555 Y202.961 F508
N6560 ; DEPOSITION OFF
N6565 G181 D0.25 U0.75
N6570 G0 Z26
N6575 X113.333 Y147.081
N6580 Z24
N6585 G1 Z22 F2000
N6590 ; DEPOSITION ON
N6595 G180 D0.25 U0.75
N6600 Y202.961 F508
N6605 ; DEPOSITION OFF
N6610 G181 D0.25 U0.75
N6615 G0 Z26
N6620 X109.806 Y147.081
N6625 Z24
N6630 G1 Z22 F2000
N6635 ; DEPOSITION ON
N6640 G180 D0.25 U0.75
N6645 Y202.961 F508
N6650 ; DEPOSITION OFF
N6655 G181 D0.25 U0.75
N6660 G0 Z26
N6665 X106.279 Y147.081
N6670 Z24
N6675 G1 Z22 F2000
N6680 ; DEPOSITION ON
N6685 G180 D0.25 U0.75
N6690 Y202.961 F508
N6695 G181 D0.25 U0.75
N6700 V.P.layer_num = 12
N6705 P12011=0
N6710 #PCALL decking.nc P1 = V.P.layer_num
N6715 P12012= 12
N6720 P12011=1
N6725 ; LAYER 12  END
N6730 ; DEPOSITION OFF
N6735 G181 D0.25 U0.75
N6740 G0 Z28
N6745 X91.179 Y147.081
N6750 Z26
N6755 G1 Z24 F2000
N6760 ; LAYER 13 START
N6765 ; DEPOSITION ON
N6770 G180 D0.25 U0.75
N6775 Y202.961 F508
N6780 ; DEPOSITION OFF
N6785 G181 D0.25 U0.75
N6790 G0 Z28
N6795 X88.013 Y147.081
N6800 Z26
N6805 G1 Z24 F2000
N6810 ; DEPOSITION ON
N6815 G180 D0.25 U0.75
N6820 Y202.961 F508
N6825 ; DEPOSITION OFF
N6830 G181 D0.25 U0.75
N6835 G0 Z28
N6840 X84.848 Y147.081
N6845 Z26
N6850 G1 Z24 F2000
N6855 ; DEPOSITION ON
N6860 G180 D0.25 U0.75
N6865 Y202.961 F508
N6870 ; DEPOSITION OFF
N6875 G181 D0.25 U0.75
N6880 G0 Z28
N6885 X81.682 Y147.081
N6890 Z26
N6895 G1 Z24 F2000
N6900 ; DEPOSITION ON
N6905 G180 D0.25 U0.75
N6910 Y202.961 F508
N6915 ; DEPOSITION OFF
N6920 G181 D0.25 U0.75
N6925 G0 Z28
N6930 X78.516 Y147.081
N6935 Z26
N6940 G1 Z24 F2000
N6945 ; DEPOSITION ON
N6950 G180 D0.25 U0.75
N6955 Y202.961 F508
N6960 ; DEPOSITION OFF
N6965 G181 D0.25 U0.75
N6970 G0 Z28
N6975 X75.351 Y147.081
N6980 Z26
N6985 G1 Z24 F2000
N6990 ; DEPOSITION ON
N6995 G180 D0.25 U0.75
N7000 Y202.961 F508
N7005 ; DEPOSITION OFF
N7010 G181 D0.25 U0.75
N7015 G0 Z28
N7020 X72.185 Y147.081
N7025 Z26
N7030 G1 Z24 F2000
N7035 ; DEPOSITION ON
N7040 G180 D0.25 U0.75
N7045 Y202.961 F508
N7050 ; DEPOSITION OFF
N7055 G181 D0.25 U0.75
N7060 G0 Z28
N7065 X69.019 Y147.081
N7070 Z26
N7075 G1 Z24 F2000
N7080 ; DEPOSITION ON
N7085 G180 D0.25 U0.75
N7090 Y202.961 F508
N7095 ; DEPOSITION OFF
N7100 G181 D0.25 U0.75
N7105 G0 Z28
N7110 X127.439 Y147.081
N7115 Z26
N7120 G1 Z24 F2000
N7125 ; DEPOSITION ON
N7130 G180 D0.25 U0.75
N7135 Y202.961 F508
N7140 ; DEPOSITION OFF
N7145 G181 D0.25 U0.75
N7150 G0 Z28
N7155 X124.273 Y147.081
N7160 Z26
N7165 G1 Z24 F2000
N7170 ; DEPOSITION ON
N7175 G180 D0.25 U0.75
N7180 Y202.961 F508
N7185 ; DEPOSITION OFF
N7190 G181 D0.25 U0.75
N7195 G0 Z28
N7200 X121.108 Y147.081
N7205 Z26
N7210 G1 Z24 F2000
N7215 ; DEPOSITION ON
N7220 G180 D0.25 U0.75
N7225 Y202.961 F508
N7230 ; DEPOSITION OFF
N7235 G181 D0.25 U0.75
N7240 G0 Z28
N7245 X117.942 Y147.081
N7250 Z26
N7255 G1 Z24 F2000
N7260 ; DEPOSITION ON
N7265 G180 D0.25 U0.75
N7270 Y202.961 F508
N7275 ; DEPOSITION OFF
N7280 G181 D0.25 U0.75
N7285 G0 Z28
N7290 X114.776 Y147.081
N7295 Z26
N7300 G1 Z24 F2000
N7305 ; DEPOSITION ON
N7310 G180 D0.25 U0.75
N7315 Y202.961 F508
N7320 ; DEPOSITION OFF
N7325 G181 D0.25 U0.75
N7330 G0 Z28
N7335 X111.611 Y147.081
N7340 Z26
N7345 G1 Z24 F2000
N7350 ; DEPOSITION ON
N7355 G180 D0.25 U0.75
N7360 Y202.961 F508
N7365 ; DEPOSITION OFF
N7370 G181 D0.25 U0.75
N7375 G0 Z28
N7380 X108.445 Y147.081
N7385 Z26
N7390 G1 Z24 F2000
N7395 ; DEPOSITION ON
N7400 G180 D0.25 U0.75
N7405 Y202.961 F508
N7410 ; DEPOSITION OFF
N7415 G181 D0.25 U0.75
N7420 G0 Z28
N7425 X105.279 Y147.081
N7430 Z26
N7435 G1 Z24 F2000
N7440 ; DEPOSITION ON
N7445 G180 D0.25 U0.75
N7450 Y202.961 F508
N7455 G181 D0.25 U0.75
N7460 V.P.layer_num = 13
N7465 P12011=0
N7470 #PCALL decking.nc P1 = V.P.layer_num
N7475 P12012= 13
N7480 P12011=1
N7485 ; LAYER 13  END
N7490 ; DEPOSITION OFF
N7495 G181 D0.25 U0.75
N7500 G0 Z30
N7505 X92.179 Y147.081
N7510 Z28
N7515 G1 Z26 F2000
N7520 ; LAYER 14 START
N7525 ; DEPOSITION ON
N7530 G180 D0.25 U0.75
N7535 Y202.961 F508
N7540 ; DEPOSITION OFF
N7545 G181 D0.25 U0.75
N7550 G0 Z30
N7555 X88.871 Y147.081
N7560 Z28
N7565 G1 Z26 F2000
N7570 ; DEPOSITION ON
N7575 G180 D0.25 U0.75
N7580 Y202.961 F508
N7585 ; DEPOSITION OFF
N7590 G181 D0.25 U0.75
N7595 G0 Z30
N7600 X85.562 Y147.081
N7605 Z28
N7610 G1 Z26 F2000
N7615 ; DEPOSITION ON
N7620 G180 D0.25 U0.75
N7625 Y202.961 F508
N7630 ; DEPOSITION OFF
N7635 G181 D0.25 U0.75
N7640 G0 Z30
N7645 X82.253 Y147.081
N7650 Z28
N7655 G1 Z26 F2000
N7660 ; DEPOSITION ON
N7665 G180 D0.25 U0.75
N7670 Y202.961 F508
N7675 ; DEPOSITION OFF
N7680 G181 D0.25 U0.75
N7685 G0 Z30
N7690 X78.945 Y147.081
N7695 Z28
N7700 G1 Z26 F2000
N7705 ; DEPOSITION ON
N7710 G180 D0.25 U0.75
N7715 Y202.961 F508
N7720 ; DEPOSITION OFF
N7725 G181 D0.25 U0.75
N7730 G0 Z30
N7735 X75.636 Y147.081
N7740 Z28
N7745 G1 Z26 F2000
N7750 ; DEPOSITION ON
N7755 G180 D0.25 U0.75
N7760 Y202.961 F508
N7765 ; DEPOSITION OFF
N7770 G181 D0.25 U0.75
N7775 G0 Z30
N7780 X72.328 Y147.081
N7785 Z28
N7790 G1 Z26 F2000
N7795 ; DEPOSITION ON
N7800 G180 D0.25 U0.75
N7805 Y202.961 F508
N7810 ; DEPOSITION OFF
N7815 G181 D0.25 U0.75
N7820 G0 Z30
N7825 X69.019 Y147.081
N7830 Z28
N7835 G1 Z26 F2000
N7840 ; DEPOSITION ON
N7845 G180 D0.25 U0.75
N7850 Y202.961 F508
N7855 ; DEPOSITION OFF
N7860 G181 D0.25 U0.75
N7865 G0 Z30
N7870 X127.439 Y147.081
N7875 Z28
N7880 G1 Z26 F2000
N7885 ; DEPOSITION ON
N7890 G180 D0.25 U0.75
N7895 Y202.961 F508
N7900 ; DEPOSITION OFF
N7905 G181 D0.25 U0.75
N7910 G0 Z30
N7915 X124.131 Y147.081
N7920 Z28
N7925 G1 Z26 F2000
N7930 ; DEPOSITION ON
N7935 G180 D0.25 U0.75
N7940 Y202.961 F508
N7945 ; DEPOSITION OFF
N7950 G181 D0.25 U0.75
N7955 G0 Z30
N7960 X120.822 Y147.081
N7965 Z28
N7970 G1 Z26 F2000
N7975 ; DEPOSITION ON
N7980 G180 D0.25 U0.75
N7985 Y202.961 F508
N7990 ; DEPOSITION OFF
N7995 G181 D0.25 U0.75
N8000 G0 Z30
N8005 X117.513 Y147.081
N8010 Z28
N8015 G1 Z26 F2000
N8020 ; DEPOSITION ON
N8025 G180 D0.25 U0.75
N8030 Y202.961 F508
N8035 ; DEPOSITION OFF
N8040 G181 D0.25 U0.75
N8045 G0 Z30
N8050 X114.205 Y147.081
N8055 Z28
N8060 G1 Z26 F2000
N8065 ; DEPOSITION ON
N8070 G180 D0.25 U0.75
N8075 Y202.961 F508
N8080 ; DEPOSITION OFF
N8085 G181 D0.25 U0.75
N8090 G0 Z30
N8095 X110.896 Y147.081
N8100 Z28
N8105 G1 Z26 F2000
N8110 ; DEPOSITION ON
N8115 G180 D0.25 U0.75
N8120 Y202.961 F508
N8125 ; DEPOSITION OFF
N8130 G181 D0.25 U0.75
N8135 G0 Z30
N8140 X107.588 Y147.081
N8145 Z28
N8150 G1 Z26 F2000
N8155 ; DEPOSITION ON
N8160 G180 D0.25 U0.75
N8165 Y202.961 F508
N8170 ; DEPOSITION OFF
N8175 G181 D0.25 U0.75
N8180 G0 Z30
N8185 X104.279 Y147.081
N8190 Z28
N8195 G1 Z26 F2000
N8200 ; DEPOSITION ON
N8205 G180 D0.25 U0.75
N8210 Y202.961 F508
N8215 G181 D0.25 U0.75
N8220 V.P.layer_num = 14
N8225 P12011=0
N8230 #PCALL decking.nc P1 = V.P.layer_num
N8235 P12012= 14
N8240 P12011=1
N8245 ; LAYER 14  END
N8250 ; DEPOSITION OFF
N8255 G181 D0.25 U0.75
N8260 G0 Z32
N8265 X93.179 Y147.081
N8270 Z30
N8275 G1 Z28 F2000
N8280 ; LAYER 15 START
N8285 ; DEPOSITION ON
N8290 G180 D0.25 U0.75
N8295 Y202.961 F508
N8300 ; DEPOSITION OFF
N8305 G181 D0.25 U0.75
N8310 G0 Z32
N8315 X89.728 Y147.081
N8320 Z30
N8325 G1 Z28 F2000
N8330 ; DEPOSITION ON
N8335 G180 D0.25 U0.75
N8340 Y202.961 F508
N8345 ; DEPOSITION OFF
N8350 G181 D0.25 U0.75
N8355 G0 Z32
N8360 X86.276 Y147.081
N8365 Z30
N8370 G1 Z28 F2000
N8375 ; DEPOSITION ON
N8380 G180 D0.25 U0.75
N8385 Y202.961 F508
N8390 ; DEPOSITION OFF
N8395 G181 D0.25 U0.75
N8400 G0 Z32
N8405 X82.825 Y147.081
N8410 Z30
N8415 G1 Z28 F2000
N8420 ; DEPOSITION ON
N8425 G180 D0.25 U0.75
N8430 Y202.961 F508
N8435 ; DEPOSITION OFF
N8440 G181 D0.25 U0.75
N8445 G0 Z32
N8450 X79.373 Y147.081
N8455 Z30
N8460 G1 Z28 F2000
N8465 ; DEPOSITION ON
N8470 G180 D0.25 U0.75
N8475 Y202.961 F508
N8480 ; DEPOSITION OFF
N8485 G181 D0.25 U0.75
N8490 G0 Z32
N8495 X75.922 Y147.081
N8500 Z30
N8505 G1 Z28 F2000
N8510 ; DEPOSITION ON
N8515 G180 D0.25 U0.75
N8520 Y202.961 F508
N8525 ; DEPOSITION OFF
N8530 G181 D0.25 U0.75
N8535 G0 Z32
N8540 X72.471 Y147.081
N8545 Z30
N8550 G1 Z28 F2000
N8555 ; DEPOSITION ON
N8560 G180 D0.25 U0.75
N8565 Y202.961 F508
N8570 ; DEPOSITION OFF
N8575 G181 D0.25 U0.75
N8580 G0 Z32
N8585 X69.019 Y147.081
N8590 Z30
N8595 G1 Z28 F2000
N8600 ; DEPOSITION ON
N8605 G180 D0.25 U0.75
N8610 Y202.961 F508
N8615 ; DEPOSITION OFF
N8620 G181 D0.25 U0.75
N8625 G0 Z32
N8630 X127.439 Y147.081
N8635 Z30
N8640 G1 Z28 F2000
N8645 ; DEPOSITION ON
N8650 G180 D0.25 U0.75
N8655 Y202.961 F508
N8660 ; DEPOSITION OFF
N8665 G181 D0.25 U0.75
N8670 G0 Z32
N8675 X123.988 Y147.081
N8680 Z30
N8685 G1 Z28 F2000
N8690 ; DEPOSITION ON
N8695 G180 D0.25 U0.75
N8700 Y202.961 F508
N8705 ; DEPOSITION OFF
N8710 G181 D0.25 U0.75
N8715 G0 Z32
N8720 X120.536 Y147.081
N8725 Z30
N8730 G1 Z28 F2000
N8735 ; DEPOSITION ON
N8740 G180 D0.25 U0.75
N8745 Y202.961 F508
N8750 ; DEPOSITION OFF
N8755 G181 D0.25 U0.75
N8760 G0 Z32
N8765 X117.085 Y147.081
N8770 Z30
N8775 G1 Z28 F2000
N8780 ; DEPOSITION ON
N8785 G180 D0.25 U0.75
N8790 Y202.961 F508
N8795 ; DEPOSITION OFF
N8800 G181 D0.25 U0.75
N8805 G0 Z32
N8810 X113.633 Y147.081
N8815 Z30
N8820 G1 Z28 F2000
N8825 ; DEPOSITION ON
N8830 G180 D0.25 U0.75
N8835 Y202.961 F508
N8840 ; DEPOSITION OFF
N8845 G181 D0.25 U0.75
N8850 G0 Z32
N8855 X110.182 Y147.081
N8860 Z30
N8865 G1 Z28 F2000
N8870 ; DEPOSITION ON
N8875 G180 D0.25 U0.75
N8880 Y202.961 F508
N8885 ; DEPOSITION OFF
N8890 G181 D0.25 U0.75
N8895 G0 Z32
N8900 X106.731 Y147.081
N8905 Z30
N8910 G1 Z28 F2000
N8915 ; DEPOSITION ON
N8920 G180 D0.25 U0.75
N8925 Y202.961 F508
N8930 ; DEPOSITION OFF
N8935 G181 D0.25 U0.75
N8940 G0 Z32
N8945 X103.279 Y147.081
N8950 Z30
N8955 G1 Z28 F2000
N8960 ; DEPOSITION ON
N8965 G180 D0.25 U0.75
N8970 Y202.961 F508
N8975 G181 D0.25 U0.75
N8980 V.P.layer_num = 15
N8985 P12011=0
N8990 #PCALL decking.nc P1 = V.P.layer_num
N8995 P12012= 15
N9000 P12011=1
N9005 ; LAYER 15  END
N9010 ; DEPOSITION OFF
N9015 G181 D0.25 U0.75
N9020 G0 Z34
N9025 X94.179 Y147.081
N9030 Z32
N9035 G1 Z30 F2000
N9040 ; LAYER 16 START
N9045 ; DEPOSITION ON
N9050 G180 D0.25 U0.75
N9055 Y202.961 F508
N9060 ; DEPOSITION OFF
N9065 G181 D0.25 U0.75
N9070 G0 Z34
N9075 X91.034 Y147.081
N9080 Z32
N9085 G1 Z30 F2000
N9090 ; DEPOSITION ON
N9095 G180 D0.25 U0.75
N9100 Y202.961 F508
N9105 ; DEPOSITION OFF
N9110 G181 D0.25 U0.75
N9115 G0 Z34
N9120 X87.889 Y147.081
N9125 Z32
N9130 G1 Z30 F2000
N9135 ; DEPOSITION ON
N9140 G180 D0.25 U0.75
N9145 Y202.961 F508
N9150 ; DEPOSITION OFF
N9155 G181 D0.25 U0.75
N9160 G0 Z34
N9165 X84.744 Y147.081
N9170 Z32
N9175 G1 Z30 F2000
N9180 ; DEPOSITION ON
N9185 G180 D0.25 U0.75
N9190 Y202.961 F508
N9195 ; DEPOSITION OFF
N9200 G181 D0.25 U0.75
N9205 G0 Z34
N9210 X81.599 Y147.081
N9215 Z32
N9220 G1 Z30 F2000
N9225 ; DEPOSITION ON
N9230 G180 D0.25 U0.75
N9235 Y202.961 F508
N9240 ; DEPOSITION OFF
N9245 G181 D0.25 U0.75
N9250 G0 Z34
N9255 X78.454 Y147.081
N9260 Z32
N9265 G1 Z30 F2000
N9270 ; DEPOSITION ON
N9275 G180 D0.25 U0.75
N9280 Y202.961 F508
N9285 ; DEPOSITION OFF
N9290 G181 D0.25 U0.75
N9295 G0 Z34
N9300 X75.309 Y147.081
N9305 Z32
N9310 G1 Z30 F2000
N9315 ; DEPOSITION ON
N9320 G180 D0.25 U0.75
N9325 Y202.961 F508
N9330 ; DEPOSITION OFF
N9335 G181 D0.25 U0.75
N9340 G0 Z34
N9345 X72.164 Y147.081
N9350 Z32
N9355 G1 Z30 F2000
N9360 ; DEPOSITION ON
N9365 G180 D0.25 U0.75
N9370 Y202.961 F508
N9375 ; DEPOSITION OFF
N9380 G181 D0.25 U0.75
N9385 G0 Z34
N9390 X69.019 Y147.081
N9395 Z32
N9400 G1 Z30 F2000
N9405 ; DEPOSITION ON
N9410 G180 D0.25 U0.75
N9415 Y202.961 F508
N9420 ; DEPOSITION OFF
N9425 G181 D0.25 U0.75
N9430 G0 Z34
N9435 X127.439 Y147.081
N9440 Z32
N9445 G1 Z30 F2000
N9450 ; DEPOSITION ON
N9455 G180 D0.25 U0.75
N9460 Y202.961 F508
N9465 ; DEPOSITION OFF
N9470 G181 D0.25 U0.75
N9475 G0 Z34
N9480 X124.294 Y147.081
N9485 Z32
N9490 G1 Z30 F2000
N9495 ; DEPOSITION ON
N9500 G180 D0.25 U0.75
N9505 Y202.961 F508
N9510 ; DEPOSITION OFF
N9515 G181 D0.25 U0.75
N9520 G0 Z34
N9525 X121.149 Y147.081
N9530 Z32
N9535 G1 Z30 F2000
N9540 ; DEPOSITION ON
N9545 G180 D0.25 U0.75
N9550 Y202.961 F508
N9555 ; DEPOSITION OFF
N9560 G181 D0.25 U0.75
N9565 G0 Z34
N9570 X118.004 Y147.081
N9575 Z32
N9580 G1 Z30 F2000
N9585 ; DEPOSITION ON
N9590 G180 D0.25 U0.75
N9595 Y202.961 F508
N9600 ; DEPOSITION OFF
N9605 G181 D0.25 U0.75
N9610 G0 Z34
N9615 X114.859 Y147.081
N9620 Z32
N9625 G1 Z30 F2000
N9630 ; DEPOSITION ON
N9635 G180 D0.25 U0.75
N9640 Y202.961 F508
N9645 ; DEPOSITION OFF
N9650 G181 D0.25 U0.75
N9655 G0 Z34
N9660 X111.714 Y147.081
N9665 Z32
N9670 G1 Z30 F2000
N9675 ; DEPOSITION ON
N9680 G180 D0.25 U0.75
N9685 Y202.961 F508
N9690 ; DEPOSITION OFF
N9695 G181 D0.25 U0.75
N9700 G0 Z34
N9705 X108.569 Y147.081
N9710 Z32
N9715 G1 Z30 F2000
N9720 ; DEPOSITION ON
N9725 G180 D0.25 U0.75
N9730 Y202.961 F508
N9735 ; DEPOSITION OFF
N9740 G181 D0.25 U0.75
N9745 G0 Z34
N9750 X105.424 Y147.081
N9755 Z32
N9760 G1 Z30 F2000
N9765 ; DEPOSITION ON
N9770 G180 D0.25 U0.75
N9775 Y202.961 F508
N9780 ; DEPOSITION OFF
N9785 G181 D0.25 U0.75
N9790 G0 Z34
N9795 X102.279 Y147.081
N9800 Z32
N9805 G1 Z30 F2000
N9810 ; DEPOSITION ON
N9815 G180 D0.25 U0.75
N9820 Y202.961 F508
N9825 G181 D0.25 U0.75
N9830 V.P.layer_num = 16
N9835 P12011=0
N9840 #PCALL decking.nc P1 = V.P.layer_num
N9845 P12012= 16
N9850 P12011=1
N9855 ; LAYER 16  END
N9860 ; DEPOSITION OFF
N9865 G181 D0.25 U0.75
N9870 G0 Z36
N9875 X95.179 Y147.081
N9880 Z34
N9885 G1 Z32 F2000
N9890 ; LAYER 17 START
N9895 ; DEPOSITION ON
N9900 G180 D0.25 U0.75
N9905 Y202.961 F508
N9910 ; DEPOSITION OFF
N9915 G181 D0.25 U0.75
N9920 G0 Z36
N9925 X91.909 Y147.081
N9930 Z34
N9935 G1 Z32 F2000
N9940 ; DEPOSITION ON
N9945 G180 D0.25 U0.75
N9950 Y202.961 F508
N9955 ; DEPOSITION OFF
N9960 G181 D0.25 U0.75
N9965 G0 Z36
N9970 X88.639 Y147.081
N9975 Z34
N9980 G1 Z32 F2000
N9985 ; DEPOSITION ON
N9990 G180 D0.25 U0.75
N9995 Y202.961 F508
N10000 ; DEPOSITION OFF
N10005 G181 D0.25 U0.75
N10010 G0 Z36
N10015 X85.369 Y147.081
N10020 Z34
N10025 G1 Z32 F2000
N10030 ; DEPOSITION ON
N10035 G180 D0.25 U0.75
N10040 Y202.961 F508
N10045 ; DEPOSITION OFF
N10050 G181 D0.25 U0.75
N10055 G0 Z36
N10060 X82.099 Y147.081
N10065 Z34
N10070 G1 Z32 F2000
N10075 ; DEPOSITION ON
N10080 G180 D0.25 U0.75
N10085 Y202.961 F508
N10090 ; DEPOSITION OFF
N10095 G181 D0.25 U0.75
N10100 G0 Z36
N10105 X78.829 Y147.081
N10110 Z34
N10115 G1 Z32 F2000
N10120 ; DEPOSITION ON
N10125 G180 D0.25 U0.75
N10130 Y202.961 F508
N10135 ; DEPOSITION OFF
N10140 G181 D0.25 U0.75
N10145 G0 Z36
N10150 X75.559 Y147.081
N10155 Z34
N10160 G1 Z32 F2000
N10165 ; DEPOSITION ON
N10170 G180 D0.25 U0.75
N10175 Y202.961 F508
N10180 ; DEPOSITION OFF
N10185 G181 D0.25 U0.75
N10190 G0 Z36
N10195 X72.289 Y147.081
N10200 Z34
N10205 G1 Z32 F2000
N10210 ; DEPOSITION ON
N10215 G180 D0.25 U0.75
N10220 Y202.961 F508
N10225 ; DEPOSITION OFF
N10230 G181 D0.25 U0.75
N10235 G0 Z36
N10240 X69.019 Y147.081
N10245 Z34
N10250 G1 Z32 F2000
N10255 ; DEPOSITION ON
N10260 G180 D0.25 U0.75
N10265 Y202.961 F508
N10270 ; DEPOSITION OFF
N10275 G181 D0.25 U0.75
N10280 G0 Z36
N10285 X127.439 Y147.081
N10290 Z34
N10295 G1 Z32 F2000
N10300 ; DEPOSITION ON
N10305 G180 D0.25 U0.75
N10310 Y202.961 F508
N10315 ; DEPOSITION OFF
N10320 G181 D0.25 U0.75
N10325 G0 Z36
N10330 X124.169 Y147.081
N10335 Z34
N10340 G1 Z32 F2000
N10345 ; DEPOSITION ON
N10350 G180 D0.25 U0.75
N10355 Y202.961 F508
N10360 ; DEPOSITION OFF
N10365 G181 D0.25 U0.75
N10370 G0 Z36
N10375 X120.899 Y147.081
N10380 Z34
N10385 G1 Z32 F2000
N10390 ; DEPOSITION ON
N10395 G180 D0.25 U0.75
N10400 Y202.961 F508
N10405 ; DEPOSITION OFF
N10410 G181 D0.25 U0.75
N10415 G0 Z36
N10420 X117.629 Y147.081
N10425 Z34
N10430 G1 Z32 F2000
N10435 ; DEPOSITION ON
N10440 G180 D0.25 U0.75
N10445 Y202.961 F508
N10450 ; DEPOSITION OFF
N10455 G181 D0.25 U0.75
N10460 G0 Z36
N10465 X114.359 Y147.081
N10470 Z34
N10475 G1 Z32 F2000
N10480 ; DEPOSITION ON
N10485 G180 D0.25 U0.75
N10490 Y202.961 F508
N10495 ; DEPOSITION OFF
N10500 G181 D0.25 U0.75
N10505 G0 Z36
N10510 X111.089 Y147.081
N10515 Z34
N10520 G1 Z32 F2000
N10525 ; DEPOSITION ON
N10530 G180 D0.25 U0.75
N10535 Y202.961 F508
N10540 ; DEPOSITION OFF
N10545 G181 D0.25 U0.75
N10550 G0 Z36
N10555 X107.819 Y147.081
N10560 Z34
N10565 G1 Z32 F2000
N10570 ; DEPOSITION ON
N10575 G180 D0.25 U0.75
N10580 Y202.961 F508
N10585 ; DEPOSITION OFF
N10590 G181 D0.25 U0.75
N10595 G0 Z36
N10600 X104.549 Y147.081
N10605 Z34
N10610 G1 Z32 F2000
N10615 ; DEPOSITION ON
N10620 G180 D0.25 U0.75
N10625 Y202.961 F508
N10630 ; DEPOSITION OFF
N10635 G181 D0.25 U0.75
N10640 G0 Z36
N10645 X101.279 Y147.081
N10650 Z34
N10655 G1 Z32 F2000
N10660 ; DEPOSITION ON
N10665 G180 D0.25 U0.75
N10670 Y202.961 F508
N10675 G181 D0.25 U0.75
N10680 V.P.layer_num = 17
N10685 P12011=0
N10690 #PCALL decking.nc P1 = V.P.layer_num
N10695 P12012= 17
N10700 P12011=1
N10705 ; LAYER 17  END
N10710 ; DEPOSITION OFF
N10715 G181 D0.25 U0.75
N10720 G0 Z38
N10725 X96.179 Y147.081
N10730 Z36
N10735 G1 Z34 F2000
N10740 ; LAYER 18 START
N10745 ; DEPOSITION ON
N10750 G180 D0.25 U0.75
N10755 Y202.961 F508
N10760 ; DEPOSITION OFF
N10765 G181 D0.25 U0.75
N10770 G0 Z38
N10775 X92.784 Y147.081
N10780 Z36
N10785 G1 Z34 F2000
N10790 ; DEPOSITION ON
N10795 G180 D0.25 U0.75
N10800 Y202.961 F508
N10805 ; DEPOSITION OFF
N10810 G181 D0.25 U0.75
N10815 G0 Z38
N10820 X89.389 Y147.081
N10825 Z36
N10830 G1 Z34 F2000
N10835 ; DEPOSITION ON
N10840 G180 D0.25 U0.75
N10845 Y202.961 F508
N10850 ; DEPOSITION OFF
N10855 G181 D0.25 U0.75
N10860 G0 Z38
N10865 X85.994 Y147.081
N10870 Z36
N10875 G1 Z34 F2000
N10880 ; DEPOSITION ON
N10885 G180 D0.25 U0.75
N10890 Y202.961 F508
N10895 ; DEPOSITION OFF
N10900 G181 D0.25 U0.75
N10905 G0 Z38
N10910 X82.599 Y147.081
N10915 Z36
N10920 G1 Z34 F2000
N10925 ; DEPOSITION ON
N10930 G180 D0.25 U0.75
N10935 Y202.961 F508
N10940 ; DEPOSITION OFF
N10945 G181 D0.25 U0.75
N10950 G0 Z38
N10955 X79.204 Y147.081
N10960 Z36
N10965 G1 Z34 F2000
N10970 ; DEPOSITION ON
N10975 G180 D0.25 U0.75
N10980 Y202.961 F508
N10985 ; DEPOSITION OFF
N10990 G181 D0.25 U0.75
N10995 G0 Z38
N11000 X75.809 Y147.081
N11005 Z36
N11010 G1 Z34 F2000
N11015 ; DEPOSITION ON
N11020 G180 D0.25 U0.75
N11025 Y202.961 F508
N11030 ; DEPOSITION OFF
N11035 G181 D0.25 U0.75
N11040 G0 Z38
N11045 X72.414 Y147.081
N11050 Z36
N11055 G1 Z34 F2000
N11060 ; DEPOSITION ON
N11065 G180 D0.25 U0.75
N11070 Y202.961 F508
N11075 ; DEPOSITION OFF
N11080 G181 D0.25 U0.75
N11085 G0 Z38
N11090 X69.019 Y147.081
N11095 Z36
N11100 G1 Z34 F2000
N11105 ; DEPOSITION ON
N11110 G180 D0.25 U0.75
N11115 Y202.961 F508
N11120 ; DEPOSITION OFF
N11125 G181 D0.25 U0.75
N11130 G0 Z38
N11135 X127.439 Y147.081
N11140 Z36
N11145 G1 Z34 F2000
N11150 ; DEPOSITION ON
N11155 G180 D0.25 U0.75
N11160 Y202.961 F508
N11165 ; DEPOSITION OFF
N11170 G181 D0.25 U0.75
N11175 G0 Z38
N11180 X124.044 Y147.081
N11185 Z36
N11190 G1 Z34 F2000
N11195 ; DEPOSITION ON
N11200 G180 D0.25 U0.75
N11205 Y202.961 F508
N11210 ; DEPOSITION OFF
N11215 G181 D0.25 U0.75
N11220 G0 Z38
N11225 X120.649 Y147.081
N11230 Z36
N11235 G1 Z34 F2000
N11240 ; DEPOSITION ON
N11245 G180 D0.25 U0.75
N11250 Y202.961 F508
N11255 ; DEPOSITION OFF
N11260 G181 D0.25 U0.75
N11265 G0 Z38
N11270 X117.254 Y147.081
N11275 Z36
N11280 G1 Z34 F2000
N11285 ; DEPOSITION ON
N11290 G180 D0.25 U0.75
N11295 Y202.961 F508
N11300 ; DEPOSITION OFF
N11305 G181 D0.25 U0.75
N11310 G0 Z38
N11315 X113.859 Y147.081
N11320 Z36
N11325 G1 Z34 F2000
N11330 ; DEPOSITION ON
N11335 G180 D0.25 U0.75
N11340 Y202.961 F508
N11345 ; DEPOSITION OFF
N11350 G181 D0.25 U0.75
N11355 G0 Z38
N11360 X110.464 Y147.081
N11365 Z36
N11370 G1 Z34 F2000
N11375 ; DEPOSITION ON
N11380 G180 D0.25 U0.75
N11385 Y202.961 F508
N11390 ; DEPOSITION OFF
N11395 G181 D0.25 U0.75
N11400 G0 Z38
N11405 X107.069 Y147.081
N11410 Z36
N11415 G1 Z34 F2000
N11420 ; DEPOSITION ON
N11425 G180 D0.25 U0.75
N11430 Y202.961 F508
N11435 ; DEPOSITION OFF
N11440 G181 D0.25 U0.75
N11445 G0 Z38
N11450 X103.674 Y147.081
N11455 Z36
N11460 G1 Z34 F2000
N11465 ; DEPOSITION ON
N11470 G180 D0.25 U0.75
N11475 Y202.961 F508
N11480 ; DEPOSITION OFF
N11485 G181 D0.25 U0.75
N11490 G0 Z38
N11495 X100.279 Y147.081
N11500 Z36
N11505 G1 Z34 F2000
N11510 ; DEPOSITION ON
N11515 G180 D0.25 U0.75
N11520 Y202.961 F508
N11525 G181 D0.25 U0.75
N11530 V.P.layer_num = 18
N11535 P12011=0
N11540 #PCALL decking.nc P1 = V.P.layer_num
N11545 P12012= 18
N11550 P12011=1
N11555 ; LAYER 18  END
N11560 ; DEPOSITION OFF
N11565 G181 D0.25 U0.75
N11570 G0 Z40
N11575 X97.179 Y147.081
N11580 Z38
N11585 G1 Z36 F2000
N11590 ; LAYER 19 START
N11595 ; DEPOSITION ON
N11600 G180 D0.25 U0.75
N11605 Y202.961 F508
N11610 ; DEPOSITION OFF
N11615 G181 D0.25 U0.75
N11620 G0 Z40
N11625 X93.659 Y147.081
N11630 Z38
N11635 G1 Z36 F2000
N11640 ; DEPOSITION ON
N11645 G180 D0.25 U0.75
N11650 Y202.961 F508
N11655 ; DEPOSITION OFF
N11660 G181 D0.25 U0.75
N11665 G0 Z40
N11670 X90.139 Y147.081
N11675 Z38
N11680 G1 Z36 F2000
N11685 ; DEPOSITION ON
N11690 G180 D0.25 U0.75
N11695 Y202.961 F508
N11700 ; DEPOSITION OFF
N11705 G181 D0.25 U0.75
N11710 G0 Z40
N11715 X86.619 Y147.081
N11720 Z38
N11725 G1 Z36 F2000
N11730 ; DEPOSITION ON
N11735 G180 D0.25 U0.75
N11740 Y202.961 F508
N11745 ; DEPOSITION OFF
N11750 G181 D0.25 U0.75
N11755 G0 Z40
N11760 X83.099 Y147.081
N11765 Z38
N11770 G1 Z36 F2000
N11775 ; DEPOSITION ON
N11780 G180 D0.25 U0.75
N11785 Y202.961 F508
N11790 ; DEPOSITION OFF
N11795 G181 D0.25 U0.75
N11800 G0 Z40
N11805 X79.579 Y147.081
N11810 Z38
N11815 G1 Z36 F2000
N11820 ; DEPOSITION ON
N11825 G180 D0.25 U0.75
N11830 Y202.961 F508
N11835 ; DEPOSITION OFF
N11840 G181 D0.25 U0.75
N11845 G0 Z40
N11850 X76.059 Y147.081
N11855 Z38
N11860 G1 Z36 F2000
N11865 ; DEPOSITION ON
N11870 G180 D0.25 U0.75
N11875 Y202.961 F508
N11880 ; DEPOSITION OFF
N11885 G181 D0.25 U0.75
N11890 G0 Z40
N11895 X72.539 Y147.081
N11900 Z38
N11905 G1 Z36 F2000
N11910 ; DEPOSITION ON
N11915 G180 D0.25 U0.75
N11920 Y202.961 F508
N11925 ; DEPOSITION OFF
N11930 G181 D0.25 U0.75
N11935 G0 Z40
N11940 X69.019 Y147.081
N11945 Z38
N11950 G1 Z36 F2000
N11955 ; DEPOSITION ON
N11960 G180 D0.25 U0.75
N11965 Y202.961 F508
N11970 ; DEPOSITION OFF
N11975 G181 D0.25 U0.75
N11980 G0 Z40
N11985 X127.439 Y147.081
N11990 Z38
N11995 G1 Z36 F2000
N12000 ; DEPOSITION ON
N12005 G180 D0.25 U0.75
N12010 Y202.961 F508
N12015 ; DEPOSITION OFF
N12020 G181 D0.25 U0.75
N12025 G0 Z40
N12030 X123.919 Y147.081
N12035 Z38
N12040 G1 Z36 F2000
N12045 ; DEPOSITION ON
N12050 G180 D0.25 U0.75
N12055 Y202.961 F508
N12060 ; DEPOSITION OFF
N12065 G181 D0.25 U0.75
N12070 G0 Z40
N12075 X120.399 Y147.081
N12080 Z38
N12085 G1 Z36 F2000
N12090 ; DEPOSITION ON
N12095 G180 D0.25 U0.75
N12100 Y202.961 F508
N12105 ; DEPOSITION OFF
N12110 G181 D0.25 U0.75
N12115 G0 Z40
N12120 X116.879 Y147.081
N12125 Z38
N12130 G1 Z36 F2000
N12135 ; DEPOSITION ON
N12140 G180 D0.25 U0.75
N12145 Y202.961 F508
N12150 ; DEPOSITION OFF
N12155 G181 D0.25 U0.75
N12160 G0 Z40
N12165 X113.359 Y147.081
N12170 Z38
N12175 G1 Z36 F2000
N12180 ; DEPOSITION ON
N12185 G180 D0.25 U0.75
N12190 Y202.961 F508
N12195 ; DEPOSITION OFF
N12200 G181 D0.25 U0.75
N12205 G0 Z40
N12210 X109.839 Y147.081
N12215 Z38
N12220 G1 Z36 F2000
N12225 ; DEPOSITION ON
N12230 G180 D0.25 U0.75
N12235 Y202.961 F508
N12240 ; DEPOSITION OFF
N12245 G181 D0.25 U0.75
N12250 G0 Z40
N12255 X106.319 Y147.081
N12260 Z38
N12265 G1 Z36 F2000
N12270 ; DEPOSITION ON
N12275 G180 D0.25 U0.75
N12280 Y202.961 F508
N12285 ; DEPOSITION OFF
N12290 G181 D0.25 U0.75
N12295 G0 Z40
N12300 X102.799 Y147.081
N12305 Z38
N12310 G1 Z36 F2000
N12315 ; DEPOSITION ON
N12320 G180 D0.25 U0.75
N12325 Y202.961 F508
N12330 ; DEPOSITION OFF
N12335 G181 D0.25 U0.75
N12340 G0 Z40
N12345 X99.279 Y147.081
N12350 Z38
N12355 G1 Z36 F2000
N12360 ; DEPOSITION ON
N12365 G180 D0.25 U0.75
N12370 Y202.961 F508
N12375 G181 D0.25 U0.75
N12380 V.P.layer_num = 19
N12385 P12011=0
N12390 #PCALL decking.nc P1 = V.P.layer_num
N12395 P12012= 19
N12400 P12011=1
N12405 ; LAYER 19  END
N12410 ; DEPOSITION OFF
N12415 G181 D0.25 U0.75
N12420 G0 Z42
N12425 X127.439 Y147.081
N12430 Z40
N12435 G1 Z38 F2000
N12440 ; LAYER 20 START
N12445 ; DEPOSITION ON
N12450 G180 D0.25 U0.75
N12455 Y202.961 F508
N12460 ; DEPOSITION OFF
N12465 G181 D0.25 U0.75
N12470 G0 Z42
N12475 X124.003 Y147.081
N12480 Z40
N12485 G1 Z38 F2000
N12490 ; DEPOSITION ON
N12495 G180 D0.25 U0.75
N12500 Y202.961 F508
N12505 ; DEPOSITION OFF
N12510 G181 D0.25 U0.75
N12515 G0 Z42
N12520 X120.566 Y147.081
N12525 Z40
N12530 G1 Z38 F2000
N12535 ; DEPOSITION ON
N12540 G180 D0.25 U0.75
N12545 Y202.961 F508
N12550 ; DEPOSITION OFF
N12555 G181 D0.25 U0.75
N12560 G0 Z42
N12565 X117.13 Y147.081
N12570 Z40
N12575 G1 Z38 F2000
N12580 ; DEPOSITION ON
N12585 G180 D0.25 U0.75
N12590 Y202.961 F508
N12595 ; DEPOSITION OFF
N12600 G181 D0.25 U0.75
N12605 G0 Z42
N12610 X113.693 Y147.081
N12615 Z40
N12620 G1 Z38 F2000
N12625 ; DEPOSITION ON
N12630 G180 D0.25 U0.75
N12635 Y202.961 F508
N12640 ; DEPOSITION OFF
N12645 G181 D0.25 U0.75
N12650 G0 Z42
N12655 X110.257 Y147.081
N12660 Z40
N12665 G1 Z38 F2000
N12670 ; DEPOSITION ON
N12675 G180 D0.25 U0.75
N12680 Y202.961 F508
N12685 ; DEPOSITION OFF
N12690 G181 D0.25 U0.75
N12695 G0 Z42
N12700 X106.82 Y147.081
N12705 Z40
N12710 G1 Z38 F2000
N12715 ; DEPOSITION ON
N12720 G180 D0.25 U0.75
N12725 Y202.961 F508
N12730 ; DEPOSITION OFF
N12735 G181 D0.25 U0.75
N12740 G0 Z42
N12745 X103.384 Y147.081
N12750 Z40
N12755 G1 Z38 F2000
N12760 ; DEPOSITION ON
N12765 G180 D0.25 U0.75
N12770 Y202.961 F508
N12775 ; DEPOSITION OFF
N12780 G181 D0.25 U0.75
N12785 G0 Z42
N12790 X99.947 Y147.081
N12795 Z40
N12800 G1 Z38 F2000
N12805 ; DEPOSITION ON
N12810 G180 D0.25 U0.75
N12815 Y202.961 F508
N12820 ; DEPOSITION OFF
N12825 G181 D0.25 U0.75
N12830 G0 Z42
N12835 X96.511 Y147.081
N12840 Z40
N12845 G1 Z38 F2000
N12850 ; DEPOSITION ON
N12855 G180 D0.25 U0.75
N12860 Y202.961 F508
N12865 ; DEPOSITION OFF
N12870 G181 D0.25 U0.75
N12875 G0 Z42
N12880 X93.074 Y147.081
N12885 Z40
N12890 G1 Z38 F2000
N12895 ; DEPOSITION ON
N12900 G180 D0.25 U0.75
N12905 Y202.961 F508
N12910 ; DEPOSITION OFF
N12915 G181 D0.25 U0.75
N12920 G0 Z42
N12925 X89.638 Y147.081
N12930 Z40
N12935 G1 Z38 F2000
N12940 ; DEPOSITION ON
N12945 G180 D0.25 U0.75
N12950 Y202.961 F508
N12955 ; DEPOSITION OFF
N12960 G181 D0.25 U0.75
N12965 G0 Z42
N12970 X86.202 Y147.081
N12975 Z40
N12980 G1 Z38 F2000
N12985 ; DEPOSITION ON
N12990 G180 D0.25 U0.75
N12995 Y202.961 F508
N13000 ; DEPOSITION OFF
N13005 G181 D0.25 U0.75
N13010 G0 Z42
N13015 X82.765 Y147.081
N13020 Z40
N13025 G1 Z38 F2000
N13030 ; DEPOSITION ON
N13035 G180 D0.25 U0.75
N13040 Y202.961 F508
N13045 ; DEPOSITION OFF
N13050 G181 D0.25 U0.75
N13055 G0 Z42
N13060 X79.329 Y147.081
N13065 Z40
N13070 G1 Z38 F2000
N13075 ; DEPOSITION ON
N13080 G180 D0.25 U0.75
N13085 Y202.961 F508
N13090 ; DEPOSITION OFF
N13095 G181 D0.25 U0.75
N13100 G0 Z42
N13105 X75.892 Y147.081
N13110 Z40
N13115 G1 Z38 F2000
N13120 ; DEPOSITION ON
N13125 G180 D0.25 U0.75
N13130 Y202.961 F508
N13135 ; DEPOSITION OFF
N13140 G181 D0.25 U0.75
N13145 G0 Z42
N13150 X72.456 Y147.081
N13155 Z40
N13160 G1 Z38 F2000
N13165 ; DEPOSITION ON
N13170 G180 D0.25 U0.75
N13175 Y202.961 F508
N13180 ; DEPOSITION OFF
N13185 G181 D0.25 U0.75
N13190 G0 Z42
N13195 X69.019 Y147.081
N13200 Z40
N13205 G1 Z38 F2000
N13210 ; DEPOSITION ON
N13215 G180 D0.25 U0.75
N13220 Y202.961 F508
N13225 G181 D0.25 U0.75
N13230 V.P.layer_num = 20
N13235 P12011=0
N13240 #PCALL decking.nc P1 = V.P.layer_num
N13245 P12012= 20
N13250 P12011=1
N13255 ; LAYER 20  END
N13260 ; DEPOSITION OFF
N13265 G181 D0.25 U0.75
N13270 G0 Z53.1
N13275 M5
N13280 #MCS OFF
N13285 G0 G53 Z0
N13290 X0 Y0
N13295 A0. C0.
N13296 #MCS Z0
N13300 M30
