; EDITED

;deposittest11 
N10 ; MACHINE 
N15 ; VENDOR AUTODESK 
N20 ; MODEL GENERIC DED 
N25 ; DESCRIPTION GENERIC DIRECT ENERGY DEPOSITION MACHINE WITH EXPORT TO SIMULATION AND POWERMILL 
N30 ; T1 D=0 CR=0 - ZMIN=2 - ELECTRIC ARC WIRE 
N35 #MCS OFF 
N40 #CS OFF 
N45 G71 G80 G90 
N50 G17 G40 
N55 G54 
N60 ; PROCESS ON 
N65 ; PROCESS OFF 
N70 ; PROCESS ON 
N75 ; PROCESS OFF 
N80 G0 G54 Z609.6 
N85 X0 Y0 

N95 ; FEATURE CONSTRUCTION3 
N100 T1 M6 
N115 G4 K3 
N120 G0 
N125 G54 
N140 D2 
N145 G0 X63.5 Y63.552 

N155 G0 Z2 
N160 ; LAYER 1 START 
N165 ; DEPOSITION ON 
N170 G180 D0.25 U0.75 
N175 G94 G1 X127 F508 
N180 ; DEPOSITION OFF 
N185 G181 D0.25 U0.75 
N190 Y67.237 
N195 ; DEPOSITION ON 
N200 G180 D0.25 U0.75 
N205 X63.5 
N210 ; DEPOSITION OFF 
N215 G181 D0.25 U0.75 
N220 Y70.923 
N225 ; DEPOSITION ON 
N230 G180 D0.25 U0.75 
N235 X127 
N240 ; DEPOSITION OFF 
N245 G181 D0.25 U0.75 
N250 Y74.607 
N255 ; DEPOSITION ON 
N260 G180 D0.25 U0.75 
N265 X63.5 
N270 ; DEPOSITION OFF 
N275 G181 D0.25 U0.75 
N280 G0 Y110.813 
N285 ; DEPOSITION ON 
N290 G180 D0.25 U0.75 
N295 G1 X127 F508 
N300 ; DEPOSITION OFF 
N305 G181 D0.25 U0.75 
N310 Y114.497 
N315 ; DEPOSITION ON 
N320 G180 D0.25 U0.75 
N325 X63.5 
N330 ; DEPOSITION OFF 
N335 G181 D0.25 U0.75 
N340 Y118.183 
N345 ; DEPOSITION ON 
N350 G180 D0.25 U0.75 
N355 X127 
N360 ; DEPOSITION OFF 
N365 G181 D0.25 U0.75 
N370 Y121.868 
N375 ; DEPOSITION ON 
N380 G180 D0.25 U0.75 
N385 X63.5 
N390 G181 D0.25 U0.75 
N395 V.P.layer_num = 1 
N400 P12011=0 
N405 #PCALL decking.nc P1 = V.P.layer_num 
N410 P12012= 1 
N415 P12011=1 
N420 ; LAYER 1 END 
N425 ; DEPOSITION OFF 
N430 G181 D0.25 U0.75 
N435 G0 Z4 
N440 Y63.5 
N445 ; LAYER 2 START 
N450 ; DEPOSITION ON 
N455 G180 D0.25 U0.75 
N460 G1 X127 F508 
N465 ; DEPOSITION OFF 
N470 G181 D0.25 U0.75 
N475 Y66.54 
N480 ; DEPOSITION ON 
N485 G180 D0.25 U0.75 
N490 X63.5 
N495 ; DEPOSITION OFF 
N500 G181 D0.25 U0.75 
N505 Y69.58 
N510 ; DEPOSITION ON 
N515 G180 D0.25 U0.75 
N520 X127 
N525 ; DEPOSITION OFF 
N530 G181 D0.25 U0.75 
N535 Y72.62 
N540 ; DEPOSITION ON 
N545 G180 D0.25 U0.75 
N550 X63.5 
N555 ; DEPOSITION OFF 
N560 G181 D0.25 U0.75 
N565 Y75.66 
N570 ; DEPOSITION ON 
N575 G180 D0.25 U0.75 
N580 X127 
N585 ; DEPOSITION OFF 
N590 G181 D0.25 U0.75 
N595 G0 X63.5 Y109.76 
N600 ; DEPOSITION ON 
N605 G180 D0.25 U0.75 
N610 G1 X127 F508 
N615 ; DEPOSITION OFF 
N620 G181 D0.25 U0.75 
N625 Y112.8 
N630 ; DEPOSITION ON 
N635 G180 D0.25 U0.75 
N640 X63.5 
N645 ; DEPOSITION OFF 
N650 G181 D0.25 U0.75 
N655 Y115.84 
N660 ; DEPOSITION ON 
N665 G180 D0.25 U0.75 
N670 X127 
N675 ; DEPOSITION OFF 
N680 G181 D0.25 U0.75 
N685 Y118.88 
N690 ; DEPOSITION ON 
N695 G180 D0.25 U0.75 
N700 X63.5 
N705 ; DEPOSITION OFF 
N710 G181 D0.25 U0.75 
N715 Y121.92 
N720 ; DEPOSITION ON 
N725 G180 D0.25 U0.75 
N730 X127 
N735 G181 D0.25 U0.75 
N740 V.P.layer_num = 2 
N745 P12011=0 
N750 #PCALL decking.nc P1 = V.P.layer_num 
N755 P12012= 2 
N760 P12011=1 
N765 ; LAYER 2 END 
N770 ; DEPOSITION OFF 
N775 G181 D0.25 U0.75 
N780 G0 Z6 
N785 X63.5 Y63.5 
N790 ; LAYER 3 START 
N795 ; DEPOSITION ON 
N800 G180 D0.25 U0.75 
N805 G1 X127 F508 
N810 ; DEPOSITION OFF 
N815 G181 D0.25 U0.75 
N820 Y66.79 
N825 ; DEPOSITION ON 
N830 G180 D0.25 U0.75 
N835 X63.5 
N840 ; DEPOSITION OFF 
N845 G181 D0.25 U0.75 
N850 Y70.08 
N855 ; DEPOSITION ON 
N860 G180 D0.25 U0.75 
N865 X127 
N870 ; DEPOSITION OFF 
N875 G181 D0.25 U0.75 
N880 Y73.37 
N885 ; DEPOSITION ON 
N890 G180 D0.25 U0.75 
N895 X63.5 
N900 ; DEPOSITION OFF 
N905 G181 D0.25 U0.75 
N910 Y76.66 
N915 ; DEPOSITION ON 
N920 G180 D0.25 U0.75 
N925 X127 
N930 ; DEPOSITION OFF 
N935 G181 D0.25 U0.75 
N940 G0 X63.5 Y108.76 
N945 ; DEPOSITION ON 
N950 G180 D0.25 U0.75 
N955 G1 X127 F508 
N960 ; DEPOSITION OFF 
N965 G181 D0.25 U0.75 
N970 Y112.05 
N975 ; DEPOSITION ON 
N980 G180 D0.25 U0.75 
N985 X63.5 
N990 ; DEPOSITION OFF 
N995 G181 D0.25 U0.75 
N1000 Y115.34 
N1005 ; DEPOSITION ON 
N1010 G180 D0.25 U0.75 
N1015 X127 
N1020 ; DEPOSITION OFF 
N1025 G181 D0.25 U0.75 
N1030 Y118.63 
N1035 ; DEPOSITION ON 
N1040 G180 D0.25 U0.75 
N1045 X63.5 
N1050 ; DEPOSITION OFF 
N1055 G181 D0.25 U0.75 
N1060 Y121.92 
N1065 ; DEPOSITION ON 
N1070 G180 D0.25 U0.75 
N1075 X127 
N1080 G181 D0.25 U0.75 
N1085 V.P.layer_num = 3 
N1090 P12011=0 
N1095 #PCALL decking.nc P1 = V.P.layer_num 
N1100 P12012= 3 
N1105 P12011=1 
N1110 ; LAYER 3 END 
N1115 ; DEPOSITION OFF 
N1120 G181 D0.25 U0.75 
N1125 G0 Z8 
N1130 X63.5 Y63.5 
N1135 ; LAYER 4 START 
N1140 ; DEPOSITION ON 
N1145 G180 D0.25 U0.75 
N1150 G1 X127 F508 
N1155 ; DEPOSITION OFF 
N1160 G181 D0.25 U0.75 
N1165 Y67.04 
N1170 ; DEPOSITION ON 
N1175 G180 D0.25 U0.75 
N1180 X63.5 
N1185 ; DEPOSITION OFF 
N1190 G181 D0.25 U0.75 
N1195 Y70.58 
N1200 ; DEPOSITION ON 
N1205 G180 D0.25 U0.75 
N1210 X127 
N1215 ; DEPOSITION OFF 
N1220 G181 D0.25 U0.75 
N1225 Y74.12 
N1230 ; DEPOSITION ON 
N1235 G180 D0.25 U0.75 
N1240 X63.5 
N1245 ; DEPOSITION OFF 
N1250 G181 D0.25 U0.75 
N1255 Y77.66 
N1260 ; DEPOSITION ON 
N1265 G180 D0.25 U0.75 
N1270 X127 
N1275 ; DEPOSITION OFF 
N1280 G181 D0.25 U0.75 
N1285 G0 X63.5 Y107.76 
N1290 ; DEPOSITION ON 
N1295 G180 D0.25 U0.75 
N1300 G1 X127 F508 
N1305 ; DEPOSITION OFF 
N1310 G181 D0.25 U0.75 
N1315 Y111.3 
N1320 ; DEPOSITION ON 
N1325 G180 D0.25 U0.75 
N1330 X63.5 
N1335 ; DEPOSITION OFF 
N1340 G181 D0.25 U0.75 
N1345 Y114.84 
N1350 ; DEPOSITION ON 
N1355 G180 D0.25 U0.75 
N1360 X127 
N1365 ; DEPOSITION OFF 
N1370 G181 D0.25 U0.75 
N1375 Y118.38 
N1380 ; DEPOSITION ON 
N1385 G180 D0.25 U0.75 
N1390 X63.5 
N1395 ; DEPOSITION OFF 
N1400 G181 D0.25 U0.75 
N1405 Y121.92 
N1410 ; DEPOSITION ON 
N1415 G180 D0.25 U0.75 
N1420 X127 
N1425 G181 D0.25 U0.75 
N1430 V.P.layer_num = 4 
N1435 P12011=0 
N1440 #PCALL decking.nc P1 = V.P.layer_num 
N1445 P12012= 4 
N1450 P12011=1 
N1455 ; LAYER 4 END 
N1460 ; DEPOSITION OFF 
N1465 G181 D0.25 U0.75 
N1470 G0 Z10 
N1475 X63.5 Y63.5 
N1480 ; LAYER 5 START 
N1485 ; DEPOSITION ON 
N1490 G180 D0.25 U0.75 
N1495 G1 X127 F508 
N1500 ; DEPOSITION OFF 
N1505 G181 D0.25 U0.75 
N1510 Y66.532 
N1515 ; DEPOSITION ON 
N1520 G180 D0.25 U0.75 
N1525 X63.5 
N1530 ; DEPOSITION OFF 
N1535 G181 D0.25 U0.75 
N1540 Y69.564 
N1545 ; DEPOSITION ON 
N1550 G180 D0.25 U0.75 
N1555 X127 
N1560 ; DEPOSITION OFF 
N1565 G181 D0.25 U0.75 
N1570 Y72.596 
N1575 ; DEPOSITION ON 
N1580 G180 D0.25 U0.75 
N1585 X63.5 
N1590 ; DEPOSITION OFF 
N1595 G181 D0.25 U0.75 
N1600 Y75.628 
N1605 ; DEPOSITION ON 
N1610 G180 D0.25 U0.75 
N1615 X127 
N1620 ; DEPOSITION OFF 
N1625 G181 D0.25 U0.75 
N1630 Y78.66 
N1635 ; DEPOSITION ON 
N1640 G180 D0.25 U0.75 
N1645 X63.5 
N1650 ; DEPOSITION OFF 
N1655 G181 D0.25 U0.75 
N1660 G0 Y106.76 
N1665 ; DEPOSITION ON 
N1670 G180 D0.25 U0.75 
N1675 G1 X127 F508 
N1680 ; DEPOSITION OFF 
N1685 G181 D0.25 U0.75 
N1690 Y109.792 
N1695 ; DEPOSITION ON 
N1700 G180 D0.25 U0.75 
N1705 X63.5 
N1710 ; DEPOSITION OFF 
N1715 G181 D0.25 U0.75 
N1720 Y112.824 
N1725 ; DEPOSITION ON 
N1730 G180 D0.25 U0.75 
N1735 X127 
N1740 ; DEPOSITION OFF 
N1745 G181 D0.25 U0.75 
N1750 Y115.856 
N1755 ; DEPOSITION ON 
N1760 G180 D0.25 U0.75 
N1765 X63.5 
N1770 ; DEPOSITION OFF 
N1775 G181 D0.25 U0.75 
N1780 Y118.888 
N1785 ; DEPOSITION ON 
N1790 G180 D0.25 U0.75 
N1795 X127 
N1800 ; DEPOSITION OFF 
N1805 G181 D0.25 U0.75 
N1810 Y121.92 
N1815 ; DEPOSITION ON 
N1820 G180 D0.25 U0.75 
N1825 X63.5 
N1830 G181 D0.25 U0.75 
N1835 V.P.layer_num = 5 
N1840 P12011=0 
N1845 #PCALL decking.nc P1 = V.P.layer_num 
N1850 P12012= 5 
N1855 P12011=1 
N1860 ; LAYER 5 END 
N1865 ; DEPOSITION OFF 
N1870 G181 D0.25 U0.75 
N1875 G0 Z12 
N1880 Y63.5 
N1885 ; LAYER 6 START 
N1890 ; DEPOSITION ON 
N1895 G180 D0.25 U0.75 
N1900 G1 X127 F508 
N1905 ; DEPOSITION OFF 
N1910 G181 D0.25 U0.75 
N1915 Y66.732 
N1920 ; DEPOSITION ON 
N1925 G180 D0.25 U0.75 
N1930 X63.5 
N1935 ; DEPOSITION OFF 
N1940 G181 D0.25 U0.75 
N1945 Y69.964 
N1950 ; DEPOSITION ON 
N1955 G180 D0.25 U0.75 
N1960 X127 
N1965 ; DEPOSITION OFF 
N1970 G181 D0.25 U0.75 
N1975 Y73.196 
N1980 ; DEPOSITION ON 
N1985 G180 D0.25 U0.75 
N1990 X63.5 
N1995 ; DEPOSITION OFF 
N2000 G181 D0.25 U0.75 
N2005 Y76.428 
N2010 ; DEPOSITION ON 
N2015 G180 D0.25 U0.75 
N2020 X127 
N2025 ; DEPOSITION OFF 
N2030 G181 D0.25 U0.75 
N2035 Y79.66 
N2040 ; DEPOSITION ON 
N2045 G180 D0.25 U0.75 
N2050 X63.5 
N2055 ; DEPOSITION OFF 
N2060 G181 D0.25 U0.75 
N2065 G0 Y105.76 
N2070 ; DEPOSITION ON 
N2075 G180 D0.25 U0.75 
N2080 G1 X127 F508 
N2085 ; DEPOSITION OFF 
N2090 G181 D0.25 U0.75 
N2095 Y108.992 
N2100 ; DEPOSITION ON 
N2105 G180 D0.25 U0.75 
N2110 X63.5 
N2115 ; DEPOSITION OFF 
N2120 G181 D0.25 U0.75 
N2125 Y112.224 
N2130 ; DEPOSITION ON 
N2135 G180 D0.25 U0.75 
N2140 X127 
N2145 ; DEPOSITION OFF 
N2150 G181 D0.25 U0.75 
N2155 Y115.456 
N2160 ; DEPOSITION ON 
N2165 G180 D0.25 U0.75 
N2170 X63.5 
N2175 ; DEPOSITION OFF 
N2180 G181 D0.25 U0.75 
N2185 Y118.688 
N2190 ; DEPOSITION ON 
N2195 G180 D0.25 U0.75 
N2200 X127 
N2205 ; DEPOSITION OFF 
N2210 G181 D0.25 U0.75 
N2215 Y121.92 
N2220 ; DEPOSITION ON 
N2225 G180 D0.25 U0.75 
N2230 X63.5 
N2235 G181 D0.25 U0.75 
N2240 V.P.layer_num = 6 
N2245 P12011=0 
N2250 #PCALL decking.nc P1 = V.P.layer_num 
N2255 P12012= 6 
N2260 P12011=1 
N2265 ; LAYER 6 END 
N2270 ; DEPOSITION OFF 
N2275 G181 D0.25 U0.75 
N2280 G0 Z14 
N2285 Y63.5 
N2290 ; LAYER 7 START 
N2295 ; DEPOSITION ON 
N2300 G180 D0.25 U0.75 
N2305 G1 X127 F508 
N2310 ; DEPOSITION OFF 
N2315 G181 D0.25 U0.75 
N2320 Y66.932 
N2325 ; DEPOSITION ON 
N2330 G180 D0.25 U0.75 
N2335 X63.5 
N2340 ; DEPOSITION OFF 
N2345 G181 D0.25 U0.75 
N2350 Y70.364 
N2355 ; DEPOSITION ON 
N2360 G180 D0.25 U0.75 
N2365 X127 
N2370 ; DEPOSITION OFF 
N2375 G181 D0.25 U0.75 
N2380 Y73.796 
N2385 ; DEPOSITION ON 
N2390 G180 D0.25 U0.75 
N2395 X63.5 
N2400 ; DEPOSITION OFF 
N2405 G181 D0.25 U0.75 
N2410 Y77.228 
N2415 ; DEPOSITION ON 
N2420 G180 D0.25 U0.75 
N2425 X127 
N2430 ; DEPOSITION OFF 
N2435 G181 D0.25 U0.75 
N2440 Y80.66 
N2445 ; DEPOSITION ON 
N2450 G180 D0.25 U0.75 
N2455 X63.5 
N2460 ; DEPOSITION OFF 
N2465 G181 D0.25 U0.75 
N2470 G0 Y104.76 
N2475 ; DEPOSITION ON 
N2480 G180 D0.25 U0.75 
N2485 G1 X127 F508 
N2490 ; DEPOSITION OFF 
N2495 G181 D0.25 U0.75 
N2500 Y108.192 
N2505 ; DEPOSITION ON 
N2510 G180 D0.25 U0.75 
N2515 X63.5 
N2520 ; DEPOSITION OFF 
N2525 G181 D0.25 U0.75 
N2530 Y111.624 
N2535 ; DEPOSITION ON 
N2540 G180 D0.25 U0.75 
N2545 X127 
N2550 ; DEPOSITION OFF 
N2555 G181 D0.25 U0.75 
N2560 Y115.056 
N2565 ; DEPOSITION ON 
N2570 G180 D0.25 U0.75 
N2575 X63.5 
N2580 ; DEPOSITION OFF 
N2585 G181 D0.25 U0.75 
N2590 Y118.488 
N2595 ; DEPOSITION ON 
N2600 G180 D0.25 U0.75 
N2605 X127 
N2610 ; DEPOSITION OFF 
N2615 G181 D0.25 U0.75 
N2620 Y121.92 
N2625 ; DEPOSITION ON 
N2630 G180 D0.25 U0.75 
N2635 X63.5 
N2640 G181 D0.25 U0.75 
N2645 V.P.layer_num = 7 
N2650 P12011=0 
N2655 #PCALL decking.nc P1 = V.P.layer_num 
N2660 P12012= 7 
N2665 P12011=1 
N2670 ; LAYER 7 END 
N2675 ; DEPOSITION OFF 
N2680 G181 D0.25 U0.75 
N2685 G0 Z16 
N2690 Y63.5 
N2695 ; LAYER 8 START 
N2700 ; DEPOSITION ON 
N2705 G180 D0.25 U0.75 
N2710 G1 X127 F508 
N2715 ; DEPOSITION OFF 
N2720 G181 D0.25 U0.75 
N2725 Y67.132 
N2730 ; DEPOSITION ON 
N2735 G180 D0.25 U0.75 
N2740 X63.5 
N2745 ; DEPOSITION OFF 
N2750 G181 D0.25 U0.75 
N2755 Y70.764 
N2760 ; DEPOSITION ON 
N2765 G180 D0.25 U0.75 
N2770 X127 
N2775 ; DEPOSITION OFF 
N2780 G181 D0.25 U0.75 
N2785 Y74.396 
N2790 ; DEPOSITION ON 
N2795 G180 D0.25 U0.75 
N2800 X63.5 
N2805 ; DEPOSITION OFF 
N2810 G181 D0.25 U0.75 
N2815 Y78.028 
N2820 ; DEPOSITION ON 
N2825 G180 D0.25 U0.75 
N2830 X127 
N2835 ; DEPOSITION OFF 
N2840 G181 D0.25 U0.75 
N2845 Y81.66 
N2850 ; DEPOSITION ON 
N2855 G180 D0.25 U0.75 
N2860 X63.5 
N2865 ; DEPOSITION OFF 
N2870 G181 D0.25 U0.75 
N2875 G0 Y103.76 
N2880 ; DEPOSITION ON 
N2885 G180 D0.25 U0.75 
N2890 G1 X127 F508 
N2895 ; DEPOSITION OFF 
N2900 G181 D0.25 U0.75 
N2905 Y107.392 
N2910 ; DEPOSITION ON 
N2915 G180 D0.25 U0.75 
N2920 X63.5 
N2925 ; DEPOSITION OFF 
N2930 G181 D0.25 U0.75 
N2935 Y111.024 
N2940 ; DEPOSITION ON 
N2945 G180 D0.25 U0.75 
N2950 X127 
N2955 ; DEPOSITION OFF 
N2960 G181 D0.25 U0.75 
N2965 Y114.656 
N2970 ; DEPOSITION ON 
N2975 G180 D0.25 U0.75 
N2980 X63.5 
N2985 ; DEPOSITION OFF 
N2990 G181 D0.25 U0.75 
N2995 Y118.288 
N3000 ; DEPOSITION ON 
N3005 G180 D0.25 U0.75 
N3010 X127 
N3015 ; DEPOSITION OFF 
N3020 G181 D0.25 U0.75 
N3025 Y121.92 
N3030 ; DEPOSITION ON 
N3035 G180 D0.25 U0.75 
N3040 X63.5 
N3045 G181 D0.25 U0.75 
N3050 V.P.layer_num = 8 
N3055 P12011=0 
N3060 #PCALL decking.nc P1 = V.P.layer_num 
N3065 P12012= 8 
N3070 P12011=1 
N3075 ; LAYER 8 END 
N3080 ; DEPOSITION OFF 
N3085 G181 D0.25 U0.75 
N3090 G0 Z18 
N3095 Y63.5 
N3100 ; LAYER 9 START 
N3105 ; DEPOSITION ON 
N3110 G180 D0.25 U0.75 
N3115 G1 X127 F508 
N3120 ; DEPOSITION OFF 
N3125 G181 D0.25 U0.75 
N3130 Y66.693 
N3135 ; DEPOSITION ON 
N3140 G180 D0.25 U0.75 
N3145 X63.5 
N3150 ; DEPOSITION OFF 
N3155 G181 D0.25 U0.75 
N3160 Y69.887 
N3165 ; DEPOSITION ON 
N3170 G180 D0.25 U0.75 
N3175 X127 
N3180 ; DEPOSITION OFF 
N3185 G181 D0.25 U0.75 
N3190 Y73.08 
N3195 ; DEPOSITION ON 
N3200 G180 D0.25 U0.75 
N3205 X63.5 
N3210 ; DEPOSITION OFF 
N3215 G181 D0.25 U0.75 
N3220 Y76.273 
N3225 ; DEPOSITION ON 
N3230 G180 D0.25 U0.75 
N3235 X127 
N3240 ; DEPOSITION OFF 
N3245 G181 D0.25 U0.75 
N3250 Y79.467 
N3255 ; DEPOSITION ON 
N3260 G180 D0.25 U0.75 
N3265 X63.5 
N3270 ; DEPOSITION OFF 
N3275 G181 D0.25 U0.75 
N3280 Y82.66 
N3285 ; DEPOSITION ON 
N3290 G180 D0.25 U0.75 
N3295 X127 
N3300 ; DEPOSITION OFF 
N3305 G181 D0.25 U0.75 
N3310 G0 X63.5 Y102.76 
N3315 ; DEPOSITION ON 
N3320 G180 D0.25 U0.75 
N3325 G1 X127 F508 
N3330 ; DEPOSITION OFF 
N3335 G181 D0.25 U0.75 
N3340 Y105.953 
N3345 ; DEPOSITION ON 
N3350 G180 D0.25 U0.75 
N3355 X63.5 
N3360 ; DEPOSITION OFF 
N3365 G181 D0.25 U0.75 
N3370 Y109.147 
N3375 ; DEPOSITION ON 
N3380 G180 D0.25 U0.75 
N3385 X127 
N3390 ; DEPOSITION OFF 
N3395 G181 D0.25 U0.75 
N3400 Y112.34 
N3405 ; DEPOSITION ON 
N3410 G180 D0.25 U0.75 
N3415 X63.5 
N3420 ; DEPOSITION OFF 
N3425 G181 D0.25 U0.75 
N3430 Y115.533 
N3435 ; DEPOSITION ON 
N3440 G180 D0.25 U0.75 
N3445 X127 
N3450 ; DEPOSITION OFF 
N3455 G181 D0.25 U0.75 
N3460 Y118.727 
N3465 ; DEPOSITION ON 
N3470 G180 D0.25 U0.75 
N3475 X63.5 
N3480 ; DEPOSITION OFF 
N3485 G181 D0.25 U0.75 
N3490 Y121.92 
N3495 ; DEPOSITION ON 
N3500 G180 D0.25 U0.75 
N3505 X127 
N3510 G181 D0.25 U0.75 
N3515 V.P.layer_num = 9 
N3520 P12011=0 
N3525 #PCALL decking.nc P1 = V.P.layer_num 
N3530 P12012= 9 
N3535 P12011=1 
N3540 ; LAYER 9 END 
N3545 ; DEPOSITION OFF 
N3550 G181 D0.25 U0.75 
N3555 G0 Z20 
N3560 X63.5 Y63.5 
N3565 ; LAYER 10 START 
N3570 ; DEPOSITION ON 
N3575 G180 D0.25 U0.75 
N3580 G1 X127 F508 
N3585 ; DEPOSITION OFF 
N3590 G181 D0.25 U0.75 
N3595 Y66.86 
N3600 ; DEPOSITION ON 
N3605 G180 D0.25 U0.75 
N3610 X63.5 
N3615 ; DEPOSITION OFF 
N3620 G181 D0.25 U0.75 
N3625 Y70.22 
N3630 ; DEPOSITION ON 
N3635 G180 D0.25 U0.75 
N3640 X127 
N3645 ; DEPOSITION OFF 
N3650 G181 D0.25 U0.75 
N3655 Y73.58 
N3660 ; DEPOSITION ON 
N3665 G180 D0.25 U0.75 
N3670 X63.5 
N3675 ; DEPOSITION OFF 
N3680 G181 D0.25 U0.75 
N3685 Y76.94 
N3690 ; DEPOSITION ON 
N3695 G180 D0.25 U0.75 
N3700 X127 
N3705 ; DEPOSITION OFF 
N3710 G181 D0.25 U0.75 
N3715 Y80.3 
N3720 ; DEPOSITION ON 
N3725 G180 D0.25 U0.75 
N3730 X63.5 
N3735 ; DEPOSITION OFF 
N3740 G181 D0.25 U0.75 
N3745 Y83.66 
N3750 ; DEPOSITION ON 
N3755 G180 D0.25 U0.75 
N3760 X127 
N3765 ; DEPOSITION OFF 
N3770 G181 D0.25 U0.75 
N3775 G0 X63.5 Y101.76 
N3780 ; DEPOSITION ON 
N3785 G180 D0.25 U0.75 
N3790 G1 X127 F508 
N3795 ; DEPOSITION OFF 
N3800 G181 D0.25 U0.75 
N3805 Y105.12 
N3810 ; DEPOSITION ON 
N3815 G180 D0.25 U0.75 
N3820 X63.5 
N3825 ; DEPOSITION OFF 
N3830 G181 D0.25 U0.75 
N3835 Y108.48 
N3840 ; DEPOSITION ON 
N3845 G180 D0.25 U0.75 
N3850 X127 
N3855 ; DEPOSITION OFF 
N3860 G181 D0.25 U0.75 
N3865 Y111.84 
N3870 ; DEPOSITION ON 
N3875 G180 D0.25 U0.75 
N3880 X63.5 
N3885 ; DEPOSITION OFF 
N3890 G181 D0.25 U0.75 
N3895 Y115.2 
N3900 ; DEPOSITION ON 
N3905 G180 D0.25 U0.75 
N3910 X127 
N3915 ; DEPOSITION OFF 
N3920 G181 D0.25 U0.75 
N3925 Y118.56 
N3930 ; DEPOSITION ON 
N3935 G180 D0.25 U0.75 
N3940 X63.5 
N3945 ; DEPOSITION OFF 
N3950 G181 D0.25 U0.75 
N3955 Y121.92 
N3960 ; DEPOSITION ON 
N3965 G180 D0.25 U0.75 
N3970 X127 
N3975 G181 D0.25 U0.75 
N3980 V.P.layer_num = 10 
N3985 P12011=0 
N3990 #PCALL decking.nc P1 = V.P.layer_num 
N3995 P12012= 10 
N4000 P12011=1 
N4005 ; LAYER 10 END 
N4010 ; DEPOSITION OFF 
N4015 G181 D0.25 U0.75 
N4020 G0 Z22 
N4025 X63.5 Y63.5 
N4030 ; LAYER 11 START 
N4035 ; DEPOSITION ON 
N4040 G180 D0.25 U0.75 
N4045 G1 X127 F508 
N4050 ; DEPOSITION OFF 
N4055 G181 D0.25 U0.75 
N4060 Y67.027 
N4065 ; DEPOSITION ON 
N4070 G180 D0.25 U0.75 
N4075 X63.5 
N4080 ; DEPOSITION OFF 
N4085 G181 D0.25 U0.75 
N4090 Y70.553 
N4095 ; DEPOSITION ON 
N4100 G180 D0.25 U0.75 
N4105 X127 
N4110 ; DEPOSITION OFF 
N4115 G181 D0.25 U0.75 
N4120 Y74.08 
N4125 ; DEPOSITION ON 
N4130 G180 D0.25 U0.75 
N4135 X63.5 
N4140 ; DEPOSITION OFF 
N4145 G181 D0.25 U0.75 
N4150 Y77.607 
N4155 ; DEPOSITION ON 
N4160 G180 D0.25 U0.75 
N4165 X127 
N4170 ; DEPOSITION OFF 
N4175 G181 D0.25 U0.75 
N4180 Y81.133 
N4185 ; DEPOSITION ON 
N4190 G180 D0.25 U0.75 
N4195 X63.5 
N4200 ; DEPOSITION OFF 
N4205 G181 D0.25 U0.75 
N4210 Y84.66 
N4215 ; DEPOSITION ON 
N4220 G180 D0.25 U0.75 
N4225 X127 
N4230 ; DEPOSITION OFF 
N4235 G181 D0.25 U0.75 
N4240 G0 X63.5 Y100.76 
N4245 ; DEPOSITION ON 
N4250 G180 D0.25 U0.75 
N4255 G1 X127 F508 
N4260 ; DEPOSITION OFF 
N4265 G181 D0.25 U0.75 
N4270 Y104.287 
N4275 ; DEPOSITION ON 
N4280 G180 D0.25 U0.75 
N4285 X63.5 
N4290 ; DEPOSITION OFF 
N4295 G181 D0.25 U0.75 
N4300 Y107.813 
N4305 ; DEPOSITION ON 
N4310 G180 D0.25 U0.75 
N4315 X127 
N4320 ; DEPOSITION OFF 
N4325 G181 D0.25 U0.75 
N4330 Y111.34 
N4335 ; DEPOSITION ON 
N4340 G180 D0.25 U0.75 
N4345 X63.5 
N4350 ; DEPOSITION OFF 
N4355 G181 D0.25 U0.75 
N4360 Y114.867 
N4365 ; DEPOSITION ON 
N4370 G180 D0.25 U0.75 
N4375 X127 
N4380 ; DEPOSITION OFF 
N4385 G181 D0.25 U0.75 
N4390 Y118.393 
N4395 ; DEPOSITION ON 
N4400 G180 D0.25 U0.75 
N4405 X63.5 
N4410 ; DEPOSITION OFF 
N4415 G181 D0.25 U0.75 
N4420 Y121.92 
N4425 ; DEPOSITION ON 
N4430 G180 D0.25 U0.75 
N4435 X127 
N4440 G181 D0.25 U0.75 
N4445 V.P.layer_num = 11 
N4450 P12011=0 
N4455 #PCALL decking.nc P1 = V.P.layer_num 
N4460 P12012= 11 
N4465 P12011=1 
N4470 ; LAYER 11 END 
N4475 ; DEPOSITION OFF 
N4480 G181 D0.25 U0.75 
N4485 G0 Z24 
N4490 X63.5 Y63.5 
N4495 ; LAYER 12 START 
N4500 ; DEPOSITION ON 
N4505 G180 D0.25 U0.75 
N4510 G1 X127 F508 
N4515 ; DEPOSITION OFF 
N4520 G181 D0.25 U0.75 
N4525 Y66.666 
N4530 ; DEPOSITION ON 
N4535 G180 D0.25 U0.75 
N4540 X63.5 
N4545 ; DEPOSITION OFF 
N4550 G181 D0.25 U0.75 
N4555 Y69.831 
N4560 ; DEPOSITION ON 
N4565 G180 D0.25 U0.75 
N4570 X127 
N4575 ; DEPOSITION OFF 
N4580 G181 D0.25 U0.75 
N4585 Y72.997 
N4590 ; DEPOSITION ON 
N4595 G180 D0.25 U0.75 
N4600 X63.5 
N4605 ; DEPOSITION OFF 
N4610 G181 D0.25 U0.75 
N4615 Y76.163 
N4620 ; DEPOSITION ON 
N4625 G180 D0.25 U0.75 
N4630 X127 
N4635 ; DEPOSITION OFF 
N4640 G181 D0.25 U0.75 
N4645 Y79.329 
N4650 ; DEPOSITION ON 
N4655 G180 D0.25 U0.75 
N4660 X63.5 
N4665 ; DEPOSITION OFF 
N4670 G181 D0.25 U0.75 
N4675 Y82.494 
N4680 ; DEPOSITION ON 
N4685 G180 D0.25 U0.75 
N4690 X127 
N4695 ; DEPOSITION OFF 
N4700 G181 D0.25 U0.75 
N4705 Y85.66 
N4710 ; DEPOSITION ON 
N4715 G180 D0.25 U0.75 
N4720 X63.5 
N4725 ; DEPOSITION OFF 
N4730 G181 D0.25 U0.75 
N4735 G0 Y99.76 
N4740 ; DEPOSITION ON 
N4745 G180 D0.25 U0.75 
N4750 G1 X127 F508 
N4755 ; DEPOSITION OFF 
N4760 G181 D0.25 U0.75 
N4765 Y102.926 
N4770 ; DEPOSITION ON 
N4775 G180 D0.25 U0.75 
N4780 X63.5 
N4785 ; DEPOSITION OFF 
N4790 G181 D0.25 U0.75 
N4795 Y106.091 
N4800 ; DEPOSITION ON 
N4805 G180 D0.25 U0.75 
N4810 X127 
N4815 ; DEPOSITION OFF 
N4820 G181 D0.25 U0.75 
N4825 Y109.257 
N4830 ; DEPOSITION ON 
N4835 G180 D0.25 U0.75 
N4840 X63.5 
N4845 ; DEPOSITION OFF 
N4850 G181 D0.25 U0.75 
N4855 Y112.423 
N4860 ; DEPOSITION ON 
N4865 G180 D0.25 U0.75 
N4870 X127 
N4875 ; DEPOSITION OFF 
N4880 G181 D0.25 U0.75 
N4885 Y115.589 
N4890 ; DEPOSITION ON 
N4895 G180 D0.25 U0.75 
N4900 X63.5 
N4905 ; DEPOSITION OFF 
N4910 G181 D0.25 U0.75 
N4915 Y118.754 
N4920 ; DEPOSITION ON 
N4925 G180 D0.25 U0.75 
N4930 X127 
N4935 ; DEPOSITION OFF 
N4940 G181 D0.25 U0.75 
N4945 Y121.92 
N4950 ; DEPOSITION ON 
N4955 G180 D0.25 U0.75 
N4960 X63.5 
N4965 G181 D0.25 U0.75 
N4970 V.P.layer_num = 12 
N4975 P12011=0 
N4980 #PCALL decking.nc P1 = V.P.layer_num 
N4985 P12012= 12 
N4990 P12011=1 
N4995 ; LAYER 12 END 
N5000 ; DEPOSITION OFF 
N5005 G181 D0.25 U0.75 
N5010 G0 Z26 
N5015 Y63.5 
N5020 ; LAYER 13 START 
N5025 ; DEPOSITION ON 
N5030 G180 D0.25 U0.75 
N5035 G1 X127 F508 
N5040 ; DEPOSITION OFF 
N5045 G181 D0.25 U0.75 
N5050 Y66.809 
N5055 ; DEPOSITION ON 
N5060 G180 D0.25 U0.75 
N5065 X63.5 
N5070 ; DEPOSITION OFF 
N5075 G181 D0.25 U0.75 
N5080 Y70.117 
N5085 ; DEPOSITION ON 
N5090 G180 D0.25 U0.75 
N5095 X127 
N5100 ; DEPOSITION OFF 
N5105 G181 D0.25 U0.75 
N5110 Y73.426 
N5115 ; DEPOSITION ON 
N5120 G180 D0.25 U0.75 
N5125 X63.5 
N5130 ; DEPOSITION OFF 
N5135 G181 D0.25 U0.75 
N5140 Y76.734 
N5145 ; DEPOSITION ON 
N5150 G180 D0.25 U0.75 
N5155 X127 
N5160 ; DEPOSITION OFF 
N5165 G181 D0.25 U0.75 
N5170 Y80.043 
N5175 ; DEPOSITION ON 
N5180 G180 D0.25 U0.75 
N5185 X63.5 
N5190 ; DEPOSITION OFF 
N5195 G181 D0.25 U0.75 
N5200 Y83.351 
N5205 ; DEPOSITION ON 
N5210 G180 D0.25 U0.75 
N5215 X127 
N5220 ; DEPOSITION OFF 
N5225 G181 D0.25 U0.75 
N5230 Y86.66 
N5235 ; DEPOSITION ON 
N5240 G180 D0.25 U0.75 
N5245 X63.5 
N5250 ; DEPOSITION OFF 
N5255 G181 D0.25 U0.75 
N5260 G0 Y98.76 
N5265 ; DEPOSITION ON 
N5270 G180 D0.25 U0.75 
N5275 G1 X127 F508 
N5280 ; DEPOSITION OFF 
N5285 G181 D0.25 U0.75 
N5290 Y102.069 
N5295 ; DEPOSITION ON 
N5300 G180 D0.25 U0.75 
N5305 X63.5 
N5310 ; DEPOSITION OFF 
N5315 G181 D0.25 U0.75 
N5320 Y105.377 
N5325 ; DEPOSITION ON 
N5330 G180 D0.25 U0.75 
N5335 X127 
N5340 ; DEPOSITION OFF 
N5345 G181 D0.25 U0.75 
N5350 Y108.686 
N5355 ; DEPOSITION ON 
N5360 G180 D0.25 U0.75 
N5365 X63.5 
N5370 ; DEPOSITION OFF 
N5375 G181 D0.25 U0.75 
N5380 Y111.994 
N5385 ; DEPOSITION ON 
N5390 G180 D0.25 U0.75 
N5395 X127 
N5400 ; DEPOSITION OFF 
N5405 G181 D0.25 U0.75 
N5410 Y115.303 
N5415 ; DEPOSITION ON 
N5420 G180 D0.25 U0.75 
N5425 X63.5 
N5430 ; DEPOSITION OFF 
N5435 G181 D0.25 U0.75 
N5440 Y118.611 
N5445 ; DEPOSITION ON 
N5450 G180 D0.25 U0.75 
N5455 X127 
N5460 ; DEPOSITION OFF 
N5465 G181 D0.25 U0.75 
N5470 Y121.92 
N5475 ; DEPOSITION ON 
N5480 G180 D0.25 U0.75 
N5485 X63.5 
N5490 G181 D0.25 U0.75 
N5495 V.P.layer_num = 13 
N5500 P12011=0 
N5505 #PCALL decking.nc P1 = V.P.layer_num 
N5510 P12012= 13 
N5515 P12011=1 
N5520 ; LAYER 13 END 
N5525 ; DEPOSITION OFF 
N5530 G181 D0.25 U0.75 
N5535 G0 Z28 
N5540 Y63.5 
N5545 ; LAYER 14 START 
N5550 ; DEPOSITION ON 
N5555 G180 D0.25 U0.75 
N5560 G1 X127 F508 
N5565 ; DEPOSITION OFF 
N5570 G181 D0.25 U0.75 
N5575 Y66.951 
N5580 ; DEPOSITION ON 
N5585 G180 D0.25 U0.75 
N5590 X63.5 
N5595 ; DEPOSITION OFF 
N5600 G181 D0.25 U0.75 
N5605 Y70.403 
N5610 ; DEPOSITION ON 
N5615 G180 D0.25 U0.75 
N5620 X127 
N5625 ; DEPOSITION OFF 
N5630 G181 D0.25 U0.75 
N5635 Y73.854 
N5640 ; DEPOSITION ON 
N5645 G180 D0.25 U0.75 
N5650 X63.5 
N5655 ; DEPOSITION OFF 
N5660 G181 D0.25 U0.75 
N5665 Y77.306 
N5670 ; DEPOSITION ON 
N5675 G180 D0.25 U0.75 
N5680 X127 
N5685 ; DEPOSITION OFF 
N5690 G181 D0.25 U0.75 
N5695 Y80.757 
N5700 ; DEPOSITION ON 
N5705 G180 D0.25 U0.75 
N5710 X63.5 
N5715 ; DEPOSITION OFF 
N5720 G181 D0.25 U0.75 
N5725 Y84.209 
N5730 ; DEPOSITION ON 
N5735 G180 D0.25 U0.75 
N5740 X127 
N5745 ; DEPOSITION OFF 
N5750 G181 D0.25 U0.75 
N5755 Y87.66 
N5760 ; DEPOSITION ON 
N5765 G180 D0.25 U0.75 
N5770 X63.5 
N5775 ; DEPOSITION OFF 
N5780 G181 D0.25 U0.75 
N5785 G0 Y97.76 
N5790 ; DEPOSITION ON 
N5795 G180 D0.25 U0.75 
N5800 G1 X127 F508 
N5805 ; DEPOSITION OFF 
N5810 G181 D0.25 U0.75 
N5815 Y101.211 
N5820 ; DEPOSITION ON 
N5825 G180 D0.25 U0.75 
N5830 X63.5 
N5835 ; DEPOSITION OFF 
N5840 G181 D0.25 U0.75 
N5845 Y104.663 
N5850 ; DEPOSITION ON 
N5855 G180 D0.25 U0.75 
N5860 X127 
N5865 ; DEPOSITION OFF 
N5870 G181 D0.25 U0.75 
N5875 Y108.114 
N5880 ; DEPOSITION ON 
N5885 G180 D0.25 U0.75 
N5890 X63.5 
N5895 ; DEPOSITION OFF 
N5900 G181 D0.25 U0.75 
N5905 Y111.566 
N5910 ; DEPOSITION ON 
N5915 G180 D0.25 U0.75 
N5920 X127 
N5925 ; DEPOSITION OFF 
N5930 G181 D0.25 U0.75 
N5935 Y115.017 
N5940 ; DEPOSITION ON 
N5945 G180 D0.25 U0.75 
N5950 X63.5 
N5955 ; DEPOSITION OFF 
N5960 G181 D0.25 U0.75 
N5965 Y118.469 
N5970 ; DEPOSITION ON 
N5975 G180 D0.25 U0.75 
N5980 X127 
N5985 ; DEPOSITION OFF 
N5990 G181 D0.25 U0.75 
N5995 Y121.92 
N6000 ; DEPOSITION ON 
N6005 G180 D0.25 U0.75 
N6010 X63.5 
N6015 G181 D0.25 U0.75 
N6020 V.P.layer_num = 14 
N6025 P12011=0 
N6030 #PCALL decking.nc P1 = V.P.layer_num 
N6035 P12012= 14 
N6040 P12011=1 
N6045 ; LAYER 14 END 
N6050 ; DEPOSITION OFF 
N6055 G181 D0.25 U0.75 
N6060 G0 Z30 
N6065 Y63.5 
N6070 ; LAYER 15 START 
N6075 ; DEPOSITION ON 
N6080 G180 D0.25 U0.75 
N6085 G1 X127 F508 
N6090 ; DEPOSITION OFF 
N6095 G181 D0.25 U0.75 
N6100 Y66.645 
N6105 ; DEPOSITION ON 
N6110 G180 D0.25 U0.75 
N6115 X63.5 
N6120 ; DEPOSITION OFF 
N6125 G181 D0.25 U0.75 
N6130 Y69.79 
N6135 ; DEPOSITION ON 
N6140 G180 D0.25 U0.75 
N6145 X127 
N6150 ; DEPOSITION OFF 
N6155 G181 D0.25 U0.75 
N6160 Y72.935 
N6165 ; DEPOSITION ON 
N6170 G180 D0.25 U0.75 
N6175 X63.5 
N6180 ; DEPOSITION OFF 
N6185 G181 D0.25 U0.75 
N6190 Y76.08 
N6195 ; DEPOSITION ON 
N6200 G180 D0.25 U0.75 
N6205 X127 
N6210 ; DEPOSITION OFF 
N6215 G181 D0.25 U0.75 
N6220 Y79.225 
N6225 ; DEPOSITION ON 
N6230 G180 D0.25 U0.75 
N6235 X63.5 
N6240 ; DEPOSITION OFF 
N6245 G181 D0.25 U0.75 
N6250 Y82.37 
N6255 ; DEPOSITION ON 
N6260 G180 D0.25 U0.75 
N6265 X127 
N6270 ; DEPOSITION OFF 
N6275 G181 D0.25 U0.75 
N6280 Y85.515 
N6285 ; DEPOSITION ON 
N6290 G180 D0.25 U0.75 
N6295 X63.5 
N6300 ; DEPOSITION OFF 
N6305 G181 D0.25 U0.75 
N6310 Y88.66 
N6315 ; DEPOSITION ON 
N6320 G180 D0.25 U0.75 
N6325 X127 
N6330 ; DEPOSITION OFF 
N6335 G181 D0.25 U0.75 
N6340 G0 X63.5 Y96.76 
N6345 ; DEPOSITION ON 
N6350 G180 D0.25 U0.75 
N6355 G1 X127 F508 
N6360 ; DEPOSITION OFF 
N6365 G181 D0.25 U0.75 
N6370 Y99.905 
N6375 ; DEPOSITION ON 
N6380 G180 D0.25 U0.75 
N6385 X63.5 
N6390 ; DEPOSITION OFF 
N6395 G181 D0.25 U0.75 
N6400 Y103.05 
N6405 ; DEPOSITION ON 
N6410 G180 D0.25 U0.75 
N6415 X127 
N6420 ; DEPOSITION OFF 
N6425 G181 D0.25 U0.75 
N6430 Y106.195 
N6435 ; DEPOSITION ON 
N6440 G180 D0.25 U0.75 
N6445 X63.5 
N6450 ; DEPOSITION OFF 
N6455 G181 D0.25 U0.75 
N6460 Y109.34 
N6465 ; DEPOSITION ON 
N6470 G180 D0.25 U0.75 
N6475 X127 
N6480 ; DEPOSITION OFF 
N6485 G181 D0.25 U0.75 
N6490 Y112.485 
N6495 ; DEPOSITION ON 
N6500 G180 D0.25 U0.75 
N6505 X63.5 
N6510 ; DEPOSITION OFF 
N6515 G181 D0.25 U0.75 
N6520 Y115.63 
N6525 ; DEPOSITION ON 
N6530 G180 D0.25 U0.75 
N6535 X127 
N6540 ; DEPOSITION OFF 
N6545 G181 D0.25 U0.75 
N6550 Y118.775 
N6555 ; DEPOSITION ON 
N6560 G180 D0.25 U0.75 
N6565 X63.5 
N6570 ; DEPOSITION OFF 
N6575 G181 D0.25 U0.75 
N6580 Y121.92 
N6585 ; DEPOSITION ON 
N6590 G180 D0.25 U0.75 
N6595 X127 
N6600 G181 D0.25 U0.75 
N6605 V.P.layer_num = 15 
N6610 P12011=0 
N6615 #PCALL decking.nc P1 = V.P.layer_num 
N6620 P12012= 15 
N6625 P12011=1 
N6630 ; LAYER 15 END 
N6635 ; DEPOSITION OFF 
N6640 G181 D0.25 U0.75 
N6645 G0 Z32 
N6650 X63.5 Y63.5 
N6655 ; LAYER 16 START 
N6660 ; DEPOSITION ON 
N6665 G180 D0.25 U0.75 
N6670 G1 X127 F508 
N6675 ; DEPOSITION OFF 
N6680 G181 D0.25 U0.75 
N6685 Y66.77 
N6690 ; DEPOSITION ON 
N6695 G180 D0.25 U0.75 
N6700 X63.5 
N6705 ; DEPOSITION OFF 
N6710 G181 D0.25 U0.75 
N6715 Y70.04 
N6720 ; DEPOSITION ON 
N6725 G180 D0.25 U0.75 
N6730 X127 
N6735 ; DEPOSITION OFF 
N6740 G181 D0.25 U0.75 
N6745 Y73.31 
N6750 ; DEPOSITION ON 
N6755 G180 D0.25 U0.75 
N6760 X63.5 
N6765 ; DEPOSITION OFF 
N6770 G181 D0.25 U0.75 
N6775 Y76.58 
N6780 ; DEPOSITION ON 
N6785 G180 D0.25 U0.75 
N6790 X127 
N6795 ; DEPOSITION OFF 
N6800 G181 D0.25 U0.75 
N6805 Y79.85 
N6810 ; DEPOSITION ON 
N6815 G180 D0.25 U0.75 
N6820 X63.5 
N6825 ; DEPOSITION OFF 
N6830 G181 D0.25 U0.75 
N6835 Y83.12 
N6840 ; DEPOSITION ON 
N6845 G180 D0.25 U0.75 
N6850 X127 
N6855 ; DEPOSITION OFF 
N6860 G181 D0.25 U0.75 
N6865 Y86.39 
N6870 ; DEPOSITION ON 
N6875 G180 D0.25 U0.75 
N6880 X63.5 
N6885 ; DEPOSITION OFF 
N6890 G181 D0.25 U0.75 
N6895 Y89.66 
N6900 ; DEPOSITION ON 
N6905 G180 D0.25 U0.75 
N6910 X127 
N6915 ; DEPOSITION OFF 
N6920 G181 D0.25 U0.75 
N6925 G0 X63.5 Y95.76 
N6930 ; DEPOSITION ON 
N6935 G180 D0.25 U0.75 
N6940 G1 X127 F508 
N6945 ; DEPOSITION OFF 
N6950 G181 D0.25 U0.75 
N6955 Y99.03 
N6960 ; DEPOSITION ON 
N6965 G180 D0.25 U0.75 
N6970 X63.5 
N6975 ; DEPOSITION OFF 
N6980 G181 D0.25 U0.75 
N6985 Y102.3 
N6990 ; DEPOSITION ON 
N6995 G180 D0.25 U0.75 
N7000 X127 
N7005 ; DEPOSITION OFF 
N7010 G181 D0.25 U0.75 
N7015 Y105.57 
N7020 ; DEPOSITION ON 
N7025 G180 D0.25 U0.75 
N7030 X63.5 
N7035 ; DEPOSITION OFF 
N7040 G181 D0.25 U0.75 
N7045 Y108.84 
N7050 ; DEPOSITION ON 
N7055 G180 D0.25 U0.75 
N7060 X127 
N7065 ; DEPOSITION OFF 
N7070 G181 D0.25 U0.75 
N7075 Y112.11 
N7080 ; DEPOSITION ON 
N7085 G180 D0.25 U0.75 
N7090 X63.5 
N7095 ; DEPOSITION OFF 
N7100 G181 D0.25 U0.75 
N7105 Y115.38 
N7110 ; DEPOSITION ON 
N7115 G180 D0.25 U0.75 
N7120 X127 
N7125 ; DEPOSITION OFF 
N7130 G181 D0.25 U0.75 
N7135 Y118.65 
N7140 ; DEPOSITION ON 
N7145 G180 D0.25 U0.75 
N7150 X63.5 
N7155 ; DEPOSITION OFF 
N7160 G181 D0.25 U0.75 
N7165 Y121.92 
N7170 ; DEPOSITION ON 
N7175 G180 D0.25 U0.75 
N7180 X127 
N7185 G181 D0.25 U0.75 
N7190 V.P.layer_num = 16 
N7195 P12011=0 
N7200 #PCALL decking.nc P1 = V.P.layer_num 
N7205 P12012= 16 
N7210 P12011=1 
N7215 ; LAYER 16 END 
N7220 ; DEPOSITION OFF 
N7225 G181 D0.25 U0.75 
N7230 G0 Z34 
N7235 X63.5 Y63.5 
N7240 ; LAYER 17 START 
N7245 ; DEPOSITION ON 
N7250 G180 D0.25 U0.75 
N7255 G1 X127 F508 
N7260 ; DEPOSITION OFF 
N7265 G181 D0.25 U0.75 
N7270 Y66.895 
N7275 ; DEPOSITION ON 
N7280 G180 D0.25 U0.75 
N7285 X63.5 
N7290 ; DEPOSITION OFF 
N7295 G181 D0.25 U0.75 
N7300 Y70.29 
N7305 ; DEPOSITION ON 
N7310 G180 D0.25 U0.75 
N7315 X127 
N7320 ; DEPOSITION OFF 
N7325 G181 D0.25 U0.75 
N7330 Y73.685 
N7335 ; DEPOSITION ON 
N7340 G180 D0.25 U0.75 
N7345 X63.5 
N7350 ; DEPOSITION OFF 
N7355 G181 D0.25 U0.75 
N7360 Y77.08 
N7365 ; DEPOSITION ON 
N7370 G180 D0.25 U0.75 
N7375 X127 
N7380 ; DEPOSITION OFF 
N7385 G181 D0.25 U0.75 
N7390 Y80.475 
N7395 ; DEPOSITION ON 
N7400 G180 D0.25 U0.75 
N7405 X63.5 
N7410 ; DEPOSITION OFF 
N7415 G181 D0.25 U0.75 
N7420 Y83.87 
N7425 ; DEPOSITION ON 
N7430 G180 D0.25 U0.75 
N7435 X127 
N7440 ; DEPOSITION OFF 
N7445 G181 D0.25 U0.75 
N7450 Y87.265 
N7455 ; DEPOSITION ON 
N7460 G180 D0.25 U0.75 
N7465 X63.5 
N7470 ; DEPOSITION OFF 
N7475 G181 D0.25 U0.75 
N7480 Y90.66 
N7485 ; DEPOSITION ON 
N7490 G180 D0.25 U0.75 
N7495 X127 
N7500 ; DEPOSITION OFF 
N7505 G181 D0.25 U0.75 
N7510 G0 X63.5 Y94.76 
N7515 ; DEPOSITION ON 
N7520 G180 D0.25 U0.75 
N7525 G1 X127 F508 
N7530 ; DEPOSITION OFF 
N7535 G181 D0.25 U0.75 
N7540 Y98.155 
N7545 ; DEPOSITION ON 
N7550 G180 D0.25 U0.75 
N7555 X63.5 
N7560 ; DEPOSITION OFF 
N7565 G181 D0.25 U0.75 
N7570 Y101.55 
N7575 ; DEPOSITION ON 
N7580 G180 D0.25 U0.75 
N7585 X127 
N7590 ; DEPOSITION OFF 
N7595 G181 D0.25 U0.75 
N7600 Y104.945 
N7605 ; DEPOSITION ON 
N7610 G180 D0.25 U0.75 
N7615 X63.5 
N7620 ; DEPOSITION OFF 
N7625 G181 D0.25 U0.75 
N7630 Y108.34 
N7635 ; DEPOSITION ON 
N7640 G180 D0.25 U0.75 
N7645 X127 
N7650 ; DEPOSITION OFF 
N7655 G181 D0.25 U0.75 
N7660 Y111.735 
N7665 ; DEPOSITION ON 
N7670 G180 D0.25 U0.75 
N7675 X63.5 
N7680 ; DEPOSITION OFF 
N7685 G181 D0.25 U0.75 
N7690 Y115.13 
N7695 ; DEPOSITION ON 
N7700 G180 D0.25 U0.75 
N7705 X127 
N7710 ; DEPOSITION OFF 
N7715 G181 D0.25 U0.75 
N7720 Y118.525 
N7725 ; DEPOSITION ON 
N7730 G180 D0.25 U0.75 
N7735 X63.5 
N7740 ; DEPOSITION OFF 
N7745 G181 D0.25 U0.75 
N7750 Y121.92 
N7755 ; DEPOSITION ON 
N7760 G180 D0.25 U0.75 
N7765 X127 
N7770 G181 D0.25 U0.75 
N7775 V.P.layer_num = 17 
N7780 P12011=0 
N7785 #PCALL decking.nc P1 = V.P.layer_num 
N7790 P12012= 17 
N7795 P12011=1 
N7800 ; LAYER 17 END 
N7805 ; DEPOSITION OFF 
N7810 G181 D0.25 U0.75 
N7815 G0 Z36 
N7820 X63.5 Y63.5 
N7825 ; LAYER 18 START 
N7830 ; DEPOSITION ON 
N7835 G180 D0.25 U0.75 
N7840 G1 X127 F508 
N7845 ; DEPOSITION OFF 
N7850 G181 D0.25 U0.75 
N7855 Y67.02 
N7860 ; DEPOSITION ON 
N7865 G180 D0.25 U0.75 
N7870 X63.5 
N7875 ; DEPOSITION OFF 
N7880 G181 D0.25 U0.75 
N7885 Y70.54 
N7890 ; DEPOSITION ON 
N7895 G180 D0.25 U0.75 
N7900 X127 
N7905 ; DEPOSITION OFF 
N7910 G181 D0.25 U0.75 
N7915 Y74.06 
N7920 ; DEPOSITION ON 
N7925 G180 D0.25 U0.75 
N7930 X63.5 
N7935 ; DEPOSITION OFF 
N7940 G181 D0.25 U0.75 
N7945 Y77.58 
N7950 ; DEPOSITION ON 
N7955 G180 D0.25 U0.75 
N7960 X127 
N7965 ; DEPOSITION OFF 
N7970 G181 D0.25 U0.75 
N7975 Y81.1 
N7980 ; DEPOSITION ON 
N7985 G180 D0.25 U0.75 
N7990 X63.5 
N7995 ; DEPOSITION OFF 
N8000 G181 D0.25 U0.75 
N8005 Y84.62 
N8010 ; DEPOSITION ON 
N8015 G180 D0.25 U0.75 
N8020 X127 
N8025 ; DEPOSITION OFF 
N8030 G181 D0.25 U0.75 
N8035 Y88.14 
N8040 ; DEPOSITION ON 
N8045 G180 D0.25 U0.75 
N8050 X63.5 
N8055 ; DEPOSITION OFF 
N8060 G181 D0.25 U0.75 
N8065 Y91.66 
N8070 ; DEPOSITION ON 
N8075 G180 D0.25 U0.75 
N8080 X127 
N8085 ; DEPOSITION OFF 
N8090 G181 D0.25 U0.75 
N8095 G0 X63.5 Y93.76 
N8100 ; DEPOSITION ON 
N8105 G180 D0.25 U0.75 
N8110 G1 X127 F508 
N8115 ; DEPOSITION OFF 
N8120 G181 D0.25 U0.75 
N8125 Y97.28 
N8130 ; DEPOSITION ON 
N8135 G180 D0.25 U0.75 
N8140 X63.5 
N8145 ; DEPOSITION OFF 
N8150 G181 D0.25 U0.75 
N8155 Y100.8 
N8160 ; DEPOSITION ON 
N8165 G180 D0.25 U0.75 
N8170 X127 
N8175 ; DEPOSITION OFF 
N8180 G181 D0.25 U0.75 
N8185 Y104.32 
N8190 ; DEPOSITION ON 
N8195 G180 D0.25 U0.75 
N8200 X63.5 
N8205 ; DEPOSITION OFF 
N8210 G181 D0.25 U0.75 
N8215 Y107.84 
N8220 ; DEPOSITION ON 
N8225 G180 D0.25 U0.75 
N8230 X127 
N8235 ; DEPOSITION OFF 
N8240 G181 D0.25 U0.75 
N8245 Y111.36 
N8250 ; DEPOSITION ON 
N8255 G180 D0.25 U0.75 
N8260 X63.5 
N8265 ; DEPOSITION OFF 
N8270 G181 D0.25 U0.75 
N8275 Y114.88 
N8280 ; DEPOSITION ON 
N8285 G180 D0.25 U0.75 
N8290 X127 
N8295 ; DEPOSITION OFF 
N8300 G181 D0.25 U0.75 
N8305 Y118.4 
N8310 ; DEPOSITION ON 
N8315 G180 D0.25 U0.75 
N8320 X63.5 
N8325 ; DEPOSITION OFF 
N8330 G181 D0.25 U0.75 
N8335 Y121.92 
N8340 ; DEPOSITION ON 
N8345 G180 D0.25 U0.75 
N8350 X127 
N8355 G181 D0.25 U0.75 
N8360 V.P.layer_num = 18 
N8365 P12011=0 
N8370 #PCALL decking.nc P1 = V.P.layer_num 
N8375 P12012= 18 
N8380 P12011=1 
N8385 ; LAYER 18 END 
N8390 ; DEPOSITION OFF 
N8395 G181 D0.25 U0.75 
N8400 G0 Z38 
N8405 X63.5 Y63.5 
N8410 ; LAYER 19 START 
N8415 ; DEPOSITION ON 
N8420 G180 D0.25 U0.75 
N8425 G1 X127 F508 
N8430 ; DEPOSITION OFF 
N8435 G181 D0.25 U0.75 
N8440 Y66.937 
N8445 ; DEPOSITION ON 
N8450 G180 D0.25 U0.75 
N8455 X63.5 
N8460 ; DEPOSITION OFF 
N8465 G181 D0.25 U0.75 
N8470 Y70.373 
N8475 ; DEPOSITION ON 
N8480 G180 D0.25 U0.75 
N8485 X127 
N8490 ; DEPOSITION OFF 
N8495 G181 D0.25 U0.75 
N8500 Y73.809 
N8505 ; DEPOSITION ON 
N8510 G180 D0.25 U0.75 
N8515 X63.5 
N8520 ; DEPOSITION OFF 
N8525 G181 D0.25 U0.75 
N8530 Y77.246 
N8535 ; DEPOSITION ON 
N8540 G180 D0.25 U0.75 
N8545 X127 
N8550 ; DEPOSITION OFF 
N8555 G181 D0.25 U0.75 
N8560 Y80.682 
N8565 ; DEPOSITION ON 
N8570 G180 D0.25 U0.75 
N8575 X63.5 
N8580 ; DEPOSITION OFF 
N8585 G181 D0.25 U0.75 
N8590 Y84.119 
N8595 ; DEPOSITION ON 
N8600 G180 D0.25 U0.75 
N8605 X127 
N8610 ; DEPOSITION OFF 
N8615 G181 D0.25 U0.75 
N8620 Y87.555 
N8625 ; DEPOSITION ON 
N8630 G180 D0.25 U0.75 
N8635 X63.5 
N8640 ; DEPOSITION OFF 
N8645 G181 D0.25 U0.75 
N8650 Y90.992 
N8655 ; DEPOSITION ON 
N8660 G180 D0.25 U0.75 
N8665 X127 
N8670 ; DEPOSITION OFF 
N8675 G181 D0.25 U0.75 
N8680 Y94.428 
N8685 ; DEPOSITION ON 
N8690 G180 D0.25 U0.75 
N8695 X63.5 
N8700 ; DEPOSITION OFF 
N8705 G181 D0.25 U0.75 
N8710 Y97.865 
N8715 ; DEPOSITION ON 
N8720 G180 D0.25 U0.75 
N8725 X127 
N8730 ; DEPOSITION OFF 
N8735 G181 D0.25 U0.75 
N8740 Y101.301 
N8745 ; DEPOSITION ON 
N8750 G180 D0.25 U0.75 
N8755 X63.5 
N8760 ; DEPOSITION OFF 
N8765 G181 D0.25 U0.75 
N8770 Y104.738 
N8775 ; DEPOSITION ON 
N8780 G180 D0.25 U0.75 
N8785 X127 
N8790 ; DEPOSITION OFF 
N8795 G181 D0.25 U0.75 
N8800 Y108.174 
N8805 ; DEPOSITION ON 
N8810 G180 D0.25 U0.75 
N8815 X63.5 
N8820 ; DEPOSITION OFF 
N8825 G181 D0.25 U0.75 
N8830 Y111.611 
N8835 ; DEPOSITION ON 
N8840 G180 D0.25 U0.75 
N8845 X127 
N8850 ; DEPOSITION OFF 
N8855 G181 D0.25 U0.75 
N8860 Y115.047 
N8865 ; DEPOSITION ON 
N8870 G180 D0.25 U0.75 
N8875 X63.5 
N8880 ; DEPOSITION OFF 
N8885 G181 D0.25 U0.75 
N8890 Y118.483 
N8895 ; DEPOSITION ON 
N8900 G180 D0.25 U0.75 
N8905 X127 
N8910 ; DEPOSITION OFF 
N8915 G181 D0.25 U0.75 
N8920 Y121.92 
N8925 ; DEPOSITION ON 
N8930 G180 D0.25 U0.75 
N8935 X63.5 
N8940 G181 D0.25 U0.75 
N8945 V.P.layer_num = 19 
N8950 P12011=0 
N8955 #PCALL decking.nc P1 = V.P.layer_num 
N8960 P12012= 19 
N8965 P12011=1 
N8970 ; LAYER 19 END 
N8975 ; DEPOSITION OFF 
N8980 G181 D0.25 U0.75 
N8985 G0 Z48.26 
N8990 M5 
N8995 #MCS OFF 
N9000 G0 G54 Z609.6 
N9005 X0 Y0 

N9015 M30 
