; EDITED

Testpart_subro 
N10 ; MACHINE 
N15 ; VENDOR AUTODESK 
N20 ; MODEL GENERIC DED 
N25 ; DESCRIPTION GENERIC DIRECT ENERGY DEPOSITION MACHINE WITH EXPORT TO SIMULATION AND POWERMILL 
N30 ; T1 D=0 CR=0 - ZMIN=0.001 - ELECTRIC ARC WIRE 
N35 #MCS OFF 
N40 #CS OFF 
N45 G71 G80 G90 
N50 G17 G40 
N55 N125 G54 
N60 ; PROCESS ON 
N65 ; PROCESS OFF 
N70 ; PROCESS ON 
N75 ; PROCESS OFF 
N80 G0 Z100 
N85 X0 Y0 
N95 ; FEATURE CONSTRUCTION2 
N100 T1 D2 
N105 S0 
N110 M3  
N115 G4 K3 
N120 G0 
N135 G58 
N145 G0 X79.18 Y147.081 
N155 G0 Z2.001 
N160 G94 G1 Z0.001 F2000 
N165 ; LAYER 1 START 
N170 ; DEPOSITION ON 
N175 G180 D0.25 U0.75 
N180 Y202.961 F508 
N185 ; DEPOSITION OFF 
N190 G181 D0.25 U0.75 
N195 G0 Z4.001 
N200 X75.793 Y147.081 
N205 Z2.001 
N210 G1 Z0.001 F2000 
N215 ; DEPOSITION ON 
N220 G180 D0.25 U0.75 
N225 Y202.961 F508 
N230 ; DEPOSITION OFF 
N235 G181 D0.25 U0.75 
N240 G0 Z4.001 
N245 X72.406 Y147.081 
N250 Z2.001 
N255 G1 Z0.001 F2000 
N260 ; DEPOSITION ON 
N265 G180 D0.25 U0.75 
N270 Y202.961 F508 
N275 ; DEPOSITION OFF 
N280 G181 D0.25 U0.75 
N285 G0 Z4.001 
N290 X69.019 Y147.081 
N295 Z2.001 
N300 G1 Z0.001 F2000 
N305 ; DEPOSITION ON 
N310 G180 D0.25 U0.75 
N315 Y202.961 F508 
N320 ; DEPOSITION OFF 
N325 G181 D0.25 U0.75 
N330 G0 Z4.001 
N335 X127.439 Y147.081 
N340 Z2.001 
N345 G1 Z0.001 F2000 
N350 ; DEPOSITION ON 
N355 G180 D0.25 U0.75 
N360 Y202.961 F508 
N365 ; DEPOSITION OFF 
N370 G181 D0.25 U0.75 
N375 G0 Z4.001 
N380 X124.052 Y147.081 
N385 Z2.001 
N390 G1 Z0.001 F2000 
N395 ; DEPOSITION ON 
N400 G180 D0.25 U0.75 
N405 Y202.961 F508 
N410 ; DEPOSITION OFF 
N415 G181 D0.25 U0.75 
N420 G0 Z4.001 
N425 X120.666 Y147.081 
N430 Z2.001 
N435 G1 Z0.001 F2000 
N440 ; DEPOSITION ON 
N445 G180 D0.25 U0.75 
N450 Y202.961 F508 
N455 ; DEPOSITION OFF 
N460 G181 D0.25 U0.75 
N465 G0 Z4.001 
N470 X117.279 Y147.081 
N475 Z2.001 
N480 G1 Z0.001 F2000 
N485 ; DEPOSITION ON 
N490 G180 D0.25 U0.75 
N495 Y202.961 F508 
N500 G181 D0.25 U0.75 
N505 V.P.layer_num = 1 
N510 P12011=0 
N515 #PCALL decking.nc P1 = V.P.layer_num 
N520 P12012= 1 
N525 P12011=1 
N530 ; LAYER 1 END 
N535 ; DEPOSITION OFF 
N540 G181 D0.25 U0.75 
N545 G0 Z6 
N550 X80.127 Y147.081 
N555 Z4 
N560 G1 Z2 F2000 
N565 ; LAYER 2 START 
N570 ; DEPOSITION ON 
N575 G180 D0.25 U0.75 
N580 Y202.961 F508 
N585 ; DEPOSITION OFF 
N590 G181 D0.25 U0.75 
N595 G0 Z6 
N600 X76.442 Y147.081 
N605 Z4 
N610 G1 Z2 F2000 
N615 ; DEPOSITION ON 
N620 G180 D0.25 U0.75 
N625 Y202.961 F508 
N630 ; DEPOSITION OFF 
N635 G181 D0.25 U0.75 
N640 G0 Z6 
N645 X72.757 Y147.081 
N650 Z4 
N655 G1 Z2 F2000 
N660 ; DEPOSITION ON 
N665 G180 D0.25 U0.75 
N670 Y202.961 F508 
N675 ; DEPOSITION OFF 
N680 G181 D0.25 U0.75 
N685 G0 Z6 
N690 X69.072 Y147.081 
N695 Z4 
N700 G1 Z2 F2000 
N705 ; DEPOSITION ON 
N710 G180 D0.25 U0.75 
N715 Y202.961 F508 
N720 ; DEPOSITION OFF 
N725 G181 D0.25 U0.75 
N730 G0 Z6 
N735 X127.387 Y147.081 
N740 Z4 
N745 G1 Z2 F2000 
N750 ; DEPOSITION ON 
N755 G180 D0.25 U0.75 
N760 Y202.961 F508 
N765 ; DEPOSITION OFF 
N770 G181 D0.25 U0.75 
N775 G0 Z6 
N780 X123.702 Y147.081 
N785 Z4 
N790 G1 Z2 F2000 
N795 ; DEPOSITION ON 
N800 G180 D0.25 U0.75 
N805 Y202.961 F508 
N810 ; DEPOSITION OFF 
N815 G181 D0.25 U0.75 
N820 G0 Z6 
N825 X120.017 Y147.081 
N830 Z4 
N835 G1 Z2 F2000 
N840 ; DEPOSITION ON 
N845 G180 D0.25 U0.75 
N850 Y202.961 F508 
N855 ; DEPOSITION OFF 
N860 G181 D0.25 U0.75 
N865 G0 Z6 
N870 X116.332 Y147.081 
N875 Z4 
N880 G1 Z2 F2000 
N885 ; DEPOSITION ON 
N890 G180 D0.25 U0.75 
N895 Y202.961 F508 
N900 G181 D0.25 U0.75 
N905 V.P.layer_num = 2 
N910 P12011=0 
N915 #PCALL decking.nc P1 = V.P.layer_num 
N920 P12012= 2 
N925 P12011=1 
N930 ; LAYER 2 END 
N935 ; DEPOSITION OFF 
N940 G181 D0.25 U0.75 
N945 G0 Z8 
N950 X81.179 Y147.081 
N955 Z6 
N960 G1 Z4 F2000 
N965 ; LAYER 3 START 
N970 ; DEPOSITION ON 
N975 G180 D0.25 U0.75 
N980 Y202.961 F508 
N985 ; DEPOSITION OFF 
N990 G181 D0.25 U0.75 
N995 G0 Z8 
N1000 X78.139 Y147.081 
N1005 Z6 
N1010 G1 Z4 F2000 
N1015 ; DEPOSITION ON 
N1020 G180 D0.25 U0.75 
N1025 Y202.961 F508 
N1030 ; DEPOSITION OFF 
N1035 G181 D0.25 U0.75 
N1040 G0 Z8 
N1045 X75.099 Y147.081 
N1050 Z6 
N1055 G1 Z4 F2000 
N1060 ; DEPOSITION ON 
N1065 G180 D0.25 U0.75 
N1070 Y202.961 F508 
N1075 ; DEPOSITION OFF 
N1080 G181 D0.25 U0.75 
N1085 G0 Z8 
N1090 X72.059 Y147.081 
N1095 Z6 
N1100 G1 Z4 F2000 
N1105 ; DEPOSITION ON 
N1110 G180 D0.25 U0.75 
N1115 Y202.961 F508 
N1120 ; DEPOSITION OFF 
N1125 G181 D0.25 U0.75 
N1130 G0 Z8 
N1135 X69.019 Y147.081 
N1140 Z6 
N1145 G1 Z4 F2000 
N1150 ; DEPOSITION ON 
N1155 G180 D0.25 U0.75 
N1160 Y202.961 F508 
N1165 ; DEPOSITION OFF 
N1170 G181 D0.25 U0.75 
N1175 G0 Z8 
N1180 X127.439 Y147.081 
N1185 Z6 
N1190 G1 Z4 F2000 
N1195 ; DEPOSITION ON 
N1200 G180 D0.25 U0.75 
N1205 Y202.961 F508 
N1210 ; DEPOSITION OFF 
N1215 G181 D0.25 U0.75 
N1220 G0 Z8 
N1225 X124.399 Y147.081 
N1230 Z6 
N1235 G1 Z4 F2000 
N1240 ; DEPOSITION ON 
N1245 G180 D0.25 U0.75 
N1250 Y202.961 F508 
N1255 ; DEPOSITION OFF 
N1260 G181 D0.25 U0.75 
N1265 G0 Z8 
N1270 X121.359 Y147.081 
N1275 Z6 
N1280 G1 Z4 F2000 
N1285 ; DEPOSITION ON 
N1290 G180 D0.25 U0.75 
N1295 Y202.961 F508 
N1300 ; DEPOSITION OFF 
N1305 G181 D0.25 U0.75 
N1310 G0 Z8 
N1315 X118.319 Y147.081 
N1320 Z6 
N1325 G1 Z4 F2000 
N1330 ; DEPOSITION ON 
N1335 G180 D0.25 U0.75 
N1340 Y202.961 F508 
N1345 ; DEPOSITION OFF 
N1350 G181 D0.25 U0.75 
N1355 G0 Z8 
N1360 X115.279 Y147.081 
N1365 Z6 
N1370 G1 Z4 F2000 
N1375 ; DEPOSITION ON 
N1380 G180 D0.25 U0.75 
N1385 Y202.961 F508 
N1390 G181 D0.25 U0.75 
N1395 V.P.layer_num = 3 
N1400 P12011=0 
N1405 #PCALL decking.nc P1 = V.P.layer_num 
N1410 P12012= 3 
N1415 P12011=1 
N1420 ; LAYER 3 END 
N1425 ; DEPOSITION OFF 
N1430 G181 D0.25 U0.75 
N1435 G0 Z10 
N1440 X82.179 Y147.081 
N1445 Z8 
N1450 G1 Z6 F2000 
N1455 ; LAYER 4 START 
N1460 ; DEPOSITION ON 
N1465 G180 D0.25 U0.75 
N1470 Y202.961 F508 
N1475 ; DEPOSITION OFF 
N1480 G181 D0.25 U0.75 
N1485 G0 Z10 
N1490 X78.889 Y147.081 
N1495 Z8 
N1500 G1 Z6 F2000 
N1505 ; DEPOSITION ON 
N1510 G180 D0.25 U0.75 
N1515 Y202.961 F508 
N1520 ; DEPOSITION OFF 
N1525 G181 D0.25 U0.75 
N1530 G0 Z10 
N1535 X75.599 Y147.081 
N1540 Z8 
N1545 G1 Z6 F2000 
N1550 ; DEPOSITION ON 
N1555 G180 D0.25 U0.75 
N1560 Y202.961 F508 
N1565 ; DEPOSITION OFF 
N1570 G181 D0.25 U0.75 
N1575 G0 Z10 
N1580 X72.309 Y147.081 
N1585 Z8 
N1590 G1 Z6 F2000 
N1595 ; DEPOSITION ON 
N1600 G180 D0.25 U0.75 
N1605 Y202.961 F508 
N1610 ; DEPOSITION OFF 
N1615 G181 D0.25 U0.75 
N1620 G0 Z10 
N1625 X69.019 Y147.081 
N1630 Z8 
N1635 G1 Z6 F2000 
N1640 ; DEPOSITION ON 
N1645 G180 D0.25 U0.75 
N1650 Y202.961 F508 
N1655 ; DEPOSITION OFF 
N1660 G181 D0.25 U0.75 
N1665 G0 Z10 
N1670 X127.439 Y147.081 
N1675 Z8 
N1680 G1 Z6 F2000 
N1685 ; DEPOSITION ON 
N1690 G180 D0.25 U0.75 
N1695 Y202.961 F508 
N1700 ; DEPOSITION OFF 
N1705 G181 D0.25 U0.75 
N1710 G0 Z10 
N1715 X124.149 Y147.081 
N1720 Z8 
N1725 G1 Z6 F2000 
N1730 ; DEPOSITION ON 
N1735 G180 D0.25 U0.75 
N1740 Y202.961 F508 
N1745 ; DEPOSITION OFF 
N1750 G181 D0.25 U0.75 
N1755 G0 Z10 
N1760 X120.859 Y147.081 
N1765 Z8 
N1770 G1 Z6 F2000 
N1775 ; DEPOSITION ON 
N1780 G180 D0.25 U0.75 
N1785 Y202.961 F508 
N1790 ; DEPOSITION OFF 
N1795 G181 D0.25 U0.75 
N1800 G0 Z10 
N1805 X117.569 Y147.081 
N1810 Z8 
N1815 G1 Z6 F2000 
N1820 ; DEPOSITION ON 
N1825 G180 D0.25 U0.75 
N1830 Y202.961 F508 
N1835 ; DEPOSITION OFF 
N1840 G181 D0.25 U0.75 
N1845 G0 Z10 
N1850 X114.279 Y147.081 
N1855 Z8 
N1860 G1 Z6 F2000 
N1865 ; DEPOSITION ON 
N1870 G180 D0.25 U0.75 
N1875 Y202.961 F508 
N1880 G181 D0.25 U0.75 
N1885 V.P.layer_num = 4 
N1890 P12011=0 
N1895 #PCALL decking.nc P1 = V.P.layer_num 
N1900 P12012= 4 
N1905 P12011=1 
N1910 ; LAYER 4 END 
N1915 ; DEPOSITION OFF 
N1920 G181 D0.25 U0.75 
N1925 G0 Z12 
N1930 X83.179 Y147.081 
N1935 Z10 
N1940 G1 Z8 F2000 
N1945 ; LAYER 5 START 
N1950 ; DEPOSITION ON 
N1955 G180 D0.25 U0.75 
N1960 Y202.961 F508 
N1965 ; DEPOSITION OFF 
N1970 G181 D0.25 U0.75 
N1975 G0 Z12 
N1980 X79.639 Y147.081 
N1985 Z10 
N1990 G1 Z8 F2000 
N1995 ; DEPOSITION ON 
N2000 G180 D0.25 U0.75 
N2005 Y202.961 F508 
N2010 ; DEPOSITION OFF 
N2015 G181 D0.25 U0.75 
N2020 G0 Z12 
N2025 X76.099 Y147.081 
N2030 Z10 
N2035 G1 Z8 F2000 
N2040 ; DEPOSITION ON 
N2045 G180 D0.25 U0.75 
N2050 Y202.961 F508 
N2055 ; DEPOSITION OFF 
N2060 G181 D0.25 U0.75 
N2065 G0 Z12 
N2070 X72.559 Y147.081 
N2075 Z10 
N2080 G1 Z8 F2000 
N2085 ; DEPOSITION ON 
N2090 G180 D0.25 U0.75 
N2095 Y202.961 F508 
N2100 ; DEPOSITION OFF 
N2105 G181 D0.25 U0.75 
N2110 G0 Z12 
N2115 X69.019 Y147.081 
N2120 Z10 
N2125 G1 Z8 F2000 
N2130 ; DEPOSITION ON 
N2135 G180 D0.25 U0.75 
N2140 Y202.961 F508 
N2145 ; DEPOSITION OFF 
N2150 G181 D0.25 U0.75 
N2155 G0 Z12 
N2160 X127.439 Y147.081 
N2165 Z10 
N2170 G1 Z8 F2000 
N2175 ; DEPOSITION ON 
N2180 G180 D0.25 U0.75 
N2185 Y202.961 F508 
N2190 ; DEPOSITION OFF 
N2195 G181 D0.25 U0.75 
N2200 G0 Z12 
N2205 X123.899 Y147.081 
N2210 Z10 
N2215 G1 Z8 F2000 
N2220 ; DEPOSITION ON 
N2225 G180 D0.25 U0.75 
N2230 Y202.961 F508 
N2235 ; DEPOSITION OFF 
N2240 G181 D0.25 U0.75 
N2245 G0 Z12 
N2250 X120.359 Y147.081 
N2255 Z10 
N2260 G1 Z8 F2000 
N2265 ; DEPOSITION ON 
N2270 G180 D0.25 U0.75 
N2275 Y202.961 F508 
N2280 ; DEPOSITION OFF 
N2285 G181 D0.25 U0.75 
N2290 G0 Z12 
N2295 X116.819 Y147.081 
N2300 Z10 
N2305 G1 Z8 F2000 
N2310 ; DEPOSITION ON 
N2315 G180 D0.25 U0.75 
N2320 Y202.961 F508 
N2325 ; DEPOSITION OFF 
N2330 G181 D0.25 U0.75 
N2335 G0 Z12 
N2340 X113.279 Y147.081 
N2345 Z10 
N2350 G1 Z8 F2000 
N2355 ; DEPOSITION ON 
N2360 G180 D0.25 U0.75 
N2365 Y202.961 F508 
N2370 G181 D0.25 U0.75 
N2375 V.P.layer_num = 5 
N2380 P12011=0 
N2385 #PCALL decking.nc P1 = V.P.layer_num 
N2390 P12012= 5 
N2395 P12011=1 
N2400 ; LAYER 5 END 
N2405 ; DEPOSITION OFF 
N2410 G181 D0.25 U0.75 
N2415 G0 Z14 
N2420 X84.179 Y147.081 
N2425 Z12 
N2430 G1 Z10 F2000 
N2435 ; LAYER 6 START 
N2440 ; DEPOSITION ON 
N2445 G180 D0.25 U0.75 
N2450 Y202.961 F508 
N2455 ; DEPOSITION OFF 
N2460 G181 D0.25 U0.75 
N2465 G0 Z14 
N2470 X81.147 Y147.081 
N2475 Z12 
N2480 G1 Z10 F2000 
N2485 ; DEPOSITION ON 
N2490 G180 D0.25 U0.75 
N2495 Y202.961 F508 
N2500 ; DEPOSITION OFF 
N2505 G181 D0.25 U0.75 
N2510 G0 Z14 
N2515 X78.115 Y147.081 
N2520 Z12 
N2525 G1 Z10 F2000 
N2530 ; DEPOSITION ON 
N2535 G180 D0.25 U0.75 
N2540 Y202.961 F508 
N2545 ; DEPOSITION OFF 
N2550 G181 D0.25 U0.75 
N2555 G0 Z14 
N2560 X75.083 Y147.081 
N2565 Z12 
N2570 G1 Z10 F2000 
N2575 ; DEPOSITION ON 
N2580 G180 D0.25 U0.75 
N2585 Y202.961 F508 
N2590 ; DEPOSITION OFF 
N2595 G181 D0.25 U0.75 
N2600 G0 Z14 
N2605 X72.051 Y147.081 
N2610 Z12 
N2615 G1 Z10 F2000 
N2620 ; DEPOSITION ON 
N2625 G180 D0.25 U0.75 
N2630 Y202.961 F508 
N2635 ; DEPOSITION OFF 
N2640 G181 D0.25 U0.75 
N2645 G0 Z14 
N2650 X69.019 Y147.081 
N2655 Z12 
N2660 G1 Z10 F2000 
N2665 ; DEPOSITION ON 
N2670 G180 D0.25 U0.75 
N2675 Y202.961 F508 
N2680 ; DEPOSITION OFF 
N2685 G181 D0.25 U0.75 
N2690 G0 Z14 
N2695 X127.439 Y147.081 
N2700 Z12 
N2705 G1 Z10 F2000 
N2710 ; DEPOSITION ON 
N2715 G180 D0.25 U0.75 
N2720 Y202.961 F508 
N2725 ; DEPOSITION OFF 
N2730 G181 D0.25 U0.75 
N2735 G0 Z14 
N2740 X124.407 Y147.081 
N2745 Z12 
N2750 G1 Z10 F2000 
N2755 ; DEPOSITION ON 
N2760 G180 D0.25 U0.75 
N2765 Y202.961 F508 
N2770 ; DEPOSITION OFF 
N2775 G181 D0.25 U0.75 
N2780 G0 Z14 
N2785 X121.375 Y147.081 
N2790 Z12 
N2795 G1 Z10 F2000 
N2800 ; DEPOSITION ON 
N2805 G180 D0.25 U0.75 
N2810 Y202.961 F508 
N2815 ; DEPOSITION OFF 
N2820 G181 D0.25 U0.75 
N2825 G0 Z14 
N2830 X118.343 Y147.081 
N2835 Z12 
N2840 G1 Z10 F2000 
N2845 ; DEPOSITION ON 
N2850 G180 D0.25 U0.75 
N2855 Y202.961 F508 
N2860 ; DEPOSITION OFF 
N2865 G181 D0.25 U0.75 
N2870 G0 Z14 
N2875 X115.311 Y147.081 
N2880 Z12 
N2885 G1 Z10 F2000 
N2890 ; DEPOSITION ON 
N2895 G180 D0.25 U0.75 
N2900 Y202.961 F508 
N2905 ; DEPOSITION OFF 
N2910 G181 D0.25 U0.75 
N2915 G0 Z14 
N2920 X112.279 Y147.081 
N2925 Z12 
N2930 G1 Z10 F2000 
N2935 ; DEPOSITION ON 
N2940 G180 D0.25 U0.75 
N2945 Y202.961 F508 
N2950 G181 D0.25 U0.75 
N2955 V.P.layer_num = 6 
N2960 P12011=0 
N2965 #PCALL decking.nc P1 = V.P.layer_num 
N2970 P12012= 6 
N2975 P12011=1 
N2980 ; LAYER 6 END 
N2985 ; DEPOSITION OFF 
N2990 G181 D0.25 U0.75 
N2995 G0 Z16 
N3000 X85.179 Y147.081 
N3005 Z14 
N3010 G1 Z12 F2000 
N3015 ; LAYER 7 START 
N3020 ; DEPOSITION ON 
N3025 G180 D0.25 U0.75 
N3030 Y202.961 F508 
N3035 ; DEPOSITION OFF 
N3040 G181 D0.25 U0.75 
N3045 G0 Z16 
N3050 X81.947 Y147.081 
N3055 Z14 
N3060 G1 Z12 F2000 
N3065 ; DEPOSITION ON 
N3070 G180 D0.25 U0.75 
N3075 Y202.961 F508 
N3080 ; DEPOSITION OFF 
N3085 G181 D0.25 U0.75 
N3090 G0 Z16 
N3095 X78.715 Y147.081 
N3100 Z14 
N3105 G1 Z12 F2000 
N3110 ; DEPOSITION ON 
N3115 G180 D0.25 U0.75 
N3120 Y202.961 F508 
N3125 ; DEPOSITION OFF 
N3130 G181 D0.25 U0.75 
N3135 G0 Z16 
N3140 X75.483 Y147.081 
N3145 Z14 
N3150 G1 Z12 F2000 
N3155 ; DEPOSITION ON 
N3160 G180 D0.25 U0.75 
N3165 Y202.961 F508 
N3170 ; DEPOSITION OFF 
N3175 G181 D0.25 U0.75 
N3180 G0 Z16 
N3185 X72.251 Y147.081 
N3190 Z14 
N3195 G1 Z12 F2000 
N3200 ; DEPOSITION ON 
N3205 G180 D0.25 U0.75 
N3210 Y202.961 F508 
N3215 ; DEPOSITION OFF 
N3220 G181 D0.25 U0.75 
N3225 G0 Z16 
N3230 X69.019 Y147.081 
N3235 Z14 
N3240 G1 Z12 F2000 
N3245 ; DEPOSITION ON 
N3250 G180 D0.25 U0.75 
N3255 Y202.961 F508 
N3260 ; DEPOSITION OFF 
N3265 G181 D0.25 U0.75 
N3270 G0 Z16 
N3275 X127.439 Y147.081 
N3280 Z14 
N3285 G1 Z12 F2000 
N3290 ; DEPOSITION ON 
N3295 G180 D0.25 U0.75 
N3300 Y202.961 F508 
N3305 ; DEPOSITION OFF 
N3310 G181 D0.25 U0.75 
N3315 G0 Z16 
N3320 X124.207 Y147.081 
N3325 Z14 
N3330 G1 Z12 F2000 
N3335 ; DEPOSITION ON 
N3340 G180 D0.25 U0.75 
N3345 Y202.961 F508 
N3350 ; DEPOSITION OFF 
N3355 G181 D0.25 U0.75 
N3360 G0 Z16 
N3365 X120.975 Y147.081 
N3370 Z14 
N3375 G1 Z12 F2000 
N3380 ; DEPOSITION ON 
N3385 G180 D0.25 U0.75 
N3390 Y202.961 F508 
N3395 ; DEPOSITION OFF 
N3400 G181 D0.25 U0.75 
N3405 G0 Z16 
N3410 X117.743 Y147.081 
N3415 Z14 
N3420 G1 Z12 F2000 
N3425 ; DEPOSITION ON 
N3430 G180 D0.25 U0.75 
N3435 Y202.961 F508 
N3440 ; DEPOSITION OFF 
N3445 G181 D0.25 U0.75 
N3450 G0 Z16 
N3455 X114.511 Y147.081 
N3460 Z14 
N3465 G1 Z12 F2000 
N3470 ; DEPOSITION ON 
N3475 G180 D0.25 U0.75 
N3480 Y202.961 F508 
N3485 ; DEPOSITION OFF 
N3490 G181 D0.25 U0.75 
N3495 G0 Z16 
N3500 X111.279 Y147.081 
N3505 Z14 
N3510 G1 Z12 F2000 
N3515 ; DEPOSITION ON 
N3520 G180 D0.25 U0.75 
N3525 Y202.961 F508 
N3530 G181 D0.25 U0.75 
N3535 V.P.layer_num = 7 
N3540 P12011=0 
N3545 #PCALL decking.nc P1 = V.P.layer_num 
N3550 P12012= 7 
N3555 P12011=1 
N3560 ; LAYER 7 END 
N3565 ; DEPOSITION OFF 
N3570 G181 D0.25 U0.75 
N3575 G0 Z18 
N3580 X86.179 Y147.081 
N3585 Z16 
N3590 G1 Z14 F2000 
N3595 ; LAYER 8 START 
N3600 ; DEPOSITION ON 
N3605 G180 D0.25 U0.75 
N3610 Y202.961 F508 
N3615 ; DEPOSITION OFF 
N3620 G181 D0.25 U0.75 
N3625 G0 Z18 
N3630 X82.747 Y147.081 
N3635 Z16 
N3640 G1 Z14 F2000 
N3645 ; DEPOSITION ON 
N3650 G180 D0.25 U0.75 
N3655 Y202.961 F508 
N3660 ; DEPOSITION OFF 
N3665 G181 D0.25 U0.75 
N3670 G0 Z18 
N3675 X79.315 Y147.081 
N3680 Z16 
N3685 G1 Z14 F2000 
N3690 ; DEPOSITION ON 
N3695 G180 D0.25 U0.75 
N3700 Y202.961 F508 
N3705 ; DEPOSITION OFF 
N3710 G181 D0.25 U0.75 
N3715 G0 Z18 
N3720 X75.883 Y147.081 
N3725 Z16 
N3730 G1 Z14 F2000 
N3735 ; DEPOSITION ON 
N3740 G180 D0.25 U0.75 
N3745 Y202.961 F508 
N3750 ; DEPOSITION OFF 
N3755 G181 D0.25 U0.75 
N3760 G0 Z18 
N3765 X72.451 Y147.081 
N3770 Z16 
N3775 G1 Z14 F2000 
N3780 ; DEPOSITION ON 
N3785 G180 D0.25 U0.75 
N3790 Y202.961 F508 
N3795 ; DEPOSITION OFF 
N3800 G181 D0.25 U0.75 
N3805 G0 Z18 
N3810 X69.019 Y147.081 
N3815 Z16 
N3820 G1 Z14 F2000 
N3825 ; DEPOSITION ON 
N3830 G180 D0.25 U0.75 
N3835 Y202.961 F508 
N3840 ; DEPOSITION OFF 
N3845 G181 D0.25 U0.75 
N3850 G0 Z18 
N3855 X127.439 Y147.081 
N3860 Z16 
N3865 G1 Z14 F2000 
N3870 ; DEPOSITION ON 
N3875 G180 D0.25 U0.75 
N3880 Y202.961 F508 
N3885 ; DEPOSITION OFF 
N3890 G181 D0.25 U0.75 
N3895 G0 Z18 
N3900 X124.007 Y147.081 
N3905 Z16 
N3910 G1 Z14 F2000 
N3915 ; DEPOSITION ON 
N3920 G180 D0.25 U0.75 
N3925 Y202.961 F508 
N3930 ; DEPOSITION OFF 
N3935 G181 D0.25 U0.75 
N3940 G0 Z18 
N3945 X120.575 Y147.081 
N3950 Z16 
N3955 G1 Z14 F2000 
N3960 ; DEPOSITION ON 
N3965 G180 D0.25 U0.75 
N3970 Y202.961 F508 
N3975 ; DEPOSITION OFF 
N3980 G181 D0.25 U0.75 
N3985 G0 Z18 
N3990 X117.143 Y147.081 
N3995 Z16 
N4000 G1 Z14 F2000 
N4005 ; DEPOSITION ON 
N4010 G180 D0.25 U0.75 
N4015 Y202.961 F508 
N4020 ; DEPOSITION OFF 
N4025 G181 D0.25 U0.75 
N4030 G0 Z18 
N4035 X113.711 Y147.081 
N4040 Z16 
N4045 G1 Z14 F2000 
N4050 ; DEPOSITION ON 
N4055 G180 D0.25 U0.75 
N4060 Y202.961 F508 
N4065 ; DEPOSITION OFF 
N4070 G181 D0.25 U0.75 
N4075 G0 Z18 
N4080 X110.279 Y147.081 
N4085 Z16 
N4090 G1 Z14 F2000 
N4095 ; DEPOSITION ON 
N4100 G180 D0.25 U0.75 
N4105 Y202.961 F508 
N4110 G181 D0.25 U0.75 
N4115 V.P.layer_num = 8 
N4120 P12011=0 
N4125 #PCALL decking.nc P1 = V.P.layer_num 
N4130 P12012= 8 
N4135 P12011=1 
N4140 ; LAYER 8 END 
N4145 ; DEPOSITION OFF 
N4150 G181 D0.25 U0.75 
N4155 G0 Z20 
N4160 X87.179 Y147.081 
N4165 Z18 
N4170 G1 Z16 F2000 
N4175 ; LAYER 9 START 
N4180 ; DEPOSITION ON 
N4185 G180 D0.25 U0.75 
N4190 Y202.961 F508 
N4195 ; DEPOSITION OFF 
N4200 G181 D0.25 U0.75 
N4205 G0 Z20 
N4210 X83.547 Y147.081 
N4215 Z18 
N4220 G1 Z16 F2000 
N4225 ; DEPOSITION ON 
N4230 G180 D0.25 U0.75 
N4235 Y202.961 F508 
N4240 ; DEPOSITION OFF 
N4245 G181 D0.25 U0.75 
N4250 G0 Z20 
N4255 X79.915 Y147.081 
N4260 Z18 
N4265 G1 Z16 F2000 
N4270 ; DEPOSITION ON 
N4275 G180 D0.25 U0.75 
N4280 Y202.961 F508 
N4285 ; DEPOSITION OFF 
N4290 G181 D0.25 U0.75 
N4295 G0 Z20 
N4300 X76.283 Y147.081 
N4305 Z18 
N4310 G1 Z16 F2000 
N4315 ; DEPOSITION ON 
N4320 G180 D0.25 U0.75 
N4325 Y202.961 F508 
N4330 ; DEPOSITION OFF 
N4335 G181 D0.25 U0.75 
N4340 G0 Z20 
N4345 X72.651 Y147.081 
N4350 Z18 
N4355 G1 Z16 F2000 
N4360 ; DEPOSITION ON 
N4365 G180 D0.25 U0.75 
N4370 Y202.961 F508 
N4375 ; DEPOSITION OFF 
N4380 G181 D0.25 U0.75 
N4385 G0 Z20 
N4390 X69.019 Y147.081 
N4395 Z18 
N4400 G1 Z16 F2000 
N4405 ; DEPOSITION ON 
N4410 G180 D0.25 U0.75 
N4415 Y202.961 F508 
N4420 ; DEPOSITION OFF 
N4425 G181 D0.25 U0.75 
N4430 G0 Z20 
N4435 X127.439 Y147.081 
N4440 Z18 
N4445 G1 Z16 F2000 
N4450 ; DEPOSITION ON 
N4455 G180 D0.25 U0.75 
N4460 Y202.961 F508 
N4465 ; DEPOSITION OFF 
N4470 G181 D0.25 U0.75 
N4475 G0 Z20 
N4480 X123.807 Y147.081 
N4485 Z18 
N4490 G1 Z16 F2000 
N4495 ; DEPOSITION ON 
N4500 G180 D0.25 U0.75 
N4505 Y202.961 F508 
N4510 ; DEPOSITION OFF 
N4515 G181 D0.25 U0.75 
N4520 G0 Z20 
N4525 X120.175 Y147.081 
N4530 Z18 
N4535 G1 Z16 F2000 
N4540 ; DEPOSITION ON 
N4545 G180 D0.25 U0.75 
N4550 Y202.961 F508 
N4555 ; DEPOSITION OFF 
N4560 G181 D0.25 U0.75 
N4565 G0 Z20 
N4570 X116.543 Y147.081 
N4575 Z18 
N4580 G1 Z16 F2000 
N4585 ; DEPOSITION ON 
N4590 G180 D0.25 U0.75 
N4595 Y202.961 F508 
N4600 ; DEPOSITION OFF 
N4605 G181 D0.25 U0.75 
N4610 G0 Z20 
N4615 X112.911 Y147.081 
N4620 Z18 
N4625 G1 Z16 F2000 
N4630 ; DEPOSITION ON 
N4635 G180 D0.25 U0.75 
N4640 Y202.961 F508 
N4645 ; DEPOSITION OFF 
N4650 G181 D0.25 U0.75 
N4655 G0 Z20 
N4660 X109.279 Y147.081 
N4665 Z18 
N4670 G1 Z16 F2000 
N4675 ; DEPOSITION ON 
N4680 G180 D0.25 U0.75 
N4685 Y202.961 F508 
N4690 G181 D0.25 U0.75 
N4695 V.P.layer_num = 9 
N4700 P12011=0 
N4705 #PCALL decking.nc P1 = V.P.layer_num 
N4710 P12012= 9 
N4715 P12011=1 
N4720 ; LAYER 9 END 
N4725 ; DEPOSITION OFF 
N4730 G181 D0.25 U0.75 
N4735 G0 Z22 
N4740 X88.179 Y147.081 
N4745 Z20 
N4750 G1 Z18 F2000 
N4755 ; LAYER 10 START 
N4760 ; DEPOSITION ON 
N4765 G180 D0.25 U0.75 
N4770 Y202.961 F508 
N4775 ; DEPOSITION OFF 
N4780 G181 D0.25 U0.75 
N4785 G0 Z22 
N4790 X84.986 Y147.081 
N4795 Z20 
N4800 G1 Z18 F2000 
N4805 ; DEPOSITION ON 
N4810 G180 D0.25 U0.75 
N4815 Y202.961 F508 
N4820 ; DEPOSITION OFF 
N4825 G181 D0.25 U0.75 
N4830 G0 Z22 
N4835 X81.792 Y147.081 
N4840 Z20 
N4845 G1 Z18 F2000 
N4850 ; DEPOSITION ON 
N4855 G180 D0.25 U0.75 
N4860 Y202.961 F508 
N4865 ; DEPOSITION OFF 
N4870 G181 D0.25 U0.75 
N4875 G0 Z22 
N4880 X78.599 Y147.081 
N4885 Z20 
N4890 G1 Z18 F2000 
N4895 ; DEPOSITION ON 
N4900 G180 D0.25 U0.75 
N4905 Y202.961 F508 
N4910 ; DEPOSITION OFF 
N4915 G181 D0.25 U0.75 
N4920 G0 Z22 
N4925 X75.406 Y147.081 
N4930 Z20 
N4935 G1 Z18 F2000 
N4940 ; DEPOSITION ON 
N4945 G180 D0.25 U0.75 
N4950 Y202.961 F508 
N4955 ; DEPOSITION OFF 
N4960 G181 D0.25 U0.75 
N4965 G0 Z22 
N4970 X72.213 Y147.081 
N4975 Z20 
N4980 G1 Z18 F2000 
N4985 ; DEPOSITION ON 
N4990 G180 D0.25 U0.75 
N4995 Y202.961 F508 
N5000 ; DEPOSITION OFF 
N5005 G181 D0.25 U0.75 
N5010 G0 Z22 
N5015 X69.019 Y147.081 
N5020 Z20 
N5025 G1 Z18 F2000 
N5030 ; DEPOSITION ON 
N5035 G180 D0.25 U0.75 
N5040 Y202.961 F508 
N5045 ; DEPOSITION OFF 
N5050 G181 D0.25 U0.75 
N5055 G0 Z22 
N5060 X127.439 Y147.081 
N5065 Z20 
N5070 G1 Z18 F2000 
N5075 ; DEPOSITION ON 
N5080 G180 D0.25 U0.75 
N5085 Y202.961 F508 
N5090 ; DEPOSITION OFF 
N5095 G181 D0.25 U0.75 
N5100 G0 Z22 
N5105 X124.246 Y147.081 
N5110 Z20 
N5115 G1 Z18 F2000 
N5120 ; DEPOSITION ON 
N5125 G180 D0.25 U0.75 
N5130 Y202.961 F508 
N5135 ; DEPOSITION OFF 
N5140 G181 D0.25 U0.75 
N5145 G0 Z22 
N5150 X121.052 Y147.081 
N5155 Z20 
N5160 G1 Z18 F2000 
N5165 ; DEPOSITION ON 
N5170 G180 D0.25 U0.75 
N5175 Y202.961 F508 
N5180 ; DEPOSITION OFF 
N5185 G181 D0.25 U0.75 
N5190 G0 Z22 
N5195 X117.859 Y147.081 
N5200 Z20 
N5205 G1 Z18 F2000 
N5210 ; DEPOSITION ON 
N5215 G180 D0.25 U0.75 
N5220 Y202.961 F508 
N5225 ; DEPOSITION OFF 
N5230 G181 D0.25 U0.75 
N5235 G0 Z22 
N5240 X114.666 Y147.081 
N5245 Z20 
N5250 G1 Z18 F2000 
N5255 ; DEPOSITION ON 
N5260 G180 D0.25 U0.75 
N5265 Y202.961 F508 
N5270 ; DEPOSITION OFF 
N5275 G181 D0.25 U0.75 
N5280 G0 Z22 
N5285 X111.473 Y147.081 
N5290 Z20 
N5295 G1 Z18 F2000 
N5300 ; DEPOSITION ON 
N5305 G180 D0.25 U0.75 
N5310 Y202.961 F508 
N5315 ; DEPOSITION OFF 
N5320 G181 D0.25 U0.75 
N5325 G0 Z22 
N5330 X108.279 Y147.081 
N5335 Z20 
N5340 G1 Z18 F2000 
N5345 ; DEPOSITION ON 
N5350 G180 D0.25 U0.75 
N5355 Y202.961 F508 
N5360 G181 D0.25 U0.75 
N5365 V.P.layer_num = 10 
N5370 P12011=0 
N5375 #PCALL decking.nc P1 = V.P.layer_num 
N5380 P12012= 10 
N5385 P12011=1 
N5390 ; LAYER 10 END 
N5395 ; DEPOSITION OFF 
N5400 G181 D0.25 U0.75 
N5405 G0 Z24 
N5410 X89.179 Y147.081 
N5415 Z22 
N5420 G1 Z20 F2000 
N5425 ; LAYER 11 START 
N5430 ; DEPOSITION ON 
N5435 G180 D0.25 U0.75 
N5440 Y202.961 F508 
N5445 ; DEPOSITION OFF 
N5450 G181 D0.25 U0.75 
N5455 G0 Z24 
N5460 X85.819 Y147.081 
N5465 Z22 
N5470 G1 Z20 F2000 
N5475 ; DEPOSITION ON 
N5480 G180 D0.25 U0.75 
N5485 Y202.961 F508 
N5490 ; DEPOSITION OFF 
N5495 G181 D0.25 U0.75 
N5500 G0 Z24 
N5505 X82.459 Y147.081 
N5510 Z22 
N5515 G1 Z20 F2000 
N5520 ; DEPOSITION ON 
N5525 G180 D0.25 U0.75 
N5530 Y202.961 F508 
N5535 ; DEPOSITION OFF 
N5540 G181 D0.25 U0.75 
N5545 G0 Z24 
N5550 X79.099 Y147.081 
N5555 Z22 
N5560 G1 Z20 F2000 
N5565 ; DEPOSITION ON 
N5570 G180 D0.25 U0.75 
N5575 Y202.961 F508 
N5580 ; DEPOSITION OFF 
N5585 G181 D0.25 U0.75 
N5590 G0 Z24 
N5595 X75.739 Y147.081 
N5600 Z22 
N5605 G1 Z20 F2000 
N5610 ; DEPOSITION ON 
N5615 G180 D0.25 U0.75 
N5620 Y202.961 F508 
N5625 ; DEPOSITION OFF 
N5630 G181 D0.25 U0.75 
N5635 G0 Z24 
N5640 X72.379 Y147.081 
N5645 Z22 
N5650 G1 Z20 F2000 
N5655 ; DEPOSITION ON 
N5660 G180 D0.25 U0.75 
N5665 Y202.961 F508 
N5670 ; DEPOSITION OFF 
N5675 G181 D0.25 U0.75 
N5680 G0 Z24 
N5685 X69.019 Y147.081 
N5690 Z22 
N5695 G1 Z20 F2000 
N5700 ; DEPOSITION ON 
N5705 G180 D0.25 U0.75 
N5710 Y202.961 F508 
N5715 ; DEPOSITION OFF 
N5720 G181 D0.25 U0.75 
N5725 G0 Z24 
N5730 X127.439 Y147.081 
N5735 Z22 
N5740 G1 Z20 F2000 
N5745 ; DEPOSITION ON 
N5750 G180 D0.25 U0.75 
N5755 Y202.961 F508 
N5760 ; DEPOSITION OFF 
N5765 G181 D0.25 U0.75 
N5770 G0 Z24 
N5775 X124.079 Y147.081 
N5780 Z22 
N5785 G1 Z20 F2000 
N5790 ; DEPOSITION ON 
N5795 G180 D0.25 U0.75 
N5800 Y202.961 F508 
N5805 ; DEPOSITION OFF 
N5810 G181 D0.25 U0.75 
N5815 G0 Z24 
N5820 X120.719 Y147.081 
N5825 Z22 
N5830 G1 Z20 F2000 
N5835 ; DEPOSITION ON 
N5840 G180 D0.25 U0.75 
N5845 Y202.961 F508 
N5850 ; DEPOSITION OFF 
N5855 G181 D0.25 U0.75 
N5860 G0 Z24 
N5865 X117.359 Y147.081 
N5870 Z22 
N5875 G1 Z20 F2000 
N5880 ; DEPOSITION ON 
N5885 G180 D0.25 U0.75 
N5890 Y202.961 F508 
N5895 ; DEPOSITION OFF 
N5900 G181 D0.25 U0.75 
N5905 G0 Z24 
N5910 X113.999 Y147.081 
N5915 Z22 
N5920 G1 Z20 F2000 
N5925 ; DEPOSITION ON 
N5930 G180 D0.25 U0.75 
N5935 Y202.961 F508 
N5940 ; DEPOSITION OFF 
N5945 G181 D0.25 U0.75 
N5950 G0 Z24 
N5955 X110.639 Y147.081 
N5960 Z22 
N5965 G1 Z20 F2000 
N5970 ; DEPOSITION ON 
N5975 G180 D0.25 U0.75 
N5980 Y202.961 F508 
N5985 ; DEPOSITION OFF 
N5990 G181 D0.25 U0.75 
N5995 G0 Z24 
N6000 X107.279 Y147.081 
N6005 Z22 
N6010 G1 Z20 F2000 
N6015 ; DEPOSITION ON 
N6020 G180 D0.25 U0.75 
N6025 Y202.961 F508 
N6030 G181 D0.25 U0.75 
N6035 V.P.layer_num = 11 
N6040 P12011=0 
N6045 #PCALL decking.nc P1 = V.P.layer_num 
N6050 P12012= 11 
N6055 P12011=1 
N6060 ; LAYER 11 END 
N6065 ; DEPOSITION OFF 
N6070 G181 D0.25 U0.75 
N6075 G0 Z26 
N6080 X90.179 Y147.081 
N6085 Z24 
N6090 G1 Z22 F2000 
N6095 ; LAYER 12 START 
N6100 ; DEPOSITION ON 
N6105 G180 D0.25 U0.75 
N6110 Y202.961 F508 
N6115 ; DEPOSITION OFF 
N6120 G181 D0.25 U0.75 
N6125 G0 Z26 
N6130 X86.652 Y147.081 
N6135 Z24 
N6140 G1 Z22 F2000 
N6145 ; DEPOSITION ON 
N6150 G180 D0.25 U0.75 
N6155 Y202.961 F508 
N6160 ; DEPOSITION OFF 
N6165 G181 D0.25 U0.75 
N6170 G0 Z26 
N6175 X83.126 Y147.081 
N6180 Z24 
N6185 G1 Z22 F2000 
N6190 ; DEPOSITION ON 
N6195 G180 D0.25 U0.75 
N6200 Y202.961 F508 
N6205 ; DEPOSITION OFF 
N6210 G181 D0.25 U0.75 
N6215 G0 Z26 
N6220 X79.599 Y147.081 
N6225 Z24 
N6230 G1 Z22 F2000 
N6235 ; DEPOSITION ON 
N6240 G180 D0.25 U0.75 
N6245 Y202.961 F508 
N6250 ; DEPOSITION OFF 
N6255 G181 D0.25 U0.75 
N6260 G0 Z26 
N6265 X76.073 Y147.081 
N6270 Z24 
N6275 G1 Z22 F2000 
N6280 ; DEPOSITION ON 
N6285 G180 D0.25 U0.75 
N6290 Y202.961 F508 
N6295 ; DEPOSITION OFF 
N6300 G181 D0.25 U0.75 
N6305 G0 Z26 
N6310 X72.546 Y147.081 
N6315 Z24 
N6320 G1 Z22 F2000 
N6325 ; DEPOSITION ON 
N6330 G180 D0.25 U0.75 
N6335 Y202.961 F508 
N6340 ; DEPOSITION OFF 
N6345 G181 D0.25 U0.75 
N6350 G0 Z26 
N6355 X69.019 Y147.081 
N6360 Z24 
N6365 G1 Z22 F2000 
N6370 ; DEPOSITION ON 
N6375 G180 D0.25 U0.75 
N6380 Y202.961 F508 
N6385 ; DEPOSITION OFF 
N6390 G181 D0.25 U0.75 
N6395 G0 Z26 
N6400 X127.439 Y147.081 
N6405 Z24 
N6410 G1 Z22 F2000 
N6415 ; DEPOSITION ON 
N6420 G180 D0.25 U0.75 
N6425 Y202.961 F508 
N6430 ; DEPOSITION OFF 
N6435 G181 D0.25 U0.75 
N6440 G0 Z26 
N6445 X123.912 Y147.081 
N6450 Z24 
N6455 G1 Z22 F2000 
N6460 ; DEPOSITION ON 
N6465 G180 D0.25 U0.75 
N6470 Y202.961 F508 
N6475 ; DEPOSITION OFF 
N6480 G181 D0.25 U0.75 
N6485 G0 Z26 
N6490 X120.386 Y147.081 
N6495 Z24 
N6500 G1 Z22 F2000 
N6505 ; DEPOSITION ON 
N6510 G180 D0.25 U0.75 
N6515 Y202.961 F508 
N6520 ; DEPOSITION OFF 
N6525 G181 D0.25 U0.75 
N6530 G0 Z26 
N6535 X116.859 Y147.081 
N6540 Z24 
N6545 G1 Z22 F2000 
N6550 ; DEPOSITION ON 
N6555 G180 D0.25 U0.75 
N6560 Y202.961 F508 
N6565 ; DEPOSITION OFF 
N6570 G181 D0.25 U0.75 
N6575 G0 Z26 
N6580 X113.333 Y147.081 
N6585 Z24 
N6590 G1 Z22 F2000 
N6595 ; DEPOSITION ON 
N6600 G180 D0.25 U0.75 
N6605 Y202.961 F508 
N6610 ; DEPOSITION OFF 
N6615 G181 D0.25 U0.75 
N6620 G0 Z26 
N6625 X109.806 Y147.081 
N6630 Z24 
N6635 G1 Z22 F2000 
N6640 ; DEPOSITION ON 
N6645 G180 D0.25 U0.75 
N6650 Y202.961 F508 
N6655 ; DEPOSITION OFF 
N6660 G181 D0.25 U0.75 
N6665 G0 Z26 
N6670 X106.279 Y147.081 
N6675 Z24 
N6680 G1 Z22 F2000 
N6685 ; DEPOSITION ON 
N6690 G180 D0.25 U0.75 
N6695 Y202.961 F508 
N6700 G181 D0.25 U0.75 
N6705 V.P.layer_num = 12 
N6710 P12011=0 
N6715 #PCALL decking.nc P1 = V.P.layer_num 
N6720 P12012= 12 
N6725 P12011=1 
N6730 ; LAYER 12 END 
N6735 ; DEPOSITION OFF 
N6740 G181 D0.25 U0.75 
N6745 G0 Z28 
N6750 X91.179 Y147.081 
N6755 Z26 
N6760 G1 Z24 F2000 
N6765 ; LAYER 13 START 
N6770 ; DEPOSITION ON 
N6775 G180 D0.25 U0.75 
N6780 Y202.961 F508 
N6785 ; DEPOSITION OFF 
N6790 G181 D0.25 U0.75 
N6795 G0 Z28 
N6800 X88.013 Y147.081 
N6805 Z26 
N6810 G1 Z24 F2000 
N6815 ; DEPOSITION ON 
N6820 G180 D0.25 U0.75 
N6825 Y202.961 F508 
N6830 ; DEPOSITION OFF 
N6835 G181 D0.25 U0.75 
N6840 G0 Z28 
N6845 X84.848 Y147.081 
N6850 Z26 
N6855 G1 Z24 F2000 
N6860 ; DEPOSITION ON 
N6865 G180 D0.25 U0.75 
N6870 Y202.961 F508 
N6875 ; DEPOSITION OFF 
N6880 G181 D0.25 U0.75 
N6885 G0 Z28 
N6890 X81.682 Y147.081 
N6895 Z26 
N6900 G1 Z24 F2000 
N6905 ; DEPOSITION ON 
N6910 G180 D0.25 U0.75 
N6915 Y202.961 F508 
N6920 ; DEPOSITION OFF 
N6925 G181 D0.25 U0.75 
N6930 G0 Z28 
N6935 X78.516 Y147.081 
N6940 Z26 
N6945 G1 Z24 F2000 
N6950 ; DEPOSITION ON 
N6955 G180 D0.25 U0.75 
N6960 Y202.961 F508 
N6965 ; DEPOSITION OFF 
N6970 G181 D0.25 U0.75 
N6975 G0 Z28 
N6980 X75.351 Y147.081 
N6985 Z26 
N6990 G1 Z24 F2000 
N6995 ; DEPOSITION ON 
N7000 G180 D0.25 U0.75 
N7005 Y202.961 F508 
N7010 ; DEPOSITION OFF 
N7015 G181 D0.25 U0.75 
N7020 G0 Z28 
N7025 X72.185 Y147.081 
N7030 Z26 
N7035 G1 Z24 F2000 
N7040 ; DEPOSITION ON 
N7045 G180 D0.25 U0.75 
N7050 Y202.961 F508 
N7055 ; DEPOSITION OFF 
N7060 G181 D0.25 U0.75 
N7065 G0 Z28 
N7070 X69.019 Y147.081 
N7075 Z26 
N7080 G1 Z24 F2000 
N7085 ; DEPOSITION ON 
N7090 G180 D0.25 U0.75 
N7095 Y202.961 F508 
N7100 ; DEPOSITION OFF 
N7105 G181 D0.25 U0.75 
N7110 G0 Z28 
N7115 X127.439 Y147.081 
N7120 Z26 
N7125 G1 Z24 F2000 
N7130 ; DEPOSITION ON 
N7135 G180 D0.25 U0.75 
N7140 Y202.961 F508 
N7145 ; DEPOSITION OFF 
N7150 G181 D0.25 U0.75 
N7155 G0 Z28 
N7160 X124.273 Y147.081 
N7165 Z26 
N7170 G1 Z24 F2000 
N7175 ; DEPOSITION ON 
N7180 G180 D0.25 U0.75 
N7185 Y202.961 F508 
N7190 ; DEPOSITION OFF 
N7195 G181 D0.25 U0.75 
N7200 G0 Z28 
N7205 X121.108 Y147.081 
N7210 Z26 
N7215 G1 Z24 F2000 
N7220 ; DEPOSITION ON 
N7225 G180 D0.25 U0.75 
N7230 Y202.961 F508 
N7235 ; DEPOSITION OFF 
N7240 G181 D0.25 U0.75 
N7245 G0 Z28 
N7250 X117.942 Y147.081 
N7255 Z26 
N7260 G1 Z24 F2000 
N7265 ; DEPOSITION ON 
N7270 G180 D0.25 U0.75 
N7275 Y202.961 F508 
N7280 ; DEPOSITION OFF 
N7285 G181 D0.25 U0.75 
N7290 G0 Z28 
N7295 X114.776 Y147.081 
N7300 Z26 
N7305 G1 Z24 F2000 
N7310 ; DEPOSITION ON 
N7315 G180 D0.25 U0.75 
N7320 Y202.961 F508 
N7325 ; DEPOSITION OFF 
N7330 G181 D0.25 U0.75 
N7335 G0 Z28 
N7340 X111.611 Y147.081 
N7345 Z26 
N7350 G1 Z24 F2000 
N7355 ; DEPOSITION ON 
N7360 G180 D0.25 U0.75 
N7365 Y202.961 F508 
N7370 ; DEPOSITION OFF 
N7375 G181 D0.25 U0.75 
N7380 G0 Z28 
N7385 X108.445 Y147.081 
N7390 Z26 
N7395 G1 Z24 F2000 
N7400 ; DEPOSITION ON 
N7405 G180 D0.25 U0.75 
N7410 Y202.961 F508 
N7415 ; DEPOSITION OFF 
N7420 G181 D0.25 U0.75 
N7425 G0 Z28 
N7430 X105.279 Y147.081 
N7435 Z26 
N7440 G1 Z24 F2000 
N7445 ; DEPOSITION ON 
N7450 G180 D0.25 U0.75 
N7455 Y202.961 F508 
N7460 G181 D0.25 U0.75 
N7465 V.P.layer_num = 13 
N7470 P12011=0 
N7475 #PCALL decking.nc P1 = V.P.layer_num 
N7480 P12012= 13 
N7485 P12011=1 
N7490 ; LAYER 13 END 
N7495 ; DEPOSITION OFF 
N7500 G181 D0.25 U0.75 
N7505 G0 Z30 
N7510 X92.179 Y147.081 
N7515 Z28 
N7520 G1 Z26 F2000 
N7525 ; LAYER 14 START 
N7530 ; DEPOSITION ON 
N7535 G180 D0.25 U0.75 
N7540 Y202.961 F508 
N7545 ; DEPOSITION OFF 
N7550 G181 D0.25 U0.75 
N7555 G0 Z30 
N7560 X88.871 Y147.081 
N7565 Z28 
N7570 G1 Z26 F2000 
N7575 ; DEPOSITION ON 
N7580 G180 D0.25 U0.75 
N7585 Y202.961 F508 
N7590 ; DEPOSITION OFF 
N7595 G181 D0.25 U0.75 
N7600 G0 Z30 
N7605 X85.562 Y147.081 
N7610 Z28 
N7615 G1 Z26 F2000 
N7620 ; DEPOSITION ON 
N7625 G180 D0.25 U0.75 
N7630 Y202.961 F508 
N7635 ; DEPOSITION OFF 
N7640 G181 D0.25 U0.75 
N7645 G0 Z30 
N7650 X82.253 Y147.081 
N7655 Z28 
N7660 G1 Z26 F2000 
N7665 ; DEPOSITION ON 
N7670 G180 D0.25 U0.75 
N7675 Y202.961 F508 
N7680 ; DEPOSITION OFF 
N7685 G181 D0.25 U0.75 
N7690 G0 Z30 
N7695 X78.945 Y147.081 
N7700 Z28 
N7705 G1 Z26 F2000 
N7710 ; DEPOSITION ON 
N7715 G180 D0.25 U0.75 
N7720 Y202.961 F508 
N7725 ; DEPOSITION OFF 
N7730 G181 D0.25 U0.75 
N7735 G0 Z30 
N7740 X75.636 Y147.081 
N7745 Z28 
N7750 G1 Z26 F2000 
N7755 ; DEPOSITION ON 
N7760 G180 D0.25 U0.75 
N7765 Y202.961 F508 
N7770 ; DEPOSITION OFF 
N7775 G181 D0.25 U0.75 
N7780 G0 Z30 
N7785 X72.328 Y147.081 
N7790 Z28 
N7795 G1 Z26 F2000 
N7800 ; DEPOSITION ON 
N7805 G180 D0.25 U0.75 
N7810 Y202.961 F508 
N7815 ; DEPOSITION OFF 
N7820 G181 D0.25 U0.75 
N7825 G0 Z30 
N7830 X69.019 Y147.081 
N7835 Z28 
N7840 G1 Z26 F2000 
N7845 ; DEPOSITION ON 
N7850 G180 D0.25 U0.75 
N7855 Y202.961 F508 
N7860 ; DEPOSITION OFF 
N7865 G181 D0.25 U0.75 
N7870 G0 Z30 
N7875 X127.439 Y147.081 
N7880 Z28 
N7885 G1 Z26 F2000 
N7890 ; DEPOSITION ON 
N7895 G180 D0.25 U0.75 
N7900 Y202.961 F508 
N7905 ; DEPOSITION OFF 
N7910 G181 D0.25 U0.75 
N7915 G0 Z30 
N7920 X124.131 Y147.081 
N7925 Z28 
N7930 G1 Z26 F2000 
N7935 ; DEPOSITION ON 
N7940 G180 D0.25 U0.75 
N7945 Y202.961 F508 
N7950 ; DEPOSITION OFF 
N7955 G181 D0.25 U0.75 
N7960 G0 Z30 
N7965 X120.822 Y147.081 
N7970 Z28 
N7975 G1 Z26 F2000 
N7980 ; DEPOSITION ON 
N7985 G180 D0.25 U0.75 
N7990 Y202.961 F508 
N7995 ; DEPOSITION OFF 
N8000 G181 D0.25 U0.75 
N8005 G0 Z30 
N8010 X117.513 Y147.081 
N8015 Z28 
N8020 G1 Z26 F2000 
N8025 ; DEPOSITION ON 
N8030 G180 D0.25 U0.75 
N8035 Y202.961 F508 
N8040 ; DEPOSITION OFF 
N8045 G181 D0.25 U0.75 
N8050 G0 Z30 
N8055 X114.205 Y147.081 
N8060 Z28 
N8065 G1 Z26 F2000 
N8070 ; DEPOSITION ON 
N8075 G180 D0.25 U0.75 
N8080 Y202.961 F508 
N8085 ; DEPOSITION OFF 
N8090 G181 D0.25 U0.75 
N8095 G0 Z30 
N8100 X110.896 Y147.081 
N8105 Z28 
N8110 G1 Z26 F2000 
N8115 ; DEPOSITION ON 
N8120 G180 D0.25 U0.75 
N8125 Y202.961 F508 
N8130 ; DEPOSITION OFF 
N8135 G181 D0.25 U0.75 
N8140 G0 Z30 
N8145 X107.588 Y147.081 
N8150 Z28 
N8155 G1 Z26 F2000 
N8160 ; DEPOSITION ON 
N8165 G180 D0.25 U0.75 
N8170 Y202.961 F508 
N8175 ; DEPOSITION OFF 
N8180 G181 D0.25 U0.75 
N8185 G0 Z30 
N8190 X104.279 Y147.081 
N8195 Z28 
N8200 G1 Z26 F2000 
N8205 ; DEPOSITION ON 
N8210 G180 D0.25 U0.75 
N8215 Y202.961 F508 
N8220 G181 D0.25 U0.75 
N8225 V.P.layer_num = 14 
N8230 P12011=0 
N8235 #PCALL decking.nc P1 = V.P.layer_num 
N8240 P12012= 14 
N8245 P12011=1 
N8250 ; LAYER 14 END 
N8255 ; DEPOSITION OFF 
N8260 G181 D0.25 U0.75 
N8265 G0 Z32 
N8270 X93.179 Y147.081 
N8275 Z30 
N8280 G1 Z28 F2000 
N8285 ; LAYER 15 START 
N8290 ; DEPOSITION ON 
N8295 G180 D0.25 U0.75 
N8300 Y202.961 F508 
N8305 ; DEPOSITION OFF 
N8310 G181 D0.25 U0.75 
N8315 G0 Z32 
N8320 X89.728 Y147.081 
N8325 Z30 
N8330 G1 Z28 F2000 
N8335 ; DEPOSITION ON 
N8340 G180 D0.25 U0.75 
N8345 Y202.961 F508 
N8350 ; DEPOSITION OFF 
N8355 G181 D0.25 U0.75 
N8360 G0 Z32 
N8365 X86.276 Y147.081 
N8370 Z30 
N8375 G1 Z28 F2000 
N8380 ; DEPOSITION ON 
N8385 G180 D0.25 U0.75 
N8390 Y202.961 F508 
N8395 ; DEPOSITION OFF 
N8400 G181 D0.25 U0.75 
N8405 G0 Z32 
N8410 X82.825 Y147.081 
N8415 Z30 
N8420 G1 Z28 F2000 
N8425 ; DEPOSITION ON 
N8430 G180 D0.25 U0.75 
N8435 Y202.961 F508 
N8440 ; DEPOSITION OFF 
N8445 G181 D0.25 U0.75 
N8450 G0 Z32 
N8455 X79.373 Y147.081 
N8460 Z30 
N8465 G1 Z28 F2000 
N8470 ; DEPOSITION ON 
N8475 G180 D0.25 U0.75 
N8480 Y202.961 F508 
N8485 ; DEPOSITION OFF 
N8490 G181 D0.25 U0.75 
N8495 G0 Z32 
N8500 X75.922 Y147.081 
N8505 Z30 
N8510 G1 Z28 F2000 
N8515 ; DEPOSITION ON 
N8520 G180 D0.25 U0.75 
N8525 Y202.961 F508 
N8530 ; DEPOSITION OFF 
N8535 G181 D0.25 U0.75 
N8540 G0 Z32 
N8545 X72.471 Y147.081 
N8550 Z30 
N8555 G1 Z28 F2000 
N8560 ; DEPOSITION ON 
N8565 G180 D0.25 U0.75 
N8570 Y202.961 F508 
N8575 ; DEPOSITION OFF 
N8580 G181 D0.25 U0.75 
N8585 G0 Z32 
N8590 X69.019 Y147.081 
N8595 Z30 
N8600 G1 Z28 F2000 
N8605 ; DEPOSITION ON 
N8610 G180 D0.25 U0.75 
N8615 Y202.961 F508 
N8620 ; DEPOSITION OFF 
N8625 G181 D0.25 U0.75 
N8630 G0 Z32 
N8635 X127.439 Y147.081 
N8640 Z30 
N8645 G1 Z28 F2000 
N8650 ; DEPOSITION ON 
N8655 G180 D0.25 U0.75 
N8660 Y202.961 F508 
N8665 ; DEPOSITION OFF 
N8670 G181 D0.25 U0.75 
N8675 G0 Z32 
N8680 X123.988 Y147.081 
N8685 Z30 
N8690 G1 Z28 F2000 
N8695 ; DEPOSITION ON 
N8700 G180 D0.25 U0.75 
N8705 Y202.961 F508 
N8710 ; DEPOSITION OFF 
N8715 G181 D0.25 U0.75 
N8720 G0 Z32 
N8725 X120.536 Y147.081 
N8730 Z30 
N8735 G1 Z28 F2000 
N8740 ; DEPOSITION ON 
N8745 G180 D0.25 U0.75 
N8750 Y202.961 F508 
N8755 ; DEPOSITION OFF 
N8760 G181 D0.25 U0.75 
N8765 G0 Z32 
N8770 X117.085 Y147.081 
N8775 Z30 
N8780 G1 Z28 F2000 
N8785 ; DEPOSITION ON 
N8790 G180 D0.25 U0.75 
N8795 Y202.961 F508 
N8800 ; DEPOSITION OFF 
N8805 G181 D0.25 U0.75 
N8810 G0 Z32 
N8815 X113.633 Y147.081 
N8820 Z30 
N8825 G1 Z28 F2000 
N8830 ; DEPOSITION ON 
N8835 G180 D0.25 U0.75 
N8840 Y202.961 F508 
N8845 ; DEPOSITION OFF 
N8850 G181 D0.25 U0.75 
N8855 G0 Z32 
N8860 X110.182 Y147.081 
N8865 Z30 
N8870 G1 Z28 F2000 
N8875 ; DEPOSITION ON 
N8880 G180 D0.25 U0.75 
N8885 Y202.961 F508 
N8890 ; DEPOSITION OFF 
N8895 G181 D0.25 U0.75 
N8900 G0 Z32 
N8905 X106.731 Y147.081 
N8910 Z30 
N8915 G1 Z28 F2000 
N8920 ; DEPOSITION ON 
N8925 G180 D0.25 U0.75 
N8930 Y202.961 F508 
N8935 ; DEPOSITION OFF 
N8940 G181 D0.25 U0.75 
N8945 G0 Z32 
N8950 X103.279 Y147.081 
N8955 Z30 
N8960 G1 Z28 F2000 
N8965 ; DEPOSITION ON 
N8970 G180 D0.25 U0.75 
N8975 Y202.961 F508 
N8980 G181 D0.25 U0.75 
N8985 V.P.layer_num = 15 
N8990 P12011=0 
N8995 #PCALL decking.nc P1 = V.P.layer_num 
N9000 P12012= 15 
N9005 P12011=1 
N9010 ; LAYER 15 END 
N9015 ; DEPOSITION OFF 
N9020 G181 D0.25 U0.75 
N9025 G0 Z34 
N9030 X94.179 Y147.081 
N9035 Z32 
N9040 G1 Z30 F2000 
N9045 ; LAYER 16 START 
N9050 ; DEPOSITION ON 
N9055 G180 D0.25 U0.75 
N9060 Y202.961 F508 
N9065 ; DEPOSITION OFF 
N9070 G181 D0.25 U0.75 
N9075 G0 Z34 
N9080 X91.034 Y147.081 
N9085 Z32 
N9090 G1 Z30 F2000 
N9095 ; DEPOSITION ON 
N9100 G180 D0.25 U0.75 
N9105 Y202.961 F508 
N9110 ; DEPOSITION OFF 
N9115 G181 D0.25 U0.75 
N9120 G0 Z34 
N9125 X87.889 Y147.081 
N9130 Z32 
N9135 G1 Z30 F2000 
N9140 ; DEPOSITION ON 
N9145 G180 D0.25 U0.75 
N9150 Y202.961 F508 
N9155 ; DEPOSITION OFF 
N9160 G181 D0.25 U0.75 
N9165 G0 Z34 
N9170 X84.744 Y147.081 
N9175 Z32 
N9180 G1 Z30 F2000 
N9185 ; DEPOSITION ON 
N9190 G180 D0.25 U0.75 
N9195 Y202.961 F508 
N9200 ; DEPOSITION OFF 
N9205 G181 D0.25 U0.75 
N9210 G0 Z34 
N9215 X81.599 Y147.081 
N9220 Z32 
N9225 G1 Z30 F2000 
N9230 ; DEPOSITION ON 
N9235 G180 D0.25 U0.75 
N9240 Y202.961 F508 
N9245 ; DEPOSITION OFF 
N9250 G181 D0.25 U0.75 
N9255 G0 Z34 
N9260 X78.454 Y147.081 
N9265 Z32 
N9270 G1 Z30 F2000 
N9275 ; DEPOSITION ON 
N9280 G180 D0.25 U0.75 
N9285 Y202.961 F508 
N9290 ; DEPOSITION OFF 
N9295 G181 D0.25 U0.75 
N9300 G0 Z34 
N9305 X75.309 Y147.081 
N9310 Z32 
N9315 G1 Z30 F2000 
N9320 ; DEPOSITION ON 
N9325 G180 D0.25 U0.75 
N9330 Y202.961 F508 
N9335 ; DEPOSITION OFF 
N9340 G181 D0.25 U0.75 
N9345 G0 Z34 
N9350 X72.164 Y147.081 
N9355 Z32 
N9360 G1 Z30 F2000 
N9365 ; DEPOSITION ON 
N9370 G180 D0.25 U0.75 
N9375 Y202.961 F508 
N9380 ; DEPOSITION OFF 
N9385 G181 D0.25 U0.75 
N9390 G0 Z34 
N9395 X69.019 Y147.081 
N9400 Z32 
N9405 G1 Z30 F2000 
N9410 ; DEPOSITION ON 
N9415 G180 D0.25 U0.75 
N9420 Y202.961 F508 
N9425 ; DEPOSITION OFF 
N9430 G181 D0.25 U0.75 
N9435 G0 Z34 
N9440 X127.439 Y147.081 
N9445 Z32 
N9450 G1 Z30 F2000 
N9455 ; DEPOSITION ON 
N9460 G180 D0.25 U0.75 
N9465 Y202.961 F508 
N9470 ; DEPOSITION OFF 
N9475 G181 D0.25 U0.75 
N9480 G0 Z34 
N9485 X124.294 Y147.081 
N9490 Z32 
N9495 G1 Z30 F2000 
N9500 ; DEPOSITION ON 
N9505 G180 D0.25 U0.75 
N9510 Y202.961 F508 
N9515 ; DEPOSITION OFF 
N9520 G181 D0.25 U0.75 
N9525 G0 Z34 
N9530 X121.149 Y147.081 
N9535 Z32 
N9540 G1 Z30 F2000 
N9545 ; DEPOSITION ON 
N9550 G180 D0.25 U0.75 
N9555 Y202.961 F508 
N9560 ; DEPOSITION OFF 
N9565 G181 D0.25 U0.75 
N9570 G0 Z34 
N9575 X118.004 Y147.081 
N9580 Z32 
N9585 G1 Z30 F2000 
N9590 ; DEPOSITION ON 
N9595 G180 D0.25 U0.75 
N9600 Y202.961 F508 
N9605 ; DEPOSITION OFF 
N9610 G181 D0.25 U0.75 
N9615 G0 Z34 
N9620 X114.859 Y147.081 
N9625 Z32 
N9630 G1 Z30 F2000 
N9635 ; DEPOSITION ON 
N9640 G180 D0.25 U0.75 
N9645 Y202.961 F508 
N9650 ; DEPOSITION OFF 
N9655 G181 D0.25 U0.75 
N9660 G0 Z34 
N9665 X111.714 Y147.081 
N9670 Z32 
N9675 G1 Z30 F2000 
N9680 ; DEPOSITION ON 
N9685 G180 D0.25 U0.75 
N9690 Y202.961 F508 
N9695 ; DEPOSITION OFF 
N9700 G181 D0.25 U0.75 
N9705 G0 Z34 
N9710 X108.569 Y147.081 
N9715 Z32 
N9720 G1 Z30 F2000 
N9725 ; DEPOSITION ON 
N9730 G180 D0.25 U0.75 
N9735 Y202.961 F508 
N9740 ; DEPOSITION OFF 
N9745 G181 D0.25 U0.75 
N9750 G0 Z34 
N9755 X105.424 Y147.081 
N9760 Z32 
N9765 G1 Z30 F2000 
N9770 ; DEPOSITION ON 
N9775 G180 D0.25 U0.75 
N9780 Y202.961 F508 
N9785 ; DEPOSITION OFF 
N9790 G181 D0.25 U0.75 
N9795 G0 Z34 
N9800 X102.279 Y147.081 
N9805 Z32 
N9810 G1 Z30 F2000 
N9815 ; DEPOSITION ON 
N9820 G180 D0.25 U0.75 
N9825 Y202.961 F508 
N9830 G181 D0.25 U0.75 
N9835 V.P.layer_num = 16 
N9840 P12011=0 
N9845 #PCALL decking.nc P1 = V.P.layer_num 
N9850 P12012= 16 
N9855 P12011=1 
N9860 ; LAYER 16 END 
N9865 ; DEPOSITION OFF 
N9870 G181 D0.25 U0.75 
N9875 G0 Z36 
N9880 X95.179 Y147.081 
N9885 Z34 
N9890 G1 Z32 F2000 
N9895 ; LAYER 17 START 
N9900 ; DEPOSITION ON 
N9905 G180 D0.25 U0.75 
N9910 Y202.961 F508 
N9915 ; DEPOSITION OFF 
N9920 G181 D0.25 U0.75 
N9925 G0 Z36 
N9930 X91.909 Y147.081 
N9935 Z34 
N9940 G1 Z32 F2000 
N9945 ; DEPOSITION ON 
N9950 G180 D0.25 U0.75 
N9955 Y202.961 F508 
N9960 ; DEPOSITION OFF 
N9965 G181 D0.25 U0.75 
N9970 G0 Z36 
N9975 X88.639 Y147.081 
N9980 Z34 
N9985 G1 Z32 F2000 
N9990 ; DEPOSITION ON 
N9995 G180 D0.25 U0.75 
N10000 Y202.961 F508 
N10005 ; DEPOSITION OFF 
N10010 G181 D0.25 U0.75 
N10015 G0 Z36 
N10020 X85.369 Y147.081 
N10025 Z34 
N10030 G1 Z32 F2000 
N10035 ; DEPOSITION ON 
N10040 G180 D0.25 U0.75 
N10045 Y202.961 F508 
N10050 ; DEPOSITION OFF 
N10055 G181 D0.25 U0.75 
N10060 G0 Z36 
N10065 X82.099 Y147.081 
N10070 Z34 
N10075 G1 Z32 F2000 
N10080 ; DEPOSITION ON 
N10085 G180 D0.25 U0.75 
N10090 Y202.961 F508 
N10095 ; DEPOSITION OFF 
N10100 G181 D0.25 U0.75 
N10105 G0 Z36 
N10110 X78.829 Y147.081 
N10115 Z34 
N10120 G1 Z32 F2000 
N10125 ; DEPOSITION ON 
N10130 G180 D0.25 U0.75 
N10135 Y202.961 F508 
N10140 ; DEPOSITION OFF 
N10145 G181 D0.25 U0.75 
N10150 G0 Z36 
N10155 X75.559 Y147.081 
N10160 Z34 
N10165 G1 Z32 F2000 
N10170 ; DEPOSITION ON 
N10175 G180 D0.25 U0.75 
N10180 Y202.961 F508 
N10185 ; DEPOSITION OFF 
N10190 G181 D0.25 U0.75 
N10195 G0 Z36 
N10200 X72.289 Y147.081 
N10205 Z34 
N10210 G1 Z32 F2000 
N10215 ; DEPOSITION ON 
N10220 G180 D0.25 U0.75 
N10225 Y202.961 F508 
N10230 ; DEPOSITION OFF 
N10235 G181 D0.25 U0.75 
N10240 G0 Z36 
N10245 X69.019 Y147.081 
N10250 Z34 
N10255 G1 Z32 F2000 
N10260 ; DEPOSITION ON 
N10265 G180 D0.25 U0.75 
N10270 Y202.961 F508 
N10275 ; DEPOSITION OFF 
N10280 G181 D0.25 U0.75 
N10285 G0 Z36 
N10290 X127.439 Y147.081 
N10295 Z34 
N10300 G1 Z32 F2000 
N10305 ; DEPOSITION ON 
N10310 G180 D0.25 U0.75 
N10315 Y202.961 F508 
N10320 ; DEPOSITION OFF 
N10325 G181 D0.25 U0.75 
N10330 G0 Z36 
N10335 X124.169 Y147.081 
N10340 Z34 
N10345 G1 Z32 F2000 
N10350 ; DEPOSITION ON 
N10355 G180 D0.25 U0.75 
N10360 Y202.961 F508 
N10365 ; DEPOSITION OFF 
N10370 G181 D0.25 U0.75 
N10375 G0 Z36 
N10380 X120.899 Y147.081 
N10385 Z34 
N10390 G1 Z32 F2000 
N10395 ; DEPOSITION ON 
N10400 G180 D0.25 U0.75 
N10405 Y202.961 F508 
N10410 ; DEPOSITION OFF 
N10415 G181 D0.25 U0.75 
N10420 G0 Z36 
N10425 X117.629 Y147.081 
N10430 Z34 
N10435 G1 Z32 F2000 
N10440 ; DEPOSITION ON 
N10445 G180 D0.25 U0.75 
N10450 Y202.961 F508 
N10455 ; DEPOSITION OFF 
N10460 G181 D0.25 U0.75 
N10465 G0 Z36 
N10470 X114.359 Y147.081 
N10475 Z34 
N10480 G1 Z32 F2000 
N10485 ; DEPOSITION ON 
N10490 G180 D0.25 U0.75 
N10495 Y202.961 F508 
N10500 ; DEPOSITION OFF 
N10505 G181 D0.25 U0.75 
N10510 G0 Z36 
N10515 X111.089 Y147.081 
N10520 Z34 
N10525 G1 Z32 F2000 
N10530 ; DEPOSITION ON 
N10535 G180 D0.25 U0.75 
N10540 Y202.961 F508 
N10545 ; DEPOSITION OFF 
N10550 G181 D0.25 U0.75 
N10555 G0 Z36 
N10560 X107.819 Y147.081 
N10565 Z34 
N10570 G1 Z32 F2000 
N10575 ; DEPOSITION ON 
N10580 G180 D0.25 U0.75 
N10585 Y202.961 F508 
N10590 ; DEPOSITION OFF 
N10595 G181 D0.25 U0.75 
N10600 G0 Z36 
N10605 X104.549 Y147.081 
N10610 Z34 
N10615 G1 Z32 F2000 
N10620 ; DEPOSITION ON 
N10625 G180 D0.25 U0.75 
N10630 Y202.961 F508 
N10635 ; DEPOSITION OFF 
N10640 G181 D0.25 U0.75 
N10645 G0 Z36 
N10650 X101.279 Y147.081 
N10655 Z34 
N10660 G1 Z32 F2000 
N10665 ; DEPOSITION ON 
N10670 G180 D0.25 U0.75 
N10675 Y202.961 F508 
N10680 G181 D0.25 U0.75 
N10685 V.P.layer_num = 17 
N10690 P12011=0 
N10695 #PCALL decking.nc P1 = V.P.layer_num 
N10700 P12012= 17 
N10705 P12011=1 
N10710 ; LAYER 17 END 
N10715 ; DEPOSITION OFF 
N10720 G181 D0.25 U0.75 
N10725 G0 Z38 
N10730 X96.179 Y147.081 
N10735 Z36 
N10740 G1 Z34 F2000 
N10745 ; LAYER 18 START 
N10750 ; DEPOSITION ON 
N10755 G180 D0.25 U0.75 
N10760 Y202.961 F508 
N10765 ; DEPOSITION OFF 
N10770 G181 D0.25 U0.75 
N10775 G0 Z38 
N10780 X92.784 Y147.081 
N10785 Z36 
N10790 G1 Z34 F2000 
N10795 ; DEPOSITION ON 
N10800 G180 D0.25 U0.75 
N10805 Y202.961 F508 
N10810 ; DEPOSITION OFF 
N10815 G181 D0.25 U0.75 
N10820 G0 Z38 
N10825 X89.389 Y147.081 
N10830 Z36 
N10835 G1 Z34 F2000 
N10840 ; DEPOSITION ON 
N10845 G180 D0.25 U0.75 
N10850 Y202.961 F508 
N10855 ; DEPOSITION OFF 
N10860 G181 D0.25 U0.75 
N10865 G0 Z38 
N10870 X85.994 Y147.081 
N10875 Z36 
N10880 G1 Z34 F2000 
N10885 ; DEPOSITION ON 
N10890 G180 D0.25 U0.75 
N10895 Y202.961 F508 
N10900 ; DEPOSITION OFF 
N10905 G181 D0.25 U0.75 
N10910 G0 Z38 
N10915 X82.599 Y147.081 
N10920 Z36 
N10925 G1 Z34 F2000 
N10930 ; DEPOSITION ON 
N10935 G180 D0.25 U0.75 
N10940 Y202.961 F508 
N10945 ; DEPOSITION OFF 
N10950 G181 D0.25 U0.75 
N10955 G0 Z38 
N10960 X79.204 Y147.081 
N10965 Z36 
N10970 G1 Z34 F2000 
N10975 ; DEPOSITION ON 
N10980 G180 D0.25 U0.75 
N10985 Y202.961 F508 
N10990 ; DEPOSITION OFF 
N10995 G181 D0.25 U0.75 
N11000 G0 Z38 
N11005 X75.809 Y147.081 
N11010 Z36 
N11015 G1 Z34 F2000 
N11020 ; DEPOSITION ON 
N11025 G180 D0.25 U0.75 
N11030 Y202.961 F508 
N11035 ; DEPOSITION OFF 
N11040 G181 D0.25 U0.75 
N11045 G0 Z38 
N11050 X72.414 Y147.081 
N11055 Z36 
N11060 G1 Z34 F2000 
N11065 ; DEPOSITION ON 
N11070 G180 D0.25 U0.75 
N11075 Y202.961 F508 
N11080 ; DEPOSITION OFF 
N11085 G181 D0.25 U0.75 
N11090 G0 Z38 
N11095 X69.019 Y147.081 
N11100 Z36 
N11105 G1 Z34 F2000 
N11110 ; DEPOSITION ON 
N11115 G180 D0.25 U0.75 
N11120 Y202.961 F508 
N11125 ; DEPOSITION OFF 
N11130 G181 D0.25 U0.75 
N11135 G0 Z38 
N11140 X127.439 Y147.081 
N11145 Z36 
N11150 G1 Z34 F2000 
N11155 ; DEPOSITION ON 
N11160 G180 D0.25 U0.75 
N11165 Y202.961 F508 
N11170 ; DEPOSITION OFF 
N11175 G181 D0.25 U0.75 
N11180 G0 Z38 
N11185 X124.044 Y147.081 
N11190 Z36 
N11195 G1 Z34 F2000 
N11200 ; DEPOSITION ON 
N11205 G180 D0.25 U0.75 
N11210 Y202.961 F508 
N11215 ; DEPOSITION OFF 
N11220 G181 D0.25 U0.75 
N11225 G0 Z38 
N11230 X120.649 Y147.081 
N11235 Z36 
N11240 G1 Z34 F2000 
N11245 ; DEPOSITION ON 
N11250 G180 D0.25 U0.75 
N11255 Y202.961 F508 
N11260 ; DEPOSITION OFF 
N11265 G181 D0.25 U0.75 
N11270 G0 Z38 
N11275 X117.254 Y147.081 
N11280 Z36 
N11285 G1 Z34 F2000 
N11290 ; DEPOSITION ON 
N11295 G180 D0.25 U0.75 
N11300 Y202.961 F508 
N11305 ; DEPOSITION OFF 
N11310 G181 D0.25 U0.75 
N11315 G0 Z38 
N11320 X113.859 Y147.081 
N11325 Z36 
N11330 G1 Z34 F2000 
N11335 ; DEPOSITION ON 
N11340 G180 D0.25 U0.75 
N11345 Y202.961 F508 
N11350 ; DEPOSITION OFF 
N11355 G181 D0.25 U0.75 
N11360 G0 Z38 
N11365 X110.464 Y147.081 
N11370 Z36 
N11375 G1 Z34 F2000 
N11380 ; DEPOSITION ON 
N11385 G180 D0.25 U0.75 
N11390 Y202.961 F508 
N11395 ; DEPOSITION OFF 
N11400 G181 D0.25 U0.75 
N11405 G0 Z38 
N11410 X107.069 Y147.081 
N11415 Z36 
N11420 G1 Z34 F2000 
N11425 ; DEPOSITION ON 
N11430 G180 D0.25 U0.75 
N11435 Y202.961 F508 
N11440 ; DEPOSITION OFF 
N11445 G181 D0.25 U0.75 
N11450 G0 Z38 
N11455 X103.674 Y147.081 
N11460 Z36 
N11465 G1 Z34 F2000 
N11470 ; DEPOSITION ON 
N11475 G180 D0.25 U0.75 
N11480 Y202.961 F508 
N11485 ; DEPOSITION OFF 
N11490 G181 D0.25 U0.75 
N11495 G0 Z38 
N11500 X100.279 Y147.081 
N11505 Z36 
N11510 G1 Z34 F2000 
N11515 ; DEPOSITION ON 
N11520 G180 D0.25 U0.75 
N11525 Y202.961 F508 
N11530 G181 D0.25 U0.75 
N11535 V.P.layer_num = 18 
N11540 P12011=0 
N11545 #PCALL decking.nc P1 = V.P.layer_num 
N11550 P12012= 18 
N11555 P12011=1 
N11560 ; LAYER 18 END 
N11565 ; DEPOSITION OFF 
N11570 G181 D0.25 U0.75 
N11575 G0 Z40 
N11580 X97.179 Y147.081 
N11585 Z38 
N11590 G1 Z36 F2000 
N11595 ; LAYER 19 START 
N11600 ; DEPOSITION ON 
N11605 G180 D0.25 U0.75 
N11610 Y202.961 F508 
N11615 ; DEPOSITION OFF 
N11620 G181 D0.25 U0.75 
N11625 G0 Z40 
N11630 X93.659 Y147.081 
N11635 Z38 
N11640 G1 Z36 F2000 
N11645 ; DEPOSITION ON 
N11650 G180 D0.25 U0.75 
N11655 Y202.961 F508 
N11660 ; DEPOSITION OFF 
N11665 G181 D0.25 U0.75 
N11670 G0 Z40 
N11675 X90.139 Y147.081 
N11680 Z38 
N11685 G1 Z36 F2000 
N11690 ; DEPOSITION ON 
N11695 G180 D0.25 U0.75 
N11700 Y202.961 F508 
N11705 ; DEPOSITION OFF 
N11710 G181 D0.25 U0.75 
N11715 G0 Z40 
N11720 X86.619 Y147.081 
N11725 Z38 
N11730 G1 Z36 F2000 
N11735 ; DEPOSITION ON 
N11740 G180 D0.25 U0.75 
N11745 Y202.961 F508 
N11750 ; DEPOSITION OFF 
N11755 G181 D0.25 U0.75 
N11760 G0 Z40 
N11765 X83.099 Y147.081 
N11770 Z38 
N11775 G1 Z36 F2000 
N11780 ; DEPOSITION ON 
N11785 G180 D0.25 U0.75 
N11790 Y202.961 F508 
N11795 ; DEPOSITION OFF 
N11800 G181 D0.25 U0.75 
N11805 G0 Z40 
N11810 X79.579 Y147.081 
N11815 Z38 
N11820 G1 Z36 F2000 
N11825 ; DEPOSITION ON 
N11830 G180 D0.25 U0.75 
N11835 Y202.961 F508 
N11840 ; DEPOSITION OFF 
N11845 G181 D0.25 U0.75 
N11850 G0 Z40 
N11855 X76.059 Y147.081 
N11860 Z38 
N11865 G1 Z36 F2000 
N11870 ; DEPOSITION ON 
N11875 G180 D0.25 U0.75 
N11880 Y202.961 F508 
N11885 ; DEPOSITION OFF 
N11890 G181 D0.25 U0.75 
N11895 G0 Z40 
N11900 X72.539 Y147.081 
N11905 Z38 
N11910 G1 Z36 F2000 
N11915 ; DEPOSITION ON 
N11920 G180 D0.25 U0.75 
N11925 Y202.961 F508 
N11930 ; DEPOSITION OFF 
N11935 G181 D0.25 U0.75 
N11940 G0 Z40 
N11945 X69.019 Y147.081 
N11950 Z38 
N11955 G1 Z36 F2000 
N11960 ; DEPOSITION ON 
N11965 G180 D0.25 U0.75 
N11970 Y202.961 F508 
N11975 ; DEPOSITION OFF 
N11980 G181 D0.25 U0.75 
N11985 G0 Z40 
N11990 X127.439 Y147.081 
N11995 Z38 
N12000 G1 Z36 F2000 
N12005 ; DEPOSITION ON 
N12010 G180 D0.25 U0.75 
N12015 Y202.961 F508 
N12020 ; DEPOSITION OFF 
N12025 G181 D0.25 U0.75 
N12030 G0 Z40 
N12035 X123.919 Y147.081 
N12040 Z38 
N12045 G1 Z36 F2000 
N12050 ; DEPOSITION ON 
N12055 G180 D0.25 U0.75 
N12060 Y202.961 F508 
N12065 ; DEPOSITION OFF 
N12070 G181 D0.25 U0.75 
N12075 G0 Z40 
N12080 X120.399 Y147.081 
N12085 Z38 
N12090 G1 Z36 F2000 
N12095 ; DEPOSITION ON 
N12100 G180 D0.25 U0.75 
N12105 Y202.961 F508 
N12110 ; DEPOSITION OFF 
N12115 G181 D0.25 U0.75 
N12120 G0 Z40 
N12125 X116.879 Y147.081 
N12130 Z38 
N12135 G1 Z36 F2000 
N12140 ; DEPOSITION ON 
N12145 G180 D0.25 U0.75 
N12150 Y202.961 F508 
N12155 ; DEPOSITION OFF 
N12160 G181 D0.25 U0.75 
N12165 G0 Z40 
N12170 X113.359 Y147.081 
N12175 Z38 
N12180 G1 Z36 F2000 
N12185 ; DEPOSITION ON 
N12190 G180 D0.25 U0.75 
N12195 Y202.961 F508 
N12200 ; DEPOSITION OFF 
N12205 G181 D0.25 U0.75 
N12210 G0 Z40 
N12215 X109.839 Y147.081 
N12220 Z38 
N12225 G1 Z36 F2000 
N12230 ; DEPOSITION ON 
N12235 G180 D0.25 U0.75 
N12240 Y202.961 F508 
N12245 ; DEPOSITION OFF 
N12250 G181 D0.25 U0.75 
N12255 G0 Z40 
N12260 X106.319 Y147.081 
N12265 Z38 
N12270 G1 Z36 F2000 
N12275 ; DEPOSITION ON 
N12280 G180 D0.25 U0.75 
N12285 Y202.961 F508 
N12290 ; DEPOSITION OFF 
N12295 G181 D0.25 U0.75 
N12300 G0 Z40 
N12305 X102.799 Y147.081 
N12310 Z38 
N12315 G1 Z36 F2000 
N12320 ; DEPOSITION ON 
N12325 G180 D0.25 U0.75 
N12330 Y202.961 F508 
N12335 ; DEPOSITION OFF 
N12340 G181 D0.25 U0.75 
N12345 G0 Z40 
N12350 X99.279 Y147.081 
N12355 Z38 
N12360 G1 Z36 F2000 
N12365 ; DEPOSITION ON 
N12370 G180 D0.25 U0.75 
N12375 Y202.961 F508 
N12380 G181 D0.25 U0.75 
N12385 V.P.layer_num = 19 
N12390 P12011=0 
N12395 #PCALL decking.nc P1 = V.P.layer_num 
N12400 P12012= 19 
N12405 P12011=1 
N12410 ; LAYER 19 END 
N12415 ; DEPOSITION OFF 
N12420 G181 D0.25 U0.75 
N12425 G0 Z42 
N12430 X127.439 Y147.081 
N12435 Z40 
N12440 G1 Z38 F2000 
N12445 ; LAYER 20 START 
N12450 ; DEPOSITION ON 
N12455 G180 D0.25 U0.75 
N12460 Y202.961 F508 
N12465 ; DEPOSITION OFF 
N12470 G181 D0.25 U0.75 
N12475 G0 Z42 
N12480 X124.003 Y147.081 
N12485 Z40 
N12490 G1 Z38 F2000 
N12495 ; DEPOSITION ON 
N12500 G180 D0.25 U0.75 
N12505 Y202.961 F508 
N12510 ; DEPOSITION OFF 
N12515 G181 D0.25 U0.75 
N12520 G0 Z42 
N12525 X120.566 Y147.081 
N12530 Z40 
N12535 G1 Z38 F2000 
N12540 ; DEPOSITION ON 
N12545 G180 D0.25 U0.75 
N12550 Y202.961 F508 
N12555 ; DEPOSITION OFF 
N12560 G181 D0.25 U0.75 
N12565 G0 Z42 
N12570 X117.13 Y147.081 
N12575 Z40 
N12580 G1 Z38 F2000 
N12585 ; DEPOSITION ON 
N12590 G180 D0.25 U0.75 
N12595 Y202.961 F508 
N12600 ; DEPOSITION OFF 
N12605 G181 D0.25 U0.75 
N12610 G0 Z42 
N12615 X113.693 Y147.081 
N12620 Z40 
N12625 G1 Z38 F2000 
N12630 ; DEPOSITION ON 
N12635 G180 D0.25 U0.75 
N12640 Y202.961 F508 
N12645 ; DEPOSITION OFF 
N12650 G181 D0.25 U0.75 
N12655 G0 Z42 
N12660 X110.257 Y147.081 
N12665 Z40 
N12670 G1 Z38 F2000 
N12675 ; DEPOSITION ON 
N12680 G180 D0.25 U0.75 
N12685 Y202.961 F508 
N12690 ; DEPOSITION OFF 
N12695 G181 D0.25 U0.75 
N12700 G0 Z42 
N12705 X106.82 Y147.081 
N12710 Z40 
N12715 G1 Z38 F2000 
N12720 ; DEPOSITION ON 
N12725 G180 D0.25 U0.75 
N12730 Y202.961 F508 
N12735 ; DEPOSITION OFF 
N12740 G181 D0.25 U0.75 
N12745 G0 Z42 
N12750 X103.384 Y147.081 
N12755 Z40 
N12760 G1 Z38 F2000 
N12765 ; DEPOSITION ON 
N12770 G180 D0.25 U0.75 
N12775 Y202.961 F508 
N12780 ; DEPOSITION OFF 
N12785 G181 D0.25 U0.75 
N12790 G0 Z42 
N12795 X99.947 Y147.081 
N12800 Z40 
N12805 G1 Z38 F2000 
N12810 ; DEPOSITION ON 
N12815 G180 D0.25 U0.75 
N12820 Y202.961 F508 
N12825 ; DEPOSITION OFF 
N12830 G181 D0.25 U0.75 
N12835 G0 Z42 
N12840 X96.511 Y147.081 
N12845 Z40 
N12850 G1 Z38 F2000 
N12855 ; DEPOSITION ON 
N12860 G180 D0.25 U0.75 
N12865 Y202.961 F508 
N12870 ; DEPOSITION OFF 
N12875 G181 D0.25 U0.75 
N12880 G0 Z42 
N12885 X93.074 Y147.081 
N12890 Z40 
N12895 G1 Z38 F2000 
N12900 ; DEPOSITION ON 
N12905 G180 D0.25 U0.75 
N12910 Y202.961 F508 
N12915 ; DEPOSITION OFF 
N12920 G181 D0.25 U0.75 
N12925 G0 Z42 
N12930 X89.638 Y147.081 
N12935 Z40 
N12940 G1 Z38 F2000 
N12945 ; DEPOSITION ON 
N12950 G180 D0.25 U0.75 
N12955 Y202.961 F508 
N12960 ; DEPOSITION OFF 
N12965 G181 D0.25 U0.75 
N12970 G0 Z42 
N12975 X86.202 Y147.081 
N12980 Z40 
N12985 G1 Z38 F2000 
N12990 ; DEPOSITION ON 
N12995 G180 D0.25 U0.75 
N13000 Y202.961 F508 
N13005 ; DEPOSITION OFF 
N13010 G181 D0.25 U0.75 
N13015 G0 Z42 
N13020 X82.765 Y147.081 
N13025 Z40 
N13030 G1 Z38 F2000 
N13035 ; DEPOSITION ON 
N13040 G180 D0.25 U0.75 
N13045 Y202.961 F508 
N13050 ; DEPOSITION OFF 
N13055 G181 D0.25 U0.75 
N13060 G0 Z42 
N13065 X79.329 Y147.081 
N13070 Z40 
N13075 G1 Z38 F2000 
N13080 ; DEPOSITION ON 
N13085 G180 D0.25 U0.75 
N13090 Y202.961 F508 
N13095 ; DEPOSITION OFF 
N13100 G181 D0.25 U0.75 
N13105 G0 Z42 
N13110 X75.892 Y147.081 
N13115 Z40 
N13120 G1 Z38 F2000 
N13125 ; DEPOSITION ON 
N13130 G180 D0.25 U0.75 
N13135 Y202.961 F508 
N13140 ; DEPOSITION OFF 
N13145 G181 D0.25 U0.75 
N13150 G0 Z42 
N13155 X72.456 Y147.081 
N13160 Z40 
N13165 G1 Z38 F2000 
N13170 ; DEPOSITION ON 
N13175 G180 D0.25 U0.75 
N13180 Y202.961 F508 
N13185 ; DEPOSITION OFF 
N13190 G181 D0.25 U0.75 
N13195 G0 Z42 
N13200 X69.019 Y147.081 
N13205 Z40 
N13210 G1 Z38 F2000 
N13215 ; DEPOSITION ON 
N13220 G180 D0.25 U0.75 
N13225 Y202.961 F508 
N13230 G181 D0.25 U0.75 
N13235 V.P.layer_num = 20 
N13240 P12011=0 
N13245 #PCALL decking.nc P1 = V.P.layer_num 
N13250 P12012= 20 
N13255 P12011=1 
N13260 ; LAYER 20 END 
N13265 ; DEPOSITION OFF 
N13270 G181 D0.25 U0.75 
N13275 G0 Z53.1 
N13280 M5 M9 
N13285 #MCS OFF 
N13290 G0 Z0 
N13295 X0 Y0 
N13300 A0. C0. 
N13305 #MCS Z0 
N13310 M30 
