deposition_tes
N10 ; MACHINE
N15 ;   VENDOR AUTODESK
N20 ;   MODEL GENERIC DED
N25 ;   DESCRIPTION GENERIC DIRECT ENERGY DEPOSITION MACHINE WITH EXPORT TO SIMULATION AND POWERMILL
N30 ; T1  D=0 CR=0 - ZMIN=0.001 - ELECTRIC ARC WIRE
N35 #MCS OFF
N40 #CS OFF
N45 G71 G80 G90
N50 G17 G40
N55 G53
N60 G0 G53 Z0
N65 X0 Y0
N70 G53 A0. C0.
N75 ; FEATURE CONSTRUCTION2
N80 T1 M6
N85 S0
N90 M3
N95 G4 K3
N100 G0
N105 G54
;(ORGX58=0,ORGY58=0,ORGZ58=0)
N110 G58
N115 D1
N120 G0 X79.18 Y147.081
N125 G43 Z53.1
N130 G0 Z2.001
N135 G94 G1 Z0.001 F2000
N140 ; LAYER 1 START
N145 ; DEPOSITION ON
N150 Y202.961 F508
N155 ; DEPOSITION OFF
N160 G0 Z4.001
N165 X75.793 Y147.081
N170 Z2.001
N175 G1 Z0.001 F2000
N180 ; DEPOSITION ON
N185 Y202.961 F508
N190 ; DEPOSITION OFF
N195 G0 Z4.001
N200 X72.406 Y147.081
N205 Z2.001
N210 G1 Z0.001 F2000
N215 ; DEPOSITION ON
N220 Y202.961 F508
N225 ; DEPOSITION OFF
N230 G0 Z4.001
N235 X69.019 Y147.081
N240 Z2.001
N245 G1 Z0.001 F2000
N250 ; DEPOSITION ON
N255 Y202.961 F508
N260 ; DEPOSITION OFF
N265 G0 Z4.001
N270 X127.439 Y147.081
N275 Z2.001
N280 G1 Z0.001 F2000
N285 ; DEPOSITION ON
N290 Y202.961 F508
N295 ; DEPOSITION OFF
N300 G0 Z4.001
N305 X124.052 Y147.081
N310 Z2.001
N315 G1 Z0.001 F2000
N320 ; DEPOSITION ON
N325 Y202.961 F508
N330 ; DEPOSITION OFF
N335 G0 Z4.001
N340 X120.666 Y147.081
N345 Z2.001
N350 G1 Z0.001 F2000
N355 ; DEPOSITION ON
N360 Y202.961 F508
N365 ; DEPOSITION OFF
N370 G0 Z4.001
N375 X117.279 Y147.081
N380 Z2.001
N385 G1 Z0.001 F2000
N390 ; DEPOSITION ON
N395 Y202.961 F508
N400 ; LAYER 1  END
N405 ; DEPOSITION OFF
N410 G0 Z6
N415 X80.127 Y147.081
N420 Z4
N425 G1 Z2 F2000
N430 ; LAYER 2 START
N435 ; DEPOSITION ON
N440 Y202.961 F508
N445 ; DEPOSITION OFF
N450 G0 Z6
N455 X76.442 Y147.081
N460 Z4
N465 G1 Z2 F2000
N470 ; DEPOSITION ON
N475 Y202.961 F508
N480 ; DEPOSITION OFF
N485 G0 Z6
N490 X72.757 Y147.081
N495 Z4
N500 G1 Z2 F2000
N505 ; DEPOSITION ON
N510 Y202.961 F508
N515 ; DEPOSITION OFF
N520 G0 Z6
N525 X69.072 Y147.081
N530 Z4
N535 G1 Z2 F2000
N540 ; DEPOSITION ON
N545 Y202.961 F508
N550 ; DEPOSITION OFF
N555 G0 Z6
N560 X127.387 Y147.081
N565 Z4
N570 G1 Z2 F2000
N575 ; DEPOSITION ON
N580 Y202.961 F508
N585 ; DEPOSITION OFF
N590 G0 Z6
N595 X123.702 Y147.081
N600 Z4
N605 G1 Z2 F2000
N610 ; DEPOSITION ON
N615 Y202.961 F508
N620 ; DEPOSITION OFF
N625 G0 Z6
N630 X120.017 Y147.081
N635 Z4
N640 G1 Z2 F2000
N645 ; DEPOSITION ON
N650 Y202.961 F508
N655 ; DEPOSITION OFF
N660 G0 Z6
N665 X116.332 Y147.081
N670 Z4
N675 G1 Z2 F2000
N680 ; DEPOSITION ON
N685 Y202.961 F508
N690 ; LAYER 2  END
N695 ; DEPOSITION OFF
N700 G0 Z8
N705 X81.179 Y147.081
N710 Z6
N715 G1 Z4 F2000
N720 ; LAYER 3 START
N725 ; DEPOSITION ON
N730 Y202.961 F508
N735 ; DEPOSITION OFF
N740 G0 Z8
N745 X78.139 Y147.081
N750 Z6
N755 G1 Z4 F2000
N760 ; DEPOSITION ON
N765 Y202.961 F508
N770 ; DEPOSITION OFF
N775 G0 Z8
N780 X75.099 Y147.081
N785 Z6
N790 G1 Z4 F2000
N795 ; DEPOSITION ON
N800 Y202.961 F508
N805 ; DEPOSITION OFF
N810 G0 Z8
N815 X72.059 Y147.081
N820 Z6
N825 G1 Z4 F2000
N830 ; DEPOSITION ON
N835 Y202.961 F508
N840 ; DEPOSITION OFF
N845 G0 Z8
N850 X69.019 Y147.081
N855 Z6
N860 G1 Z4 F2000
N865 ; DEPOSITION ON
N870 Y202.961 F508
N875 ; DEPOSITION OFF
N880 G0 Z8
N885 X127.439 Y147.081
N890 Z6
N895 G1 Z4 F2000
N900 ; DEPOSITION ON
N905 Y202.961 F508
N910 ; DEPOSITION OFF
N915 G0 Z8
N920 X124.399 Y147.081
N925 Z6
N930 G1 Z4 F2000
N935 ; DEPOSITION ON
N940 Y202.961 F508
N945 ; DEPOSITION OFF
N950 G0 Z8
N955 X121.359 Y147.081
N960 Z6
N965 G1 Z4 F2000
N970 ; DEPOSITION ON
N975 Y202.961 F508
N980 ; DEPOSITION OFF
N985 G0 Z8
N990 X118.319 Y147.081
N995 Z6
N1000 G1 Z4 F2000
N1005 ; DEPOSITION ON
N1010 Y202.961 F508
N1015 ; DEPOSITION OFF
N1020 G0 Z8
N1025 X115.279 Y147.081
N1030 Z6
N1035 G1 Z4 F2000
N1040 ; DEPOSITION ON
N1045 Y202.961 F508
N1050 ; LAYER 3  END
N1055 ; DEPOSITION OFF
N1060 G0 Z10
N1065 X82.179 Y147.081
N1070 Z8
N1075 G1 Z6 F2000
N1080 ; LAYER 4 START
N1085 ; DEPOSITION ON
N1090 Y202.961 F508
N1095 ; DEPOSITION OFF
N1100 G0 Z10
N1105 X78.889 Y147.081
N1110 Z8
N1115 G1 Z6 F2000
N1120 ; DEPOSITION ON
N1125 Y202.961 F508
N1130 ; DEPOSITION OFF
N1135 G0 Z10
N1140 X75.599 Y147.081
N1145 Z8
N1150 G1 Z6 F2000
N1155 ; DEPOSITION ON
N1160 Y202.961 F508
N1165 ; DEPOSITION OFF
N1170 G0 Z10
N1175 X72.309 Y147.081
N1180 Z8
N1185 G1 Z6 F2000
N1190 ; DEPOSITION ON
N1195 Y202.961 F508
N1200 ; DEPOSITION OFF
N1205 G0 Z10
N1210 X69.019 Y147.081
N1215 Z8
N1220 G1 Z6 F2000
N1225 ; DEPOSITION ON
N1230 Y202.961 F508
N1235 ; DEPOSITION OFF
N1240 G0 Z10
N1245 X127.439 Y147.081
N1250 Z8
N1255 G1 Z6 F2000
N1260 ; DEPOSITION ON
N1265 Y202.961 F508
N1270 ; DEPOSITION OFF
N1275 G0 Z10
N1280 X124.149 Y147.081
N1285 Z8
N1290 G1 Z6 F2000
N1295 ; DEPOSITION ON
N1300 Y202.961 F508
N1305 ; DEPOSITION OFF
N1310 G0 Z10
N1315 X120.859 Y147.081
N1320 Z8
N1325 G1 Z6 F2000
N1330 ; DEPOSITION ON
N1335 Y202.961 F508
N1340 ; DEPOSITION OFF
N1345 G0 Z10
N1350 X117.569 Y147.081
N1355 Z8
N1360 G1 Z6 F2000
N1365 ; DEPOSITION ON
N1370 Y202.961 F508
N1375 ; DEPOSITION OFF
N1380 G0 Z10
N1385 X114.279 Y147.081
N1390 Z8
N1395 G1 Z6 F2000
N1400 ; DEPOSITION ON
N1405 Y202.961 F508
N1410 ; LAYER 4  END
N1415 ; DEPOSITION OFF
N1420 G0 Z12
N1425 X83.179 Y147.081
N1430 Z10
N1435 G1 Z8 F2000
N1440 ; LAYER 5 START
N1445 ; DEPOSITION ON
N1450 Y202.961 F508
N1455 ; DEPOSITION OFF
N1460 G0 Z12
N1465 X79.639 Y147.081
N1470 Z10
N1475 G1 Z8 F2000
N1480 ; DEPOSITION ON
N1485 Y202.961 F508
N1490 ; DEPOSITION OFF
N1495 G0 Z12
N1500 X76.099 Y147.081
N1505 Z10
N1510 G1 Z8 F2000
N1515 ; DEPOSITION ON
N1520 Y202.961 F508
N1525 ; DEPOSITION OFF
N1530 G0 Z12
N1535 X72.559 Y147.081
N1540 Z10
N1545 G1 Z8 F2000
N1550 ; DEPOSITION ON
N1555 Y202.961 F508
N1560 ; DEPOSITION OFF
N1565 G0 Z12
N1570 X69.019 Y147.081
N1575 Z10
N1580 G1 Z8 F2000
N1585 ; DEPOSITION ON
N1590 Y202.961 F508
N1595 ; DEPOSITION OFF
N1600 G0 Z12
N1605 X127.439 Y147.081
N1610 Z10
N1615 G1 Z8 F2000
N1620 ; DEPOSITION ON
N1625 Y202.961 F508
N1630 ; DEPOSITION OFF
N1635 G0 Z12
N1640 X123.899 Y147.081
N1645 Z10
N1650 G1 Z8 F2000
N1655 ; DEPOSITION ON
N1660 Y202.961 F508
N1665 ; DEPOSITION OFF
N1670 G0 Z12
N1675 X120.359 Y147.081
N1680 Z10
N1685 G1 Z8 F2000
N1690 ; DEPOSITION ON
N1695 Y202.961 F508
N1700 ; DEPOSITION OFF
N1705 G0 Z12
N1710 X116.819 Y147.081
N1715 Z10
N1720 G1 Z8 F2000
N1725 ; DEPOSITION ON
N1730 Y202.961 F508
N1735 ; DEPOSITION OFF
N1740 G0 Z12
N1745 X113.279 Y147.081
N1750 Z10
N1755 G1 Z8 F2000
N1760 ; DEPOSITION ON
N1765 Y202.961 F508
N1770 ; LAYER 5  END
N1775 ; DEPOSITION OFF
N1780 G0 Z14
N1785 X84.179 Y147.081
N1790 Z12
N1795 G1 Z10 F2000
N1800 ; LAYER 6 START
N1805 ; DEPOSITION ON
N1810 Y202.961 F508
N1815 ; DEPOSITION OFF
N1820 G0 Z14
N1825 X81.147 Y147.081
N1830 Z12
N1835 G1 Z10 F2000
N1840 ; DEPOSITION ON
N1845 Y202.961 F508
N1850 ; DEPOSITION OFF
N1855 G0 Z14
N1860 X78.115 Y147.081
N1865 Z12
N1870 G1 Z10 F2000
N1875 ; DEPOSITION ON
N1880 Y202.961 F508
N1885 ; DEPOSITION OFF
N1890 G0 Z14
N1895 X75.083 Y147.081
N1900 Z12
N1905 G1 Z10 F2000
N1910 ; DEPOSITION ON
N1915 Y202.961 F508
N1920 ; DEPOSITION OFF
N1925 G0 Z14
N1930 X72.051 Y147.081
N1935 Z12
N1940 G1 Z10 F2000
N1945 ; DEPOSITION ON
N1950 Y202.961 F508
N1955 ; DEPOSITION OFF
N1960 G0 Z14
N1965 X69.019 Y147.081
N1970 Z12
N1975 G1 Z10 F2000
N1980 ; DEPOSITION ON
N1985 Y202.961 F508
N1990 ; DEPOSITION OFF
N1995 G0 Z14
N2000 X127.439 Y147.081
N2005 Z12
N2010 G1 Z10 F2000
N2015 ; DEPOSITION ON
N2020 Y202.961 F508
N2025 ; DEPOSITION OFF
N2030 G0 Z14
N2035 X124.407 Y147.081
N2040 Z12
N2045 G1 Z10 F2000
N2050 ; DEPOSITION ON
N2055 Y202.961 F508
N2060 ; DEPOSITION OFF
N2065 G0 Z14
N2070 X121.375 Y147.081
N2075 Z12
N2080 G1 Z10 F2000
N2085 ; DEPOSITION ON
N2090 Y202.961 F508
N2095 ; DEPOSITION OFF
N2100 G0 Z14
N2105 X118.343 Y147.081
N2110 Z12
N2115 G1 Z10 F2000
N2120 ; DEPOSITION ON
N2125 Y202.961 F508
N2130 ; DEPOSITION OFF
N2135 G0 Z14
N2140 X115.311 Y147.081
N2145 Z12
N2150 G1 Z10 F2000
N2155 ; DEPOSITION ON
N2160 Y202.961 F508
N2165 ; DEPOSITION OFF
N2170 G0 Z14
N2175 X112.279 Y147.081
N2180 Z12
N2185 G1 Z10 F2000
N2190 ; DEPOSITION ON
N2195 Y202.961 F508
N2200 ; LAYER 6  END
N2205 ; DEPOSITION OFF
N2210 G0 Z16
N2215 X85.179 Y147.081
N2220 Z14
N2225 G1 Z12 F2000
N2230 ; LAYER 7 START
N2235 ; DEPOSITION ON
N2240 Y202.961 F508
N2245 ; DEPOSITION OFF
N2250 G0 Z16
N2255 X81.947 Y147.081
N2260 Z14
N2265 G1 Z12 F2000
N2270 ; DEPOSITION ON
N2275 Y202.961 F508
N2280 ; DEPOSITION OFF
N2285 G0 Z16
N2290 X78.715 Y147.081
N2295 Z14
N2300 G1 Z12 F2000
N2305 ; DEPOSITION ON
N2310 Y202.961 F508
N2315 ; DEPOSITION OFF
N2320 G0 Z16
N2325 X75.483 Y147.081
N2330 Z14
N2335 G1 Z12 F2000
N2340 ; DEPOSITION ON
N2345 Y202.961 F508
N2350 ; DEPOSITION OFF
N2355 G0 Z16
N2360 X72.251 Y147.081
N2365 Z14
N2370 G1 Z12 F2000
N2375 ; DEPOSITION ON
N2380 Y202.961 F508
N2385 ; DEPOSITION OFF
N2390 G0 Z16
N2395 X69.019 Y147.081
N2400 Z14
N2405 G1 Z12 F2000
N2410 ; DEPOSITION ON
N2415 Y202.961 F508
N2420 ; DEPOSITION OFF
N2425 G0 Z16
N2430 X127.439 Y147.081
N2435 Z14
N2440 G1 Z12 F2000
N2445 ; DEPOSITION ON
N2450 Y202.961 F508
N2455 ; DEPOSITION OFF
N2460 G0 Z16
N2465 X124.207 Y147.081
N2470 Z14
N2475 G1 Z12 F2000
N2480 ; DEPOSITION ON
N2485 Y202.961 F508
N2490 ; DEPOSITION OFF
N2495 G0 Z16
N2500 X120.975 Y147.081
N2505 Z14
N2510 G1 Z12 F2000
N2515 ; DEPOSITION ON
N2520 Y202.961 F508
N2525 ; DEPOSITION OFF
N2530 G0 Z16
N2535 X117.743 Y147.081
N2540 Z14
N2545 G1 Z12 F2000
N2550 ; DEPOSITION ON
N2555 Y202.961 F508
N2560 ; DEPOSITION OFF
N2565 G0 Z16
N2570 X114.511 Y147.081
N2575 Z14
N2580 G1 Z12 F2000
N2585 ; DEPOSITION ON
N2590 Y202.961 F508
N2595 ; DEPOSITION OFF
N2600 G0 Z16
N2605 X111.279 Y147.081
N2610 Z14
N2615 G1 Z12 F2000
N2620 ; DEPOSITION ON
N2625 Y202.961 F508
N2630 ; LAYER 7  END
N2635 ; DEPOSITION OFF
N2640 G0 Z18
N2645 X86.179 Y147.081
N2650 Z16
N2655 G1 Z14 F2000
N2660 ; LAYER 8 START
N2665 ; DEPOSITION ON
N2670 Y202.961 F508
N2675 ; DEPOSITION OFF
N2680 G0 Z18
N2685 X82.747 Y147.081
N2690 Z16
N2695 G1 Z14 F2000
N2700 ; DEPOSITION ON
N2705 Y202.961 F508
N2710 ; DEPOSITION OFF
N2715 G0 Z18
N2720 X79.315 Y147.081
N2725 Z16
N2730 G1 Z14 F2000
N2735 ; DEPOSITION ON
N2740 Y202.961 F508
N2745 ; DEPOSITION OFF
N2750 G0 Z18
N2755 X75.883 Y147.081
N2760 Z16
N2765 G1 Z14 F2000
N2770 ; DEPOSITION ON
N2775 Y202.961 F508
N2780 ; DEPOSITION OFF
N2785 G0 Z18
N2790 X72.451 Y147.081
N2795 Z16
N2800 G1 Z14 F2000
N2805 ; DEPOSITION ON
N2810 Y202.961 F508
N2815 ; DEPOSITION OFF
N2820 G0 Z18
N2825 X69.019 Y147.081
N2830 Z16
N2835 G1 Z14 F2000
N2840 ; DEPOSITION ON
N2845 Y202.961 F508
N2850 ; DEPOSITION OFF
N2855 G0 Z18
N2860 X127.439 Y147.081
N2865 Z16
N2870 G1 Z14 F2000
N2875 ; DEPOSITION ON
N2880 Y202.961 F508
N2885 ; DEPOSITION OFF
N2890 G0 Z18
N2895 X124.007 Y147.081
N2900 Z16
N2905 G1 Z14 F2000
N2910 ; DEPOSITION ON
N2915 Y202.961 F508
N2920 ; DEPOSITION OFF
N2925 G0 Z18
N2930 X120.575 Y147.081
N2935 Z16
N2940 G1 Z14 F2000
N2945 ; DEPOSITION ON
N2950 Y202.961 F508
N2955 ; DEPOSITION OFF
N2960 G0 Z18
N2965 X117.143 Y147.081
N2970 Z16
N2975 G1 Z14 F2000
N2980 ; DEPOSITION ON
N2985 Y202.961 F508
N2990 ; DEPOSITION OFF
N2995 G0 Z18
N3000 X113.711 Y147.081
N3005 Z16
N3010 G1 Z14 F2000
N3015 ; DEPOSITION ON
N3020 Y202.961 F508
N3025 ; DEPOSITION OFF
N3030 G0 Z18
N3035 X110.279 Y147.081
N3040 Z16
N3045 G1 Z14 F2000
N3050 ; DEPOSITION ON
N3055 Y202.961 F508
N3060 ; LAYER 8  END
N3065 ; DEPOSITION OFF
N3070 G0 Z20
N3075 X87.179 Y147.081
N3080 Z18
N3085 G1 Z16 F2000
N3090 ; LAYER 9 START
N3095 ; DEPOSITION ON
N3100 Y202.961 F508
N3105 ; DEPOSITION OFF
N3110 G0 Z20
N3115 X83.547 Y147.081
N3120 Z18
N3125 G1 Z16 F2000
N3130 ; DEPOSITION ON
N3135 Y202.961 F508
N3140 ; DEPOSITION OFF
N3145 G0 Z20
N3150 X79.915 Y147.081
N3155 Z18
N3160 G1 Z16 F2000
N3165 ; DEPOSITION ON
N3170 Y202.961 F508
N3175 ; DEPOSITION OFF
N3180 G0 Z20
N3185 X76.283 Y147.081
N3190 Z18
N3195 G1 Z16 F2000
N3200 ; DEPOSITION ON
N3205 Y202.961 F508
N3210 ; DEPOSITION OFF
N3215 G0 Z20
N3220 X72.651 Y147.081
N3225 Z18
N3230 G1 Z16 F2000
N3235 ; DEPOSITION ON
N3240 Y202.961 F508
N3245 ; DEPOSITION OFF
N3250 G0 Z20
N3255 X69.019 Y147.081
N3260 Z18
N3265 G1 Z16 F2000
N3270 ; DEPOSITION ON
N3275 Y202.961 F508
N3280 ; DEPOSITION OFF
N3285 G0 Z20
N3290 X127.439 Y147.081
N3295 Z18
N3300 G1 Z16 F2000
N3305 ; DEPOSITION ON
N3310 Y202.961 F508
N3315 ; DEPOSITION OFF
N3320 G0 Z20
N3325 X123.807 Y147.081
N3330 Z18
N3335 G1 Z16 F2000
N3340 ; DEPOSITION ON
N3345 Y202.961 F508
N3350 ; DEPOSITION OFF
N3355 G0 Z20
N3360 X120.175 Y147.081
N3365 Z18
N3370 G1 Z16 F2000
N3375 ; DEPOSITION ON
N3380 Y202.961 F508
N3385 ; DEPOSITION OFF
N3390 G0 Z20
N3395 X116.543 Y147.081
N3400 Z18
N3405 G1 Z16 F2000
N3410 ; DEPOSITION ON
N3415 Y202.961 F508
N3420 ; DEPOSITION OFF
N3425 G0 Z20
N3430 X112.911 Y147.081
N3435 Z18
N3440 G1 Z16 F2000
N3445 ; DEPOSITION ON
N3450 Y202.961 F508
N3455 ; DEPOSITION OFF
N3460 G0 Z20
N3465 X109.279 Y147.081
N3470 Z18
N3475 G1 Z16 F2000
N3480 ; DEPOSITION ON
N3485 Y202.961 F508
N3490 ; LAYER 9  END
N3495 ; DEPOSITION OFF
N3500 G0 Z22
N3505 X88.179 Y147.081
N3510 Z20
N3515 G1 Z18 F2000
N3520 ; LAYER 10 START
N3525 ; DEPOSITION ON
N3530 Y202.961 F508
N3535 ; DEPOSITION OFF
N3540 G0 Z22
N3545 X84.986 Y147.081
N3550 Z20
N3555 G1 Z18 F2000
N3560 ; DEPOSITION ON
N3565 Y202.961 F508
N3570 ; DEPOSITION OFF
N3575 G0 Z22
N3580 X81.792 Y147.081
N3585 Z20
N3590 G1 Z18 F2000
N3595 ; DEPOSITION ON
N3600 Y202.961 F508
N3605 ; DEPOSITION OFF
N3610 G0 Z22
N3615 X78.599 Y147.081
N3620 Z20
N3625 G1 Z18 F2000
N3630 ; DEPOSITION ON
N3635 Y202.961 F508
N3640 ; DEPOSITION OFF
N3645 G0 Z22
N3650 X75.406 Y147.081
N3655 Z20
N3660 G1 Z18 F2000
N3665 ; DEPOSITION ON
N3670 Y202.961 F508
N3675 ; DEPOSITION OFF
N3680 G0 Z22
N3685 X72.213 Y147.081
N3690 Z20
N3695 G1 Z18 F2000
N3700 ; DEPOSITION ON
N3705 Y202.961 F508
N3710 ; DEPOSITION OFF
N3715 G0 Z22
N3720 X69.019 Y147.081
N3725 Z20
N3730 G1 Z18 F2000
N3735 ; DEPOSITION ON
N3740 Y202.961 F508
N3745 ; DEPOSITION OFF
N3750 G0 Z22
N3755 X127.439 Y147.081
N3760 Z20
N3765 G1 Z18 F2000
N3770 ; DEPOSITION ON
N3775 Y202.961 F508
N3780 ; DEPOSITION OFF
N3785 G0 Z22
N3790 X124.246 Y147.081
N3795 Z20
N3800 G1 Z18 F2000
N3805 ; DEPOSITION ON
N3810 Y202.961 F508
N3815 ; DEPOSITION OFF
N3820 G0 Z22
N3825 X121.052 Y147.081
N3830 Z20
N3835 G1 Z18 F2000
N3840 ; DEPOSITION ON
N3845 Y202.961 F508
N3850 ; DEPOSITION OFF
N3855 G0 Z22
N3860 X117.859 Y147.081
N3865 Z20
N3870 G1 Z18 F2000
N3875 ; DEPOSITION ON
N3880 Y202.961 F508
N3885 ; DEPOSITION OFF
N3890 G0 Z22
N3895 X114.666 Y147.081
N3900 Z20
N3905 G1 Z18 F2000
N3910 ; DEPOSITION ON
N3915 Y202.961 F508
N3920 ; DEPOSITION OFF
N3925 G0 Z22
N3930 X111.473 Y147.081
N3935 Z20
N3940 G1 Z18 F2000
N3945 ; DEPOSITION ON
N3950 Y202.961 F508
N3955 ; DEPOSITION OFF
N3960 G0 Z22
N3965 X108.279 Y147.081
N3970 Z20
N3975 G1 Z18 F2000
N3980 ; DEPOSITION ON
N3985 Y202.961 F508
N3990 ; LAYER 10  END
N3995 ; DEPOSITION OFF
N4000 G0 Z24
N4005 X89.179 Y147.081
N4010 Z22
N4015 G1 Z20 F2000
N4020 ; LAYER 11 START
N4025 ; DEPOSITION ON
N4030 Y202.961 F508
N4035 ; DEPOSITION OFF
N4040 G0 Z24
N4045 X85.819 Y147.081
N4050 Z22
N4055 G1 Z20 F2000
N4060 ; DEPOSITION ON
N4065 Y202.961 F508
N4070 ; DEPOSITION OFF
N4075 G0 Z24
N4080 X82.459 Y147.081
N4085 Z22
N4090 G1 Z20 F2000
N4095 ; DEPOSITION ON
N4100 Y202.961 F508
N4105 ; DEPOSITION OFF
N4110 G0 Z24
N4115 X79.099 Y147.081
N4120 Z22
N4125 G1 Z20 F2000
N4130 ; DEPOSITION ON
N4135 Y202.961 F508
N4140 ; DEPOSITION OFF
N4145 G0 Z24
N4150 X75.739 Y147.081
N4155 Z22
N4160 G1 Z20 F2000
N4165 ; DEPOSITION ON
N4170 Y202.961 F508
N4175 ; DEPOSITION OFF
N4180 G0 Z24
N4185 X72.379 Y147.081
N4190 Z22
N4195 G1 Z20 F2000
N4200 ; DEPOSITION ON
N4205 Y202.961 F508
N4210 ; DEPOSITION OFF
N4215 G0 Z24
N4220 X69.019 Y147.081
N4225 Z22
N4230 G1 Z20 F2000
N4235 ; DEPOSITION ON
N4240 Y202.961 F508
N4245 ; DEPOSITION OFF
N4250 G0 Z24
N4255 X127.439 Y147.081
N4260 Z22
N4265 G1 Z20 F2000
N4270 ; DEPOSITION ON
N4275 Y202.961 F508
N4280 ; DEPOSITION OFF
N4285 G0 Z24
N4290 X124.079 Y147.081
N4295 Z22
N4300 G1 Z20 F2000
N4305 ; DEPOSITION ON
N4310 Y202.961 F508
N4315 ; DEPOSITION OFF
N4320 G0 Z24
N4325 X120.719 Y147.081
N4330 Z22
N4335 G1 Z20 F2000
N4340 ; DEPOSITION ON
N4345 Y202.961 F508
N4350 ; DEPOSITION OFF
N4355 G0 Z24
N4360 X117.359 Y147.081
N4365 Z22
N4370 G1 Z20 F2000
N4375 ; DEPOSITION ON
N4380 Y202.961 F508
N4385 ; DEPOSITION OFF
N4390 G0 Z24
N4395 X113.999 Y147.081
N4400 Z22
N4405 G1 Z20 F2000
N4410 ; DEPOSITION ON
N4415 Y202.961 F508
N4420 ; DEPOSITION OFF
N4425 G0 Z24
N4430 X110.639 Y147.081
N4435 Z22
N4440 G1 Z20 F2000
N4445 ; DEPOSITION ON
N4450 Y202.961 F508
N4455 ; DEPOSITION OFF
N4460 G0 Z24
N4465 X107.279 Y147.081
N4470 Z22
N4475 G1 Z20 F2000
N4480 ; DEPOSITION ON
N4485 Y202.961 F508
N4490 ; LAYER 11  END
N4495 ; DEPOSITION OFF
N4500 G0 Z26
N4505 X90.179 Y147.081
N4510 Z24
N4515 G1 Z22 F2000
N4520 ; LAYER 12 START
N4525 ; DEPOSITION ON
N4530 Y202.961 F508
N4535 ; DEPOSITION OFF
N4540 G0 Z26
N4545 X86.652 Y147.081
N4550 Z24
N4555 G1 Z22 F2000
N4560 ; DEPOSITION ON
N4565 Y202.961 F508
N4570 ; DEPOSITION OFF
N4575 G0 Z26
N4580 X83.126 Y147.081
N4585 Z24
N4590 G1 Z22 F2000
N4595 ; DEPOSITION ON
N4600 Y202.961 F508
N4605 ; DEPOSITION OFF
N4610 G0 Z26
N4615 X79.599 Y147.081
N4620 Z24
N4625 G1 Z22 F2000
N4630 ; DEPOSITION ON
N4635 Y202.961 F508
N4640 ; DEPOSITION OFF
N4645 G0 Z26
N4650 X76.073 Y147.081
N4655 Z24
N4660 G1 Z22 F2000
N4665 ; DEPOSITION ON
N4670 Y202.961 F508
N4675 ; DEPOSITION OFF
N4680 G0 Z26
N4685 X72.546 Y147.081
N4690 Z24
N4695 G1 Z22 F2000
N4700 ; DEPOSITION ON
N4705 Y202.961 F508
N4710 ; DEPOSITION OFF
N4715 G0 Z26
N4720 X69.019 Y147.081
N4725 Z24
N4730 G1 Z22 F2000
N4735 ; DEPOSITION ON
N4740 Y202.961 F508
N4745 ; DEPOSITION OFF
N4750 G0 Z26
N4755 X127.439 Y147.081
N4760 Z24
N4765 G1 Z22 F2000
N4770 ; DEPOSITION ON
N4775 Y202.961 F508
N4780 ; DEPOSITION OFF
N4785 G0 Z26
N4790 X123.912 Y147.081
N4795 Z24
N4800 G1 Z22 F2000
N4805 ; DEPOSITION ON
N4810 Y202.961 F508
N4815 ; DEPOSITION OFF
N4820 G0 Z26
N4825 X120.386 Y147.081
N4830 Z24
N4835 G1 Z22 F2000
N4840 ; DEPOSITION ON
N4845 Y202.961 F508
N4850 ; DEPOSITION OFF
N4855 G0 Z26
N4860 X116.859 Y147.081
N4865 Z24
N4870 G1 Z22 F2000
N4875 ; DEPOSITION ON
N4880 Y202.961 F508
N4885 ; DEPOSITION OFF
N4890 G0 Z26
N4895 X113.333 Y147.081
N4900 Z24
N4905 G1 Z22 F2000
N4910 ; DEPOSITION ON
N4915 Y202.961 F508
N4920 ; DEPOSITION OFF
N4925 G0 Z26
N4930 X109.806 Y147.081
N4935 Z24
N4940 G1 Z22 F2000
N4945 ; DEPOSITION ON
N4950 Y202.961 F508
N4955 ; DEPOSITION OFF
N4960 G0 Z26
N4965 X106.279 Y147.081
N4970 Z24
N4975 G1 Z22 F2000
N4980 ; DEPOSITION ON
N4985 Y202.961 F508
N4990 ; LAYER 12  END
N4995 ; DEPOSITION OFF
N5000 G0 Z28
N5005 X91.179 Y147.081
N5010 Z26
N5015 G1 Z24 F2000
N5020 ; LAYER 13 START
N5025 ; DEPOSITION ON
N5030 Y202.961 F508
N5035 ; DEPOSITION OFF
N5040 G0 Z28
N5045 X88.013 Y147.081
N5050 Z26
N5055 G1 Z24 F2000
N5060 ; DEPOSITION ON
N5065 Y202.961 F508
N5070 ; DEPOSITION OFF
N5075 G0 Z28
N5080 X84.848 Y147.081
N5085 Z26
N5090 G1 Z24 F2000
N5095 ; DEPOSITION ON
N5100 Y202.961 F508
N5105 ; DEPOSITION OFF
N5110 G0 Z28
N5115 X81.682 Y147.081
N5120 Z26
N5125 G1 Z24 F2000
N5130 ; DEPOSITION ON
N5135 Y202.961 F508
N5140 ; DEPOSITION OFF
N5145 G0 Z28
N5150 X78.516 Y147.081
N5155 Z26
N5160 G1 Z24 F2000
N5165 ; DEPOSITION ON
N5170 Y202.961 F508
N5175 ; DEPOSITION OFF
N5180 G0 Z28
N5185 X75.351 Y147.081
N5190 Z26
N5195 G1 Z24 F2000
N5200 ; DEPOSITION ON
N5205 Y202.961 F508
N5210 ; DEPOSITION OFF
N5215 G0 Z28
N5220 X72.185 Y147.081
N5225 Z26
N5230 G1 Z24 F2000
N5235 ; DEPOSITION ON
N5240 Y202.961 F508
N5245 ; DEPOSITION OFF
N5250 G0 Z28
N5255 X69.019 Y147.081
N5260 Z26
N5265 G1 Z24 F2000
N5270 ; DEPOSITION ON
N5275 Y202.961 F508
N5280 ; DEPOSITION OFF
N5285 G0 Z28
N5290 X127.439 Y147.081
N5295 Z26
N5300 G1 Z24 F2000
N5305 ; DEPOSITION ON
N5310 Y202.961 F508
N5315 ; DEPOSITION OFF
N5320 G0 Z28
N5325 X124.273 Y147.081
N5330 Z26
N5335 G1 Z24 F2000
N5340 ; DEPOSITION ON
N5345 Y202.961 F508
N5350 ; DEPOSITION OFF
N5355 G0 Z28
N5360 X121.108 Y147.081
N5365 Z26
N5370 G1 Z24 F2000
N5375 ; DEPOSITION ON
N5380 Y202.961 F508
N5385 ; DEPOSITION OFF
N5390 G0 Z28
N5395 X117.942 Y147.081
N5400 Z26
N5405 G1 Z24 F2000
N5410 ; DEPOSITION ON
N5415 Y202.961 F508
N5420 ; DEPOSITION OFF
N5425 G0 Z28
N5430 X114.776 Y147.081
N5435 Z26
N5440 G1 Z24 F2000
N5445 ; DEPOSITION ON
N5450 Y202.961 F508
N5455 ; DEPOSITION OFF
N5460 G0 Z28
N5465 X111.611 Y147.081
N5470 Z26
N5475 G1 Z24 F2000
N5480 ; DEPOSITION ON
N5485 Y202.961 F508
N5490 ; DEPOSITION OFF
N5495 G0 Z28
N5500 X108.445 Y147.081
N5505 Z26
N5510 G1 Z24 F2000
N5515 ; DEPOSITION ON
N5520 Y202.961 F508
N5525 ; DEPOSITION OFF
N5530 G0 Z28
N5535 X105.279 Y147.081
N5540 Z26
N5545 G1 Z24 F2000
N5550 ; DEPOSITION ON
N5555 Y202.961 F508
N5560 ; LAYER 13  END
N5565 ; DEPOSITION OFF
N5570 G0 Z30
N5575 X92.179 Y147.081
N5580 Z28
N5585 G1 Z26 F2000
N5590 ; LAYER 14 START
N5595 ; DEPOSITION ON
N5600 Y202.961 F508
N5605 ; DEPOSITION OFF
N5610 G0 Z30
N5615 X88.871 Y147.081
N5620 Z28
N5625 G1 Z26 F2000
N5630 ; DEPOSITION ON
N5635 Y202.961 F508
N5640 ; DEPOSITION OFF
N5645 G0 Z30
N5650 X85.562 Y147.081
N5655 Z28
N5660 G1 Z26 F2000
N5665 ; DEPOSITION ON
N5670 Y202.961 F508
N5675 ; DEPOSITION OFF
N5680 G0 Z30
N5685 X82.253 Y147.081
N5690 Z28
N5695 G1 Z26 F2000
N5700 ; DEPOSITION ON
N5705 Y202.961 F508
N5710 ; DEPOSITION OFF
N5715 G0 Z30
N5720 X78.945 Y147.081
N5725 Z28
N5730 G1 Z26 F2000
N5735 ; DEPOSITION ON
N5740 Y202.961 F508
N5745 ; DEPOSITION OFF
N5750 G0 Z30
N5755 X75.636 Y147.081
N5760 Z28
N5765 G1 Z26 F2000
N5770 ; DEPOSITION ON
N5775 Y202.961 F508
N5780 ; DEPOSITION OFF
N5785 G0 Z30
N5790 X72.328 Y147.081
N5795 Z28
N5800 G1 Z26 F2000
N5805 ; DEPOSITION ON
N5810 Y202.961 F508
N5815 ; DEPOSITION OFF
N5820 G0 Z30
N5825 X69.019 Y147.081
N5830 Z28
N5835 G1 Z26 F2000
N5840 ; DEPOSITION ON
N5845 Y202.961 F508
N5850 ; DEPOSITION OFF
N5855 G0 Z30
N5860 X127.439 Y147.081
N5865 Z28
N5870 G1 Z26 F2000
N5875 ; DEPOSITION ON
N5880 Y202.961 F508
N5885 ; DEPOSITION OFF
N5890 G0 Z30
N5895 X124.131 Y147.081
N5900 Z28
N5905 G1 Z26 F2000
N5910 ; DEPOSITION ON
N5915 Y202.961 F508
N5920 ; DEPOSITION OFF
N5925 G0 Z30
N5930 X120.822 Y147.081
N5935 Z28
N5940 G1 Z26 F2000
N5945 ; DEPOSITION ON
N5950 Y202.961 F508
N5955 ; DEPOSITION OFF
N5960 G0 Z30
N5965 X117.513 Y147.081
N5970 Z28
N5975 G1 Z26 F2000
N5980 ; DEPOSITION ON
N5985 Y202.961 F508
N5990 ; DEPOSITION OFF
N5995 G0 Z30
N6000 X114.205 Y147.081
N6005 Z28
N6010 G1 Z26 F2000
N6015 ; DEPOSITION ON
N6020 Y202.961 F508
N6025 ; DEPOSITION OFF
N6030 G0 Z30
N6035 X110.896 Y147.081
N6040 Z28
N6045 G1 Z26 F2000
N6050 ; DEPOSITION ON
N6055 Y202.961 F508
N6060 ; DEPOSITION OFF
N6065 G0 Z30
N6070 X107.588 Y147.081
N6075 Z28
N6080 G1 Z26 F2000
N6085 ; DEPOSITION ON
N6090 Y202.961 F508
N6095 ; DEPOSITION OFF
N6100 G0 Z30
N6105 X104.279 Y147.081
N6110 Z28
N6115 G1 Z26 F2000
N6120 ; DEPOSITION ON
N6125 Y202.961 F508
N6130 ; LAYER 14  END
N6135 ; DEPOSITION OFF
N6140 G0 Z32
N6145 X93.179 Y147.081
N6150 Z30
N6155 G1 Z28 F2000
N6160 ; LAYER 15 START
N6165 ; DEPOSITION ON
N6170 Y202.961 F508
N6175 ; DEPOSITION OFF
N6180 G0 Z32
N6185 X89.728 Y147.081
N6190 Z30
N6195 G1 Z28 F2000
N6200 ; DEPOSITION ON
N6205 Y202.961 F508
N6210 ; DEPOSITION OFF
N6215 G0 Z32
N6220 X86.276 Y147.081
N6225 Z30
N6230 G1 Z28 F2000
N6235 ; DEPOSITION ON
N6240 Y202.961 F508
N6245 ; DEPOSITION OFF
N6250 G0 Z32
N6255 X82.825 Y147.081
N6260 Z30
N6265 G1 Z28 F2000
N6270 ; DEPOSITION ON
N6275 Y202.961 F508
N6280 ; DEPOSITION OFF
N6285 G0 Z32
N6290 X79.373 Y147.081
N6295 Z30
N6300 G1 Z28 F2000
N6305 ; DEPOSITION ON
N6310 Y202.961 F508
N6315 ; DEPOSITION OFF
N6320 G0 Z32
N6325 X75.922 Y147.081
N6330 Z30
N6335 G1 Z28 F2000
N6340 ; DEPOSITION ON
N6345 Y202.961 F508
N6350 ; DEPOSITION OFF
N6355 G0 Z32
N6360 X72.471 Y147.081
N6365 Z30
N6370 G1 Z28 F2000
N6375 ; DEPOSITION ON
N6380 Y202.961 F508
N6385 ; DEPOSITION OFF
N6390 G0 Z32
N6395 X69.019 Y147.081
N6400 Z30
N6405 G1 Z28 F2000
N6410 ; DEPOSITION ON
N6415 Y202.961 F508
N6420 ; DEPOSITION OFF
N6425 G0 Z32
N6430 X127.439 Y147.081
N6435 Z30
N6440 G1 Z28 F2000
N6445 ; DEPOSITION ON
N6450 Y202.961 F508
N6455 ; DEPOSITION OFF
N6460 G0 Z32
N6465 X123.988 Y147.081
N6470 Z30
N6475 G1 Z28 F2000
N6480 ; DEPOSITION ON
N6485 Y202.961 F508
N6490 ; DEPOSITION OFF
N6495 G0 Z32
N6500 X120.536 Y147.081
N6505 Z30
N6510 G1 Z28 F2000
N6515 ; DEPOSITION ON
N6520 Y202.961 F508
N6525 ; DEPOSITION OFF
N6530 G0 Z32
N6535 X117.085 Y147.081
N6540 Z30
N6545 G1 Z28 F2000
N6550 ; DEPOSITION ON
N6555 Y202.961 F508
N6560 ; DEPOSITION OFF
N6565 G0 Z32
N6570 X113.633 Y147.081
N6575 Z30
N6580 G1 Z28 F2000
N6585 ; DEPOSITION ON
N6590 Y202.961 F508
N6595 ; DEPOSITION OFF
N6600 G0 Z32
N6605 X110.182 Y147.081
N6610 Z30
N6615 G1 Z28 F2000
N6620 ; DEPOSITION ON
N6625 Y202.961 F508
N6630 ; DEPOSITION OFF
N6635 G0 Z32
N6640 X106.731 Y147.081
N6645 Z30
N6650 G1 Z28 F2000
N6655 ; DEPOSITION ON
N6660 Y202.961 F508
N6665 ; DEPOSITION OFF
N6670 G0 Z32
N6675 X103.279 Y147.081
N6680 Z30
N6685 G1 Z28 F2000
N6690 ; DEPOSITION ON
N6695 Y202.961 F508
N6700 ; LAYER 15  END
N6705 ; DEPOSITION OFF
N6710 G0 Z34
N6715 X94.179 Y147.081
N6720 Z32
N6725 G1 Z30 F2000
N6730 ; LAYER 16 START
N6735 ; DEPOSITION ON
N6740 Y202.961 F508
N6745 ; DEPOSITION OFF
N6750 G0 Z34
N6755 X91.034 Y147.081
N6760 Z32
N6765 G1 Z30 F2000
N6770 ; DEPOSITION ON
N6775 Y202.961 F508
N6780 ; DEPOSITION OFF
N6785 G0 Z34
N6790 X87.889 Y147.081
N6795 Z32
N6800 G1 Z30 F2000
N6805 ; DEPOSITION ON
N6810 Y202.961 F508
N6815 ; DEPOSITION OFF
N6820 G0 Z34
N6825 X84.744 Y147.081
N6830 Z32
N6835 G1 Z30 F2000
N6840 ; DEPOSITION ON
N6845 Y202.961 F508
N6850 ; DEPOSITION OFF
N6855 G0 Z34
N6860 X81.599 Y147.081
N6865 Z32
N6870 G1 Z30 F2000
N6875 ; DEPOSITION ON
N6880 Y202.961 F508
N6885 ; DEPOSITION OFF
N6890 G0 Z34
N6895 X78.454 Y147.081
N6900 Z32
N6905 G1 Z30 F2000
N6910 ; DEPOSITION ON
N6915 Y202.961 F508
N6920 ; DEPOSITION OFF
N6925 G0 Z34
N6930 X75.309 Y147.081
N6935 Z32
N6940 G1 Z30 F2000
N6945 ; DEPOSITION ON
N6950 Y202.961 F508
N6955 ; DEPOSITION OFF
N6960 G0 Z34
N6965 X72.164 Y147.081
N6970 Z32
N6975 G1 Z30 F2000
N6980 ; DEPOSITION ON
N6985 Y202.961 F508
N6990 ; DEPOSITION OFF
N6995 G0 Z34
N7000 X69.019 Y147.081
N7005 Z32
N7010 G1 Z30 F2000
N7015 ; DEPOSITION ON
N7020 Y202.961 F508
N7025 ; DEPOSITION OFF
N7030 G0 Z34
N7035 X127.439 Y147.081
N7040 Z32
N7045 G1 Z30 F2000
N7050 ; DEPOSITION ON
N7055 Y202.961 F508
N7060 ; DEPOSITION OFF
N7065 G0 Z34
N7070 X124.294 Y147.081
N7075 Z32
N7080 G1 Z30 F2000
N7085 ; DEPOSITION ON
N7090 Y202.961 F508
N7095 ; DEPOSITION OFF
N7100 G0 Z34
N7105 X121.149 Y147.081
N7110 Z32
N7115 G1 Z30 F2000
N7120 ; DEPOSITION ON
N7125 Y202.961 F508
N7130 ; DEPOSITION OFF
N7135 G0 Z34
N7140 X118.004 Y147.081
N7145 Z32
N7150 G1 Z30 F2000
N7155 ; DEPOSITION ON
N7160 Y202.961 F508
N7165 ; DEPOSITION OFF
N7170 G0 Z34
N7175 X114.859 Y147.081
N7180 Z32
N7185 G1 Z30 F2000
N7190 ; DEPOSITION ON
N7195 Y202.961 F508
N7200 ; DEPOSITION OFF
N7205 G0 Z34
N7210 X111.714 Y147.081
N7215 Z32
N7220 G1 Z30 F2000
N7225 ; DEPOSITION ON
N7230 Y202.961 F508
N7235 ; DEPOSITION OFF
N7240 G0 Z34
N7245 X108.569 Y147.081
N7250 Z32
N7255 G1 Z30 F2000
N7260 ; DEPOSITION ON
N7265 Y202.961 F508
N7270 ; DEPOSITION OFF
N7275 G0 Z34
N7280 X105.424 Y147.081
N7285 Z32
N7290 G1 Z30 F2000
N7295 ; DEPOSITION ON
N7300 Y202.961 F508
N7305 ; DEPOSITION OFF
N7310 G0 Z34
N7315 X102.279 Y147.081
N7320 Z32
N7325 G1 Z30 F2000
N7330 ; DEPOSITION ON
N7335 Y202.961 F508
N7340 ; LAYER 16  END
N7345 ; DEPOSITION OFF
N7350 G0 Z36
N7355 X95.179 Y147.081
N7360 Z34
N7365 G1 Z32 F2000
N7370 ; LAYER 17 START
N7375 ; DEPOSITION ON
N7380 Y202.961 F508
N7385 ; DEPOSITION OFF
N7390 G0 Z36
N7395 X91.909 Y147.081
N7400 Z34
N7405 G1 Z32 F2000
N7410 ; DEPOSITION ON
N7415 Y202.961 F508
N7420 ; DEPOSITION OFF
N7425 G0 Z36
N7430 X88.639 Y147.081
N7435 Z34
N7440 G1 Z32 F2000
N7445 ; DEPOSITION ON
N7450 Y202.961 F508
N7455 ; DEPOSITION OFF
N7460 G0 Z36
N7465 X85.369 Y147.081
N7470 Z34
N7475 G1 Z32 F2000
N7480 ; DEPOSITION ON
N7485 Y202.961 F508
N7490 ; DEPOSITION OFF
N7495 G0 Z36
N7500 X82.099 Y147.081
N7505 Z34
N7510 G1 Z32 F2000
N7515 ; DEPOSITION ON
N7520 Y202.961 F508
N7525 ; DEPOSITION OFF
N7530 G0 Z36
N7535 X78.829 Y147.081
N7540 Z34
N7545 G1 Z32 F2000
N7550 ; DEPOSITION ON
N7555 Y202.961 F508
N7560 ; DEPOSITION OFF
N7565 G0 Z36
N7570 X75.559 Y147.081
N7575 Z34
N7580 G1 Z32 F2000
N7585 ; DEPOSITION ON
N7590 Y202.961 F508
N7595 ; DEPOSITION OFF
N7600 G0 Z36
N7605 X72.289 Y147.081
N7610 Z34
N7615 G1 Z32 F2000
N7620 ; DEPOSITION ON
N7625 Y202.961 F508
N7630 ; DEPOSITION OFF
N7635 G0 Z36
N7640 X69.019 Y147.081
N7645 Z34
N7650 G1 Z32 F2000
N7655 ; DEPOSITION ON
N7660 Y202.961 F508
N7665 ; DEPOSITION OFF
N7670 G0 Z36
N7675 X127.439 Y147.081
N7680 Z34
N7685 G1 Z32 F2000
N7690 ; DEPOSITION ON
N7695 Y202.961 F508
N7700 ; DEPOSITION OFF
N7705 G0 Z36
N7710 X124.169 Y147.081
N7715 Z34
N7720 G1 Z32 F2000
N7725 ; DEPOSITION ON
N7730 Y202.961 F508
N7735 ; DEPOSITION OFF
N7740 G0 Z36
N7745 X120.899 Y147.081
N7750 Z34
N7755 G1 Z32 F2000
N7760 ; DEPOSITION ON
N7765 Y202.961 F508
N7770 ; DEPOSITION OFF
N7775 G0 Z36
N7780 X117.629 Y147.081
N7785 Z34
N7790 G1 Z32 F2000
N7795 ; DEPOSITION ON
N7800 Y202.961 F508
N7805 ; DEPOSITION OFF
N7810 G0 Z36
N7815 X114.359 Y147.081
N7820 Z34
N7825 G1 Z32 F2000
N7830 ; DEPOSITION ON
N7835 Y202.961 F508
N7840 ; DEPOSITION OFF
N7845 G0 Z36
N7850 X111.089 Y147.081
N7855 Z34
N7860 G1 Z32 F2000
N7865 ; DEPOSITION ON
N7870 Y202.961 F508
N7875 ; DEPOSITION OFF
N7880 G0 Z36
N7885 X107.819 Y147.081
N7890 Z34
N7895 G1 Z32 F2000
N7900 ; DEPOSITION ON
N7905 Y202.961 F508
N7910 ; DEPOSITION OFF
N7915 G0 Z36
N7920 X104.549 Y147.081
N7925 Z34
N7930 G1 Z32 F2000
N7935 ; DEPOSITION ON
N7940 Y202.961 F508
N7945 ; DEPOSITION OFF
N7950 G0 Z36
N7955 X101.279 Y147.081
N7960 Z34
N7965 G1 Z32 F2000
N7970 ; DEPOSITION ON
N7975 Y202.961 F508
N7980 ; LAYER 17  END
N7985 ; DEPOSITION OFF
N7990 G0 Z38
N7995 X96.179 Y147.081
N8000 Z36
N8005 G1 Z34 F2000
N8010 ; LAYER 18 START
N8015 ; DEPOSITION ON
N8020 Y202.961 F508
N8025 ; DEPOSITION OFF
N8030 G0 Z38
N8035 X92.784 Y147.081
N8040 Z36
N8045 G1 Z34 F2000
N8050 ; DEPOSITION ON
N8055 Y202.961 F508
N8060 ; DEPOSITION OFF
N8065 G0 Z38
N8070 X89.389 Y147.081
N8075 Z36
N8080 G1 Z34 F2000
N8085 ; DEPOSITION ON
N8090 Y202.961 F508
N8095 ; DEPOSITION OFF
N8100 G0 Z38
N8105 X85.994 Y147.081
N8110 Z36
N8115 G1 Z34 F2000
N8120 ; DEPOSITION ON
N8125 Y202.961 F508
N8130 ; DEPOSITION OFF
N8135 G0 Z38
N8140 X82.599 Y147.081
N8145 Z36
N8150 G1 Z34 F2000
N8155 ; DEPOSITION ON
N8160 Y202.961 F508
N8165 ; DEPOSITION OFF
N8170 G0 Z38
N8175 X79.204 Y147.081
N8180 Z36
N8185 G1 Z34 F2000
N8190 ; DEPOSITION ON
N8195 Y202.961 F508
N8200 ; DEPOSITION OFF
N8205 G0 Z38
N8210 X75.809 Y147.081
N8215 Z36
N8220 G1 Z34 F2000
N8225 ; DEPOSITION ON
N8230 Y202.961 F508
N8235 ; DEPOSITION OFF
N8240 G0 Z38
N8245 X72.414 Y147.081
N8250 Z36
N8255 G1 Z34 F2000
N8260 ; DEPOSITION ON
N8265 Y202.961 F508
N8270 ; DEPOSITION OFF
N8275 G0 Z38
N8280 X69.019 Y147.081
N8285 Z36
N8290 G1 Z34 F2000
N8295 ; DEPOSITION ON
N8300 Y202.961 F508
N8305 ; DEPOSITION OFF
N8310 G0 Z38
N8315 X127.439 Y147.081
N8320 Z36
N8325 G1 Z34 F2000
N8330 ; DEPOSITION ON
N8335 Y202.961 F508
N8340 ; DEPOSITION OFF
N8345 G0 Z38
N8350 X124.044 Y147.081
N8355 Z36
N8360 G1 Z34 F2000
N8365 ; DEPOSITION ON
N8370 Y202.961 F508
N8375 ; DEPOSITION OFF
N8380 G0 Z38
N8385 X120.649 Y147.081
N8390 Z36
N8395 G1 Z34 F2000
N8400 ; DEPOSITION ON
N8405 Y202.961 F508
N8410 ; DEPOSITION OFF
N8415 G0 Z38
N8420 X117.254 Y147.081
N8425 Z36
N8430 G1 Z34 F2000
N8435 ; DEPOSITION ON
N8440 Y202.961 F508
N8445 ; DEPOSITION OFF
N8450 G0 Z38
N8455 X113.859 Y147.081
N8460 Z36
N8465 G1 Z34 F2000
N8470 ; DEPOSITION ON
N8475 Y202.961 F508
N8480 ; DEPOSITION OFF
N8485 G0 Z38
N8490 X110.464 Y147.081
N8495 Z36
N8500 G1 Z34 F2000
N8505 ; DEPOSITION ON
N8510 Y202.961 F508
N8515 ; DEPOSITION OFF
N8520 G0 Z38
N8525 X107.069 Y147.081
N8530 Z36
N8535 G1 Z34 F2000
N8540 ; DEPOSITION ON
N8545 Y202.961 F508
N8550 ; DEPOSITION OFF
N8555 G0 Z38
N8560 X103.674 Y147.081
N8565 Z36
N8570 G1 Z34 F2000
N8575 ; DEPOSITION ON
N8580 Y202.961 F508
N8585 ; DEPOSITION OFF
N8590 G0 Z38
N8595 X100.279 Y147.081
N8600 Z36
N8605 G1 Z34 F2000
N8610 ; DEPOSITION ON
N8615 Y202.961 F508
N8620 ; LAYER 18  END
N8625 ; DEPOSITION OFF
N8630 G0 Z40
N8635 X97.179 Y147.081
N8640 Z38
N8645 G1 Z36 F2000
N8650 ; LAYER 19 START
N8655 ; DEPOSITION ON
N8660 Y202.961 F508
N8665 ; DEPOSITION OFF
N8670 G0 Z40
N8675 X93.659 Y147.081
N8680 Z38
N8685 G1 Z36 F2000
N8690 ; DEPOSITION ON
N8695 Y202.961 F508
N8700 ; DEPOSITION OFF
N8705 G0 Z40
N8710 X90.139 Y147.081
N8715 Z38
N8720 G1 Z36 F2000
N8725 ; DEPOSITION ON
N8730 Y202.961 F508
N8735 ; DEPOSITION OFF
N8740 G0 Z40
N8745 X86.619 Y147.081
N8750 Z38
N8755 G1 Z36 F2000
N8760 ; DEPOSITION ON
N8765 Y202.961 F508
N8770 ; DEPOSITION OFF
N8775 G0 Z40
N8780 X83.099 Y147.081
N8785 Z38
N8790 G1 Z36 F2000
N8795 ; DEPOSITION ON
N8800 Y202.961 F508
N8805 ; DEPOSITION OFF
N8810 G0 Z40
N8815 X79.579 Y147.081
N8820 Z38
N8825 G1 Z36 F2000
N8830 ; DEPOSITION ON
N8835 Y202.961 F508
N8840 ; DEPOSITION OFF
N8845 G0 Z40
N8850 X76.059 Y147.081
N8855 Z38
N8860 G1 Z36 F2000
N8865 ; DEPOSITION ON
N8870 Y202.961 F508
N8875 ; DEPOSITION OFF
N8880 G0 Z40
N8885 X72.539 Y147.081
N8890 Z38
N8895 G1 Z36 F2000
N8900 ; DEPOSITION ON
N8905 Y202.961 F508
N8910 ; DEPOSITION OFF
N8915 G0 Z40
N8920 X69.019 Y147.081
N8925 Z38
N8930 G1 Z36 F2000
N8935 ; DEPOSITION ON
N8940 Y202.961 F508
N8945 ; DEPOSITION OFF
N8950 G0 Z40
N8955 X127.439 Y147.081
N8960 Z38
N8965 G1 Z36 F2000
N8970 ; DEPOSITION ON
N8975 Y202.961 F508
N8980 ; DEPOSITION OFF
N8985 G0 Z40
N8990 X123.919 Y147.081
N8995 Z38
N9000 G1 Z36 F2000
N9005 ; DEPOSITION ON
N9010 Y202.961 F508
N9015 ; DEPOSITION OFF
N9020 G0 Z40
N9025 X120.399 Y147.081
N9030 Z38
N9035 G1 Z36 F2000
N9040 ; DEPOSITION ON
N9045 Y202.961 F508
N9050 ; DEPOSITION OFF
N9055 G0 Z40
N9060 X116.879 Y147.081
N9065 Z38
N9070 G1 Z36 F2000
N9075 ; DEPOSITION ON
N9080 Y202.961 F508
N9085 ; DEPOSITION OFF
N9090 G0 Z40
N9095 X113.359 Y147.081
N9100 Z38
N9105 G1 Z36 F2000
N9110 ; DEPOSITION ON
N9115 Y202.961 F508
N9120 ; DEPOSITION OFF
N9125 G0 Z40
N9130 X109.839 Y147.081
N9135 Z38
N9140 G1 Z36 F2000
N9145 ; DEPOSITION ON
N9150 Y202.961 F508
N9155 ; DEPOSITION OFF
N9160 G0 Z40
N9165 X106.319 Y147.081
N9170 Z38
N9175 G1 Z36 F2000
N9180 ; DEPOSITION ON
N9185 Y202.961 F508
N9190 ; DEPOSITION OFF
N9195 G0 Z40
N9200 X102.799 Y147.081
N9205 Z38
N9210 G1 Z36 F2000
N9215 ; DEPOSITION ON
N9220 Y202.961 F508
N9225 ; DEPOSITION OFF
N9230 G0 Z40
N9235 X99.279 Y147.081
N9240 Z38
N9245 G1 Z36 F2000
N9250 ; DEPOSITION ON
N9255 Y202.961 F508
N9260 ; LAYER 19  END
N9265 ; DEPOSITION OFF
N9270 G0 Z42
N9275 X127.439 Y147.081
N9280 Z40
N9285 G1 Z38 F2000
N9290 ; LAYER 20 START
N9295 ; DEPOSITION ON
N9300 Y202.961 F508
N9305 ; DEPOSITION OFF
N9310 G0 Z42
N9315 X124.003 Y147.081
N9320 Z40
N9325 G1 Z38 F2000
N9330 ; DEPOSITION ON
N9335 Y202.961 F508
N9340 ; DEPOSITION OFF
N9345 G0 Z42
N9350 X120.566 Y147.081
N9355 Z40
N9360 G1 Z38 F2000
N9365 ; DEPOSITION ON
N9370 Y202.961 F508
N9375 ; DEPOSITION OFF
N9380 G0 Z42
N9385 X117.13 Y147.081
N9390 Z40
N9395 G1 Z38 F2000
N9400 ; DEPOSITION ON
N9405 Y202.961 F508
N9410 ; DEPOSITION OFF
N9415 G0 Z42
N9420 X113.693 Y147.081
N9425 Z40
N9430 G1 Z38 F2000
N9435 ; DEPOSITION ON
N9440 Y202.961 F508
N9445 ; DEPOSITION OFF
N9450 G0 Z42
N9455 X110.257 Y147.081
N9460 Z40
N9465 G1 Z38 F2000
N9470 ; DEPOSITION ON
N9475 Y202.961 F508
N9480 ; DEPOSITION OFF
N9485 G0 Z42
N9490 X106.82 Y147.081
N9495 Z40
N9500 G1 Z38 F2000
N9505 ; DEPOSITION ON
N9510 Y202.961 F508
N9515 ; DEPOSITION OFF
N9520 G0 Z42
N9525 X103.384 Y147.081
N9530 Z40
N9535 G1 Z38 F2000
N9540 ; DEPOSITION ON
N9545 Y202.961 F508
N9550 ; DEPOSITION OFF
N9555 G0 Z42
N9560 X99.947 Y147.081
N9565 Z40
N9570 G1 Z38 F2000
N9575 ; DEPOSITION ON
N9580 Y202.961 F508
N9585 ; DEPOSITION OFF
N9590 G0 Z42
N9595 X96.511 Y147.081
N9600 Z40
N9605 G1 Z38 F2000
N9610 ; DEPOSITION ON
N9615 Y202.961 F508
N9620 ; DEPOSITION OFF
N9625 G0 Z42
N9630 X93.074 Y147.081
N9635 Z40
N9640 G1 Z38 F2000
N9645 ; DEPOSITION ON
N9650 Y202.961 F508
N9655 ; DEPOSITION OFF
N9660 G0 Z42
N9665 X89.638 Y147.081
N9670 Z40
N9675 G1 Z38 F2000
N9680 ; DEPOSITION ON
N9685 Y202.961 F508
N9690 ; DEPOSITION OFF
N9695 G0 Z42
N9700 X86.202 Y147.081
N9705 Z40
N9710 G1 Z38 F2000
N9715 ; DEPOSITION ON
N9720 Y202.961 F508
N9725 ; DEPOSITION OFF
N9730 G0 Z42
N9735 X82.765 Y147.081
N9740 Z40
N9745 G1 Z38 F2000
N9750 ; DEPOSITION ON
N9755 Y202.961 F508
N9760 ; DEPOSITION OFF
N9765 G0 Z42
N9770 X79.329 Y147.081
N9775 Z40
N9780 G1 Z38 F2000
N9785 ; DEPOSITION ON
N9790 Y202.961 F508
N9795 ; DEPOSITION OFF
N9800 G0 Z42
N9805 X75.892 Y147.081
N9810 Z40
N9815 G1 Z38 F2000
N9820 ; DEPOSITION ON
N9825 Y202.961 F508
N9830 ; DEPOSITION OFF
N9835 G0 Z42
N9840 X72.456 Y147.081
N9845 Z40
N9850 G1 Z38 F2000
N9855 ; DEPOSITION ON
N9860 Y202.961 F508
N9865 ; DEPOSITION OFF
N9870 G0 Z42
N9875 X69.019 Y147.081
N9880 Z40
N9885 G1 Z38 F2000
N9890 ; DEPOSITION ON
N9895 Y202.961 F508
N9900 ; LAYER 20  END
N9905 ; DEPOSITION OFF
N9910 G0 Z53.1
N9915 M5
N9920 #MCS OFF
N9925 G0 G53 Z0
N9930 X0 Y0
N9935 A0. C0.
N9940 M30
