deposittest11
N10 ; MACHINE
N15 ;   VENDOR AUTODESK
N20 ;   MODEL GENERIC DED
N25 ;   DESCRIPTION GENERIC DIRECT ENERGY DEPOSITION MACHINE WITH EXPORT TO SIMULATION AND POWERMILL
N30 ; T1  D=0 CR=0 - ZMIN=2 - ELECTRIC ARC WIRE
N35 #MCS OFF
N40 #CS OFF
N45 G71 G80 G90
N50 G17 G40
N55 G53
N60 ; PROCESS ON
N65 ; PROCESS OFF
N70 ; PROCESS ON
N75 ; PROCESS OFF
N80 G0 G53 Z609.6
N85 X0 Y0
N90 G53 A0. C0.
N95 ; FEATURE CONSTRUCTION3
N100 T1 M6
N105 S0
N110 M3
N115 G4 K3
N120 G0
N125 G54
;(ORGX58=0,ORGY58=0,ORGZ58=0)
N130 G58
N135 D1
N140 G0 X63.5 Y63.552
N145 G43 Z48.26
N150 G0 Z2
N155 ; LAYER 1 START
N160 ; DEPOSITION ON
N165 G180 D0.25 U0.75
N170 G94 G1 X127 F508
N175 ; DEPOSITION OFF
N180 G181 D0.25 U0.75
N185 Y67.237
N190 ; DEPOSITION ON
N195 G180 D0.25 U0.75
N200 X63.5
N205 ; DEPOSITION OFF
N210 G181 D0.25 U0.75
N215 Y70.923
N220 ; DEPOSITION ON
N225 G180 D0.25 U0.75
N230 X127
N235 ; DEPOSITION OFF
N240 G181 D0.25 U0.75
N245 Y74.607
N250 ; DEPOSITION ON
N255 G180 D0.25 U0.75
N260 X63.5
N265 ; DEPOSITION OFF
N270 G181 D0.25 U0.75
N275 G0 Y110.813
N280 ; DEPOSITION ON
N285 G180 D0.25 U0.75
N290 G1 X127 F508
N295 ; DEPOSITION OFF
N300 G181 D0.25 U0.75
N305 Y114.497
N310 ; DEPOSITION ON
N315 G180 D0.25 U0.75
N320 X63.5
N325 ; DEPOSITION OFF
N330 G181 D0.25 U0.75
N335 Y118.183
N340 ; DEPOSITION ON
N345 G180 D0.25 U0.75
N350 X127
N355 ; DEPOSITION OFF
N360 G181 D0.25 U0.75
N365 Y121.868
N370 ; DEPOSITION ON
N375 G180 D0.25 U0.75
N380 X63.5
N385 G181 D0.25 U0.75
N390 V.P.layer_num = 1
N395 P12011=0
N400 #PCALL decking.nc P1 = V.P.layer_num
N405 P12012= 1
N410 P12011=1
N415 ; LAYER 1  END
N420 ; DEPOSITION OFF
N425 G181 D0.25 U0.75
N430 G0 Z4
N435 Y63.5
N440 ; LAYER 2 START
N445 ; DEPOSITION ON
N450 G180 D0.25 U0.75
N455 G1 X127 F508
N460 ; DEPOSITION OFF
N465 G181 D0.25 U0.75
N470 Y66.54
N475 ; DEPOSITION ON
N480 G180 D0.25 U0.75
N485 X63.5
N490 ; DEPOSITION OFF
N495 G181 D0.25 U0.75
N500 Y69.58
N505 ; DEPOSITION ON
N510 G180 D0.25 U0.75
N515 X127
N520 ; DEPOSITION OFF
N525 G181 D0.25 U0.75
N530 Y72.62
N535 ; DEPOSITION ON
N540 G180 D0.25 U0.75
N545 X63.5
N550 ; DEPOSITION OFF
N555 G181 D0.25 U0.75
N560 Y75.66
N565 ; DEPOSITION ON
N570 G180 D0.25 U0.75
N575 X127
N580 ; DEPOSITION OFF
N585 G181 D0.25 U0.75
N590 G0 X63.5 Y109.76
N595 ; DEPOSITION ON
N600 G180 D0.25 U0.75
N605 G1 X127 F508
N610 ; DEPOSITION OFF
N615 G181 D0.25 U0.75
N620 Y112.8
N625 ; DEPOSITION ON
N630 G180 D0.25 U0.75
N635 X63.5
N640 ; DEPOSITION OFF
N645 G181 D0.25 U0.75
N650 Y115.84
N655 ; DEPOSITION ON
N660 G180 D0.25 U0.75
N665 X127
N670 ; DEPOSITION OFF
N675 G181 D0.25 U0.75
N680 Y118.88
N685 ; DEPOSITION ON
N690 G180 D0.25 U0.75
N695 X63.5
N700 ; DEPOSITION OFF
N705 G181 D0.25 U0.75
N710 Y121.92
N715 ; DEPOSITION ON
N720 G180 D0.25 U0.75
N725 X127
N730 G181 D0.25 U0.75
N735 V.P.layer_num = 2
N740 P12011=0
N745 #PCALL decking.nc P1 = V.P.layer_num
N750 P12012= 2
N755 P12011=1
N760 ; LAYER 2  END
N765 ; DEPOSITION OFF
N770 G181 D0.25 U0.75
N775 G0 Z6
N780 X63.5 Y63.5
N785 ; LAYER 3 START
N790 ; DEPOSITION ON
N795 G180 D0.25 U0.75
N800 G1 X127 F508
N805 ; DEPOSITION OFF
N810 G181 D0.25 U0.75
N815 Y66.79
N820 ; DEPOSITION ON
N825 G180 D0.25 U0.75
N830 X63.5
N835 ; DEPOSITION OFF
N840 G181 D0.25 U0.75
N845 Y70.08
N850 ; DEPOSITION ON
N855 G180 D0.25 U0.75
N860 X127
N865 ; DEPOSITION OFF
N870 G181 D0.25 U0.75
N875 Y73.37
N880 ; DEPOSITION ON
N885 G180 D0.25 U0.75
N890 X63.5
N895 ; DEPOSITION OFF
N900 G181 D0.25 U0.75
N905 Y76.66
N910 ; DEPOSITION ON
N915 G180 D0.25 U0.75
N920 X127
N925 ; DEPOSITION OFF
N930 G181 D0.25 U0.75
N935 G0 X63.5 Y108.76
N940 ; DEPOSITION ON
N945 G180 D0.25 U0.75
N950 G1 X127 F508
N955 ; DEPOSITION OFF
N960 G181 D0.25 U0.75
N965 Y112.05
N970 ; DEPOSITION ON
N975 G180 D0.25 U0.75
N980 X63.5
N985 ; DEPOSITION OFF
N990 G181 D0.25 U0.75
N995 Y115.34
N1000 ; DEPOSITION ON
N1005 G180 D0.25 U0.75
N1010 X127
N1015 ; DEPOSITION OFF
N1020 G181 D0.25 U0.75
N1025 Y118.63
N1030 ; DEPOSITION ON
N1035 G180 D0.25 U0.75
N1040 X63.5
N1045 ; DEPOSITION OFF
N1050 G181 D0.25 U0.75
N1055 Y121.92
N1060 ; DEPOSITION ON
N1065 G180 D0.25 U0.75
N1070 X127
N1075 G181 D0.25 U0.75
N1080 V.P.layer_num = 3
N1085 P12011=0
N1090 #PCALL decking.nc P1 = V.P.layer_num
N1095 P12012= 3
N1100 P12011=1
N1105 ; LAYER 3  END
N1110 ; DEPOSITION OFF
N1115 G181 D0.25 U0.75
N1120 G0 Z8
N1125 X63.5 Y63.5
N1130 ; LAYER 4 START
N1135 ; DEPOSITION ON
N1140 G180 D0.25 U0.75
N1145 G1 X127 F508
N1150 ; DEPOSITION OFF
N1155 G181 D0.25 U0.75
N1160 Y67.04
N1165 ; DEPOSITION ON
N1170 G180 D0.25 U0.75
N1175 X63.5
N1180 ; DEPOSITION OFF
N1185 G181 D0.25 U0.75
N1190 Y70.58
N1195 ; DEPOSITION ON
N1200 G180 D0.25 U0.75
N1205 X127
N1210 ; DEPOSITION OFF
N1215 G181 D0.25 U0.75
N1220 Y74.12
N1225 ; DEPOSITION ON
N1230 G180 D0.25 U0.75
N1235 X63.5
N1240 ; DEPOSITION OFF
N1245 G181 D0.25 U0.75
N1250 Y77.66
N1255 ; DEPOSITION ON
N1260 G180 D0.25 U0.75
N1265 X127
N1270 ; DEPOSITION OFF
N1275 G181 D0.25 U0.75
N1280 G0 X63.5 Y107.76
N1285 ; DEPOSITION ON
N1290 G180 D0.25 U0.75
N1295 G1 X127 F508
N1300 ; DEPOSITION OFF
N1305 G181 D0.25 U0.75
N1310 Y111.3
N1315 ; DEPOSITION ON
N1320 G180 D0.25 U0.75
N1325 X63.5
N1330 ; DEPOSITION OFF
N1335 G181 D0.25 U0.75
N1340 Y114.84
N1345 ; DEPOSITION ON
N1350 G180 D0.25 U0.75
N1355 X127
N1360 ; DEPOSITION OFF
N1365 G181 D0.25 U0.75
N1370 Y118.38
N1375 ; DEPOSITION ON
N1380 G180 D0.25 U0.75
N1385 X63.5
N1390 ; DEPOSITION OFF
N1395 G181 D0.25 U0.75
N1400 Y121.92
N1405 ; DEPOSITION ON
N1410 G180 D0.25 U0.75
N1415 X127
N1420 G181 D0.25 U0.75
N1425 V.P.layer_num = 4
N1430 P12011=0
N1435 #PCALL decking.nc P1 = V.P.layer_num
N1440 P12012= 4
N1445 P12011=1
N1450 ; LAYER 4  END
N1455 ; DEPOSITION OFF
N1460 G181 D0.25 U0.75
N1465 G0 Z10
N1470 X63.5 Y63.5
N1475 ; LAYER 5 START
N1480 ; DEPOSITION ON
N1485 G180 D0.25 U0.75
N1490 G1 X127 F508
N1495 ; DEPOSITION OFF
N1500 G181 D0.25 U0.75
N1505 Y66.532
N1510 ; DEPOSITION ON
N1515 G180 D0.25 U0.75
N1520 X63.5
N1525 ; DEPOSITION OFF
N1530 G181 D0.25 U0.75
N1535 Y69.564
N1540 ; DEPOSITION ON
N1545 G180 D0.25 U0.75
N1550 X127
N1555 ; DEPOSITION OFF
N1560 G181 D0.25 U0.75
N1565 Y72.596
N1570 ; DEPOSITION ON
N1575 G180 D0.25 U0.75
N1580 X63.5
N1585 ; DEPOSITION OFF
N1590 G181 D0.25 U0.75
N1595 Y75.628
N1600 ; DEPOSITION ON
N1605 G180 D0.25 U0.75
N1610 X127
N1615 ; DEPOSITION OFF
N1620 G181 D0.25 U0.75
N1625 Y78.66
N1630 ; DEPOSITION ON
N1635 G180 D0.25 U0.75
N1640 X63.5
N1645 ; DEPOSITION OFF
N1650 G181 D0.25 U0.75
N1655 G0 Y106.76
N1660 ; DEPOSITION ON
N1665 G180 D0.25 U0.75
N1670 G1 X127 F508
N1675 ; DEPOSITION OFF
N1680 G181 D0.25 U0.75
N1685 Y109.792
N1690 ; DEPOSITION ON
N1695 G180 D0.25 U0.75
N1700 X63.5
N1705 ; DEPOSITION OFF
N1710 G181 D0.25 U0.75
N1715 Y112.824
N1720 ; DEPOSITION ON
N1725 G180 D0.25 U0.75
N1730 X127
N1735 ; DEPOSITION OFF
N1740 G181 D0.25 U0.75
N1745 Y115.856
N1750 ; DEPOSITION ON
N1755 G180 D0.25 U0.75
N1760 X63.5
N1765 ; DEPOSITION OFF
N1770 G181 D0.25 U0.75
N1775 Y118.888
N1780 ; DEPOSITION ON
N1785 G180 D0.25 U0.75
N1790 X127
N1795 ; DEPOSITION OFF
N1800 G181 D0.25 U0.75
N1805 Y121.92
N1810 ; DEPOSITION ON
N1815 G180 D0.25 U0.75
N1820 X63.5
N1825 G181 D0.25 U0.75
N1830 V.P.layer_num = 5
N1835 P12011=0
N1840 #PCALL decking.nc P1 = V.P.layer_num
N1845 P12012= 5
N1850 P12011=1
N1855 ; LAYER 5  END
N1860 ; DEPOSITION OFF
N1865 G181 D0.25 U0.75
N1870 G0 Z12
N1875 Y63.5
N1880 ; LAYER 6 START
N1885 ; DEPOSITION ON
N1890 G180 D0.25 U0.75
N1895 G1 X127 F508
N1900 ; DEPOSITION OFF
N1905 G181 D0.25 U0.75
N1910 Y66.732
N1915 ; DEPOSITION ON
N1920 G180 D0.25 U0.75
N1925 X63.5
N1930 ; DEPOSITION OFF
N1935 G181 D0.25 U0.75
N1940 Y69.964
N1945 ; DEPOSITION ON
N1950 G180 D0.25 U0.75
N1955 X127
N1960 ; DEPOSITION OFF
N1965 G181 D0.25 U0.75
N1970 Y73.196
N1975 ; DEPOSITION ON
N1980 G180 D0.25 U0.75
N1985 X63.5
N1990 ; DEPOSITION OFF
N1995 G181 D0.25 U0.75
N2000 Y76.428
N2005 ; DEPOSITION ON
N2010 G180 D0.25 U0.75
N2015 X127
N2020 ; DEPOSITION OFF
N2025 G181 D0.25 U0.75
N2030 Y79.66
N2035 ; DEPOSITION ON
N2040 G180 D0.25 U0.75
N2045 X63.5
N2050 ; DEPOSITION OFF
N2055 G181 D0.25 U0.75
N2060 G0 Y105.76
N2065 ; DEPOSITION ON
N2070 G180 D0.25 U0.75
N2075 G1 X127 F508
N2080 ; DEPOSITION OFF
N2085 G181 D0.25 U0.75
N2090 Y108.992
N2095 ; DEPOSITION ON
N2100 G180 D0.25 U0.75
N2105 X63.5
N2110 ; DEPOSITION OFF
N2115 G181 D0.25 U0.75
N2120 Y112.224
N2125 ; DEPOSITION ON
N2130 G180 D0.25 U0.75
N2135 X127
N2140 ; DEPOSITION OFF
N2145 G181 D0.25 U0.75
N2150 Y115.456
N2155 ; DEPOSITION ON
N2160 G180 D0.25 U0.75
N2165 X63.5
N2170 ; DEPOSITION OFF
N2175 G181 D0.25 U0.75
N2180 Y118.688
N2185 ; DEPOSITION ON
N2190 G180 D0.25 U0.75
N2195 X127
N2200 ; DEPOSITION OFF
N2205 G181 D0.25 U0.75
N2210 Y121.92
N2215 ; DEPOSITION ON
N2220 G180 D0.25 U0.75
N2225 X63.5
N2230 G181 D0.25 U0.75
N2235 V.P.layer_num = 6
N2240 P12011=0
N2245 #PCALL decking.nc P1 = V.P.layer_num
N2250 P12012= 6
N2255 P12011=1
N2260 ; LAYER 6  END
N2265 ; DEPOSITION OFF
N2270 G181 D0.25 U0.75
N2275 G0 Z14
N2280 Y63.5
N2285 ; LAYER 7 START
N2290 ; DEPOSITION ON
N2295 G180 D0.25 U0.75
N2300 G1 X127 F508
N2305 ; DEPOSITION OFF
N2310 G181 D0.25 U0.75
N2315 Y66.932
N2320 ; DEPOSITION ON
N2325 G180 D0.25 U0.75
N2330 X63.5
N2335 ; DEPOSITION OFF
N2340 G181 D0.25 U0.75
N2345 Y70.364
N2350 ; DEPOSITION ON
N2355 G180 D0.25 U0.75
N2360 X127
N2365 ; DEPOSITION OFF
N2370 G181 D0.25 U0.75
N2375 Y73.796
N2380 ; DEPOSITION ON
N2385 G180 D0.25 U0.75
N2390 X63.5
N2395 ; DEPOSITION OFF
N2400 G181 D0.25 U0.75
N2405 Y77.228
N2410 ; DEPOSITION ON
N2415 G180 D0.25 U0.75
N2420 X127
N2425 ; DEPOSITION OFF
N2430 G181 D0.25 U0.75
N2435 Y80.66
N2440 ; DEPOSITION ON
N2445 G180 D0.25 U0.75
N2450 X63.5
N2455 ; DEPOSITION OFF
N2460 G181 D0.25 U0.75
N2465 G0 Y104.76
N2470 ; DEPOSITION ON
N2475 G180 D0.25 U0.75
N2480 G1 X127 F508
N2485 ; DEPOSITION OFF
N2490 G181 D0.25 U0.75
N2495 Y108.192
N2500 ; DEPOSITION ON
N2505 G180 D0.25 U0.75
N2510 X63.5
N2515 ; DEPOSITION OFF
N2520 G181 D0.25 U0.75
N2525 Y111.624
N2530 ; DEPOSITION ON
N2535 G180 D0.25 U0.75
N2540 X127
N2545 ; DEPOSITION OFF
N2550 G181 D0.25 U0.75
N2555 Y115.056
N2560 ; DEPOSITION ON
N2565 G180 D0.25 U0.75
N2570 X63.5
N2575 ; DEPOSITION OFF
N2580 G181 D0.25 U0.75
N2585 Y118.488
N2590 ; DEPOSITION ON
N2595 G180 D0.25 U0.75
N2600 X127
N2605 ; DEPOSITION OFF
N2610 G181 D0.25 U0.75
N2615 Y121.92
N2620 ; DEPOSITION ON
N2625 G180 D0.25 U0.75
N2630 X63.5
N2635 G181 D0.25 U0.75
N2640 V.P.layer_num = 7
N2645 P12011=0
N2650 #PCALL decking.nc P1 = V.P.layer_num
N2655 P12012= 7
N2660 P12011=1
N2665 ; LAYER 7  END
N2670 ; DEPOSITION OFF
N2675 G181 D0.25 U0.75
N2680 G0 Z16
N2685 Y63.5
N2690 ; LAYER 8 START
N2695 ; DEPOSITION ON
N2700 G180 D0.25 U0.75
N2705 G1 X127 F508
N2710 ; DEPOSITION OFF
N2715 G181 D0.25 U0.75
N2720 Y67.132
N2725 ; DEPOSITION ON
N2730 G180 D0.25 U0.75
N2735 X63.5
N2740 ; DEPOSITION OFF
N2745 G181 D0.25 U0.75
N2750 Y70.764
N2755 ; DEPOSITION ON
N2760 G180 D0.25 U0.75
N2765 X127
N2770 ; DEPOSITION OFF
N2775 G181 D0.25 U0.75
N2780 Y74.396
N2785 ; DEPOSITION ON
N2790 G180 D0.25 U0.75
N2795 X63.5
N2800 ; DEPOSITION OFF
N2805 G181 D0.25 U0.75
N2810 Y78.028
N2815 ; DEPOSITION ON
N2820 G180 D0.25 U0.75
N2825 X127
N2830 ; DEPOSITION OFF
N2835 G181 D0.25 U0.75
N2840 Y81.66
N2845 ; DEPOSITION ON
N2850 G180 D0.25 U0.75
N2855 X63.5
N2860 ; DEPOSITION OFF
N2865 G181 D0.25 U0.75
N2870 G0 Y103.76
N2875 ; DEPOSITION ON
N2880 G180 D0.25 U0.75
N2885 G1 X127 F508
N2890 ; DEPOSITION OFF
N2895 G181 D0.25 U0.75
N2900 Y107.392
N2905 ; DEPOSITION ON
N2910 G180 D0.25 U0.75
N2915 X63.5
N2920 ; DEPOSITION OFF
N2925 G181 D0.25 U0.75
N2930 Y111.024
N2935 ; DEPOSITION ON
N2940 G180 D0.25 U0.75
N2945 X127
N2950 ; DEPOSITION OFF
N2955 G181 D0.25 U0.75
N2960 Y114.656
N2965 ; DEPOSITION ON
N2970 G180 D0.25 U0.75
N2975 X63.5
N2980 ; DEPOSITION OFF
N2985 G181 D0.25 U0.75
N2990 Y118.288
N2995 ; DEPOSITION ON
N3000 G180 D0.25 U0.75
N3005 X127
N3010 ; DEPOSITION OFF
N3015 G181 D0.25 U0.75
N3020 Y121.92
N3025 ; DEPOSITION ON
N3030 G180 D0.25 U0.75
N3035 X63.5
N3040 G181 D0.25 U0.75
N3045 V.P.layer_num = 8
N3050 P12011=0
N3055 #PCALL decking.nc P1 = V.P.layer_num
N3060 P12012= 8
N3065 P12011=1
N3070 ; LAYER 8  END
N3075 ; DEPOSITION OFF
N3080 G181 D0.25 U0.75
N3085 G0 Z18
N3090 Y63.5
N3095 ; LAYER 9 START
N3100 ; DEPOSITION ON
N3105 G180 D0.25 U0.75
N3110 G1 X127 F508
N3115 ; DEPOSITION OFF
N3120 G181 D0.25 U0.75
N3125 Y66.693
N3130 ; DEPOSITION ON
N3135 G180 D0.25 U0.75
N3140 X63.5
N3145 ; DEPOSITION OFF
N3150 G181 D0.25 U0.75
N3155 Y69.887
N3160 ; DEPOSITION ON
N3165 G180 D0.25 U0.75
N3170 X127
N3175 ; DEPOSITION OFF
N3180 G181 D0.25 U0.75
N3185 Y73.08
N3190 ; DEPOSITION ON
N3195 G180 D0.25 U0.75
N3200 X63.5
N3205 ; DEPOSITION OFF
N3210 G181 D0.25 U0.75
N3215 Y76.273
N3220 ; DEPOSITION ON
N3225 G180 D0.25 U0.75
N3230 X127
N3235 ; DEPOSITION OFF
N3240 G181 D0.25 U0.75
N3245 Y79.467
N3250 ; DEPOSITION ON
N3255 G180 D0.25 U0.75
N3260 X63.5
N3265 ; DEPOSITION OFF
N3270 G181 D0.25 U0.75
N3275 Y82.66
N3280 ; DEPOSITION ON
N3285 G180 D0.25 U0.75
N3290 X127
N3295 ; DEPOSITION OFF
N3300 G181 D0.25 U0.75
N3305 G0 X63.5 Y102.76
N3310 ; DEPOSITION ON
N3315 G180 D0.25 U0.75
N3320 G1 X127 F508
N3325 ; DEPOSITION OFF
N3330 G181 D0.25 U0.75
N3335 Y105.953
N3340 ; DEPOSITION ON
N3345 G180 D0.25 U0.75
N3350 X63.5
N3355 ; DEPOSITION OFF
N3360 G181 D0.25 U0.75
N3365 Y109.147
N3370 ; DEPOSITION ON
N3375 G180 D0.25 U0.75
N3380 X127
N3385 ; DEPOSITION OFF
N3390 G181 D0.25 U0.75
N3395 Y112.34
N3400 ; DEPOSITION ON
N3405 G180 D0.25 U0.75
N3410 X63.5
N3415 ; DEPOSITION OFF
N3420 G181 D0.25 U0.75
N3425 Y115.533
N3430 ; DEPOSITION ON
N3435 G180 D0.25 U0.75
N3440 X127
N3445 ; DEPOSITION OFF
N3450 G181 D0.25 U0.75
N3455 Y118.727
N3460 ; DEPOSITION ON
N3465 G180 D0.25 U0.75
N3470 X63.5
N3475 ; DEPOSITION OFF
N3480 G181 D0.25 U0.75
N3485 Y121.92
N3490 ; DEPOSITION ON
N3495 G180 D0.25 U0.75
N3500 X127
N3505 G181 D0.25 U0.75
N3510 V.P.layer_num = 9
N3515 P12011=0
N3520 #PCALL decking.nc P1 = V.P.layer_num
N3525 P12012= 9
N3530 P12011=1
N3535 ; LAYER 9  END
N3540 ; DEPOSITION OFF
N3545 G181 D0.25 U0.75
N3550 G0 Z20
N3555 X63.5 Y63.5
N3560 ; LAYER 10 START
N3565 ; DEPOSITION ON
N3570 G180 D0.25 U0.75
N3575 G1 X127 F508
N3580 ; DEPOSITION OFF
N3585 G181 D0.25 U0.75
N3590 Y66.86
N3595 ; DEPOSITION ON
N3600 G180 D0.25 U0.75
N3605 X63.5
N3610 ; DEPOSITION OFF
N3615 G181 D0.25 U0.75
N3620 Y70.22
N3625 ; DEPOSITION ON
N3630 G180 D0.25 U0.75
N3635 X127
N3640 ; DEPOSITION OFF
N3645 G181 D0.25 U0.75
N3650 Y73.58
N3655 ; DEPOSITION ON
N3660 G180 D0.25 U0.75
N3665 X63.5
N3670 ; DEPOSITION OFF
N3675 G181 D0.25 U0.75
N3680 Y76.94
N3685 ; DEPOSITION ON
N3690 G180 D0.25 U0.75
N3695 X127
N3700 ; DEPOSITION OFF
N3705 G181 D0.25 U0.75
N3710 Y80.3
N3715 ; DEPOSITION ON
N3720 G180 D0.25 U0.75
N3725 X63.5
N3730 ; DEPOSITION OFF
N3735 G181 D0.25 U0.75
N3740 Y83.66
N3745 ; DEPOSITION ON
N3750 G180 D0.25 U0.75
N3755 X127
N3760 ; DEPOSITION OFF
N3765 G181 D0.25 U0.75
N3770 G0 X63.5 Y101.76
N3775 ; DEPOSITION ON
N3780 G180 D0.25 U0.75
N3785 G1 X127 F508
N3790 ; DEPOSITION OFF
N3795 G181 D0.25 U0.75
N3800 Y105.12
N3805 ; DEPOSITION ON
N3810 G180 D0.25 U0.75
N3815 X63.5
N3820 ; DEPOSITION OFF
N3825 G181 D0.25 U0.75
N3830 Y108.48
N3835 ; DEPOSITION ON
N3840 G180 D0.25 U0.75
N3845 X127
N3850 ; DEPOSITION OFF
N3855 G181 D0.25 U0.75
N3860 Y111.84
N3865 ; DEPOSITION ON
N3870 G180 D0.25 U0.75
N3875 X63.5
N3880 ; DEPOSITION OFF
N3885 G181 D0.25 U0.75
N3890 Y115.2
N3895 ; DEPOSITION ON
N3900 G180 D0.25 U0.75
N3905 X127
N3910 ; DEPOSITION OFF
N3915 G181 D0.25 U0.75
N3920 Y118.56
N3925 ; DEPOSITION ON
N3930 G180 D0.25 U0.75
N3935 X63.5
N3940 ; DEPOSITION OFF
N3945 G181 D0.25 U0.75
N3950 Y121.92
N3955 ; DEPOSITION ON
N3960 G180 D0.25 U0.75
N3965 X127
N3970 G181 D0.25 U0.75
N3975 V.P.layer_num = 10
N3980 P12011=0
N3985 #PCALL decking.nc P1 = V.P.layer_num
N3990 P12012= 10
N3995 P12011=1
N4000 ; LAYER 10  END
N4005 ; DEPOSITION OFF
N4010 G181 D0.25 U0.75
N4015 G0 Z22
N4020 X63.5 Y63.5
N4025 ; LAYER 11 START
N4030 ; DEPOSITION ON
N4035 G180 D0.25 U0.75
N4040 G1 X127 F508
N4045 ; DEPOSITION OFF
N4050 G181 D0.25 U0.75
N4055 Y67.027
N4060 ; DEPOSITION ON
N4065 G180 D0.25 U0.75
N4070 X63.5
N4075 ; DEPOSITION OFF
N4080 G181 D0.25 U0.75
N4085 Y70.553
N4090 ; DEPOSITION ON
N4095 G180 D0.25 U0.75
N4100 X127
N4105 ; DEPOSITION OFF
N4110 G181 D0.25 U0.75
N4115 Y74.08
N4120 ; DEPOSITION ON
N4125 G180 D0.25 U0.75
N4130 X63.5
N4135 ; DEPOSITION OFF
N4140 G181 D0.25 U0.75
N4145 Y77.607
N4150 ; DEPOSITION ON
N4155 G180 D0.25 U0.75
N4160 X127
N4165 ; DEPOSITION OFF
N4170 G181 D0.25 U0.75
N4175 Y81.133
N4180 ; DEPOSITION ON
N4185 G180 D0.25 U0.75
N4190 X63.5
N4195 ; DEPOSITION OFF
N4200 G181 D0.25 U0.75
N4205 Y84.66
N4210 ; DEPOSITION ON
N4215 G180 D0.25 U0.75
N4220 X127
N4225 ; DEPOSITION OFF
N4230 G181 D0.25 U0.75
N4235 G0 X63.5 Y100.76
N4240 ; DEPOSITION ON
N4245 G180 D0.25 U0.75
N4250 G1 X127 F508
N4255 ; DEPOSITION OFF
N4260 G181 D0.25 U0.75
N4265 Y104.287
N4270 ; DEPOSITION ON
N4275 G180 D0.25 U0.75
N4280 X63.5
N4285 ; DEPOSITION OFF
N4290 G181 D0.25 U0.75
N4295 Y107.813
N4300 ; DEPOSITION ON
N4305 G180 D0.25 U0.75
N4310 X127
N4315 ; DEPOSITION OFF
N4320 G181 D0.25 U0.75
N4325 Y111.34
N4330 ; DEPOSITION ON
N4335 G180 D0.25 U0.75
N4340 X63.5
N4345 ; DEPOSITION OFF
N4350 G181 D0.25 U0.75
N4355 Y114.867
N4360 ; DEPOSITION ON
N4365 G180 D0.25 U0.75
N4370 X127
N4375 ; DEPOSITION OFF
N4380 G181 D0.25 U0.75
N4385 Y118.393
N4390 ; DEPOSITION ON
N4395 G180 D0.25 U0.75
N4400 X63.5
N4405 ; DEPOSITION OFF
N4410 G181 D0.25 U0.75
N4415 Y121.92
N4420 ; DEPOSITION ON
N4425 G180 D0.25 U0.75
N4430 X127
N4435 G181 D0.25 U0.75
N4440 V.P.layer_num = 11
N4445 P12011=0
N4450 #PCALL decking.nc P1 = V.P.layer_num
N4455 P12012= 11
N4460 P12011=1
N4465 ; LAYER 11  END
N4470 ; DEPOSITION OFF
N4475 G181 D0.25 U0.75
N4480 G0 Z24
N4485 X63.5 Y63.5
N4490 ; LAYER 12 START
N4495 ; DEPOSITION ON
N4500 G180 D0.25 U0.75
N4505 G1 X127 F508
N4510 ; DEPOSITION OFF
N4515 G181 D0.25 U0.75
N4520 Y66.666
N4525 ; DEPOSITION ON
N4530 G180 D0.25 U0.75
N4535 X63.5
N4540 ; DEPOSITION OFF
N4545 G181 D0.25 U0.75
N4550 Y69.831
N4555 ; DEPOSITION ON
N4560 G180 D0.25 U0.75
N4565 X127
N4570 ; DEPOSITION OFF
N4575 G181 D0.25 U0.75
N4580 Y72.997
N4585 ; DEPOSITION ON
N4590 G180 D0.25 U0.75
N4595 X63.5
N4600 ; DEPOSITION OFF
N4605 G181 D0.25 U0.75
N4610 Y76.163
N4615 ; DEPOSITION ON
N4620 G180 D0.25 U0.75
N4625 X127
N4630 ; DEPOSITION OFF
N4635 G181 D0.25 U0.75
N4640 Y79.329
N4645 ; DEPOSITION ON
N4650 G180 D0.25 U0.75
N4655 X63.5
N4660 ; DEPOSITION OFF
N4665 G181 D0.25 U0.75
N4670 Y82.494
N4675 ; DEPOSITION ON
N4680 G180 D0.25 U0.75
N4685 X127
N4690 ; DEPOSITION OFF
N4695 G181 D0.25 U0.75
N4700 Y85.66
N4705 ; DEPOSITION ON
N4710 G180 D0.25 U0.75
N4715 X63.5
N4720 ; DEPOSITION OFF
N4725 G181 D0.25 U0.75
N4730 G0 Y99.76
N4735 ; DEPOSITION ON
N4740 G180 D0.25 U0.75
N4745 G1 X127 F508
N4750 ; DEPOSITION OFF
N4755 G181 D0.25 U0.75
N4760 Y102.926
N4765 ; DEPOSITION ON
N4770 G180 D0.25 U0.75
N4775 X63.5
N4780 ; DEPOSITION OFF
N4785 G181 D0.25 U0.75
N4790 Y106.091
N4795 ; DEPOSITION ON
N4800 G180 D0.25 U0.75
N4805 X127
N4810 ; DEPOSITION OFF
N4815 G181 D0.25 U0.75
N4820 Y109.257
N4825 ; DEPOSITION ON
N4830 G180 D0.25 U0.75
N4835 X63.5
N4840 ; DEPOSITION OFF
N4845 G181 D0.25 U0.75
N4850 Y112.423
N4855 ; DEPOSITION ON
N4860 G180 D0.25 U0.75
N4865 X127
N4870 ; DEPOSITION OFF
N4875 G181 D0.25 U0.75
N4880 Y115.589
N4885 ; DEPOSITION ON
N4890 G180 D0.25 U0.75
N4895 X63.5
N4900 ; DEPOSITION OFF
N4905 G181 D0.25 U0.75
N4910 Y118.754
N4915 ; DEPOSITION ON
N4920 G180 D0.25 U0.75
N4925 X127
N4930 ; DEPOSITION OFF
N4935 G181 D0.25 U0.75
N4940 Y121.92
N4945 ; DEPOSITION ON
N4950 G180 D0.25 U0.75
N4955 X63.5
N4960 G181 D0.25 U0.75
N4965 V.P.layer_num = 12
N4970 P12011=0
N4975 #PCALL decking.nc P1 = V.P.layer_num
N4980 P12012= 12
N4985 P12011=1
N4990 ; LAYER 12  END
N4995 ; DEPOSITION OFF
N5000 G181 D0.25 U0.75
N5005 G0 Z26
N5010 Y63.5
N5015 ; LAYER 13 START
N5020 ; DEPOSITION ON
N5025 G180 D0.25 U0.75
N5030 G1 X127 F508
N5035 ; DEPOSITION OFF
N5040 G181 D0.25 U0.75
N5045 Y66.809
N5050 ; DEPOSITION ON
N5055 G180 D0.25 U0.75
N5060 X63.5
N5065 ; DEPOSITION OFF
N5070 G181 D0.25 U0.75
N5075 Y70.117
N5080 ; DEPOSITION ON
N5085 G180 D0.25 U0.75
N5090 X127
N5095 ; DEPOSITION OFF
N5100 G181 D0.25 U0.75
N5105 Y73.426
N5110 ; DEPOSITION ON
N5115 G180 D0.25 U0.75
N5120 X63.5
N5125 ; DEPOSITION OFF
N5130 G181 D0.25 U0.75
N5135 Y76.734
N5140 ; DEPOSITION ON
N5145 G180 D0.25 U0.75
N5150 X127
N5155 ; DEPOSITION OFF
N5160 G181 D0.25 U0.75
N5165 Y80.043
N5170 ; DEPOSITION ON
N5175 G180 D0.25 U0.75
N5180 X63.5
N5185 ; DEPOSITION OFF
N5190 G181 D0.25 U0.75
N5195 Y83.351
N5200 ; DEPOSITION ON
N5205 G180 D0.25 U0.75
N5210 X127
N5215 ; DEPOSITION OFF
N5220 G181 D0.25 U0.75
N5225 Y86.66
N5230 ; DEPOSITION ON
N5235 G180 D0.25 U0.75
N5240 X63.5
N5245 ; DEPOSITION OFF
N5250 G181 D0.25 U0.75
N5255 G0 Y98.76
N5260 ; DEPOSITION ON
N5265 G180 D0.25 U0.75
N5270 G1 X127 F508
N5275 ; DEPOSITION OFF
N5280 G181 D0.25 U0.75
N5285 Y102.069
N5290 ; DEPOSITION ON
N5295 G180 D0.25 U0.75
N5300 X63.5
N5305 ; DEPOSITION OFF
N5310 G181 D0.25 U0.75
N5315 Y105.377
N5320 ; DEPOSITION ON
N5325 G180 D0.25 U0.75
N5330 X127
N5335 ; DEPOSITION OFF
N5340 G181 D0.25 U0.75
N5345 Y108.686
N5350 ; DEPOSITION ON
N5355 G180 D0.25 U0.75
N5360 X63.5
N5365 ; DEPOSITION OFF
N5370 G181 D0.25 U0.75
N5375 Y111.994
N5380 ; DEPOSITION ON
N5385 G180 D0.25 U0.75
N5390 X127
N5395 ; DEPOSITION OFF
N5400 G181 D0.25 U0.75
N5405 Y115.303
N5410 ; DEPOSITION ON
N5415 G180 D0.25 U0.75
N5420 X63.5
N5425 ; DEPOSITION OFF
N5430 G181 D0.25 U0.75
N5435 Y118.611
N5440 ; DEPOSITION ON
N5445 G180 D0.25 U0.75
N5450 X127
N5455 ; DEPOSITION OFF
N5460 G181 D0.25 U0.75
N5465 Y121.92
N5470 ; DEPOSITION ON
N5475 G180 D0.25 U0.75
N5480 X63.5
N5485 G181 D0.25 U0.75
N5490 V.P.layer_num = 13
N5495 P12011=0
N5500 #PCALL decking.nc P1 = V.P.layer_num
N5505 P12012= 13
N5510 P12011=1
N5515 ; LAYER 13  END
N5520 ; DEPOSITION OFF
N5525 G181 D0.25 U0.75
N5530 G0 Z28
N5535 Y63.5
N5540 ; LAYER 14 START
N5545 ; DEPOSITION ON
N5550 G180 D0.25 U0.75
N5555 G1 X127 F508
N5560 ; DEPOSITION OFF
N5565 G181 D0.25 U0.75
N5570 Y66.951
N5575 ; DEPOSITION ON
N5580 G180 D0.25 U0.75
N5585 X63.5
N5590 ; DEPOSITION OFF
N5595 G181 D0.25 U0.75
N5600 Y70.403
N5605 ; DEPOSITION ON
N5610 G180 D0.25 U0.75
N5615 X127
N5620 ; DEPOSITION OFF
N5625 G181 D0.25 U0.75
N5630 Y73.854
N5635 ; DEPOSITION ON
N5640 G180 D0.25 U0.75
N5645 X63.5
N5650 ; DEPOSITION OFF
N5655 G181 D0.25 U0.75
N5660 Y77.306
N5665 ; DEPOSITION ON
N5670 G180 D0.25 U0.75
N5675 X127
N5680 ; DEPOSITION OFF
N5685 G181 D0.25 U0.75
N5690 Y80.757
N5695 ; DEPOSITION ON
N5700 G180 D0.25 U0.75
N5705 X63.5
N5710 ; DEPOSITION OFF
N5715 G181 D0.25 U0.75
N5720 Y84.209
N5725 ; DEPOSITION ON
N5730 G180 D0.25 U0.75
N5735 X127
N5740 ; DEPOSITION OFF
N5745 G181 D0.25 U0.75
N5750 Y87.66
N5755 ; DEPOSITION ON
N5760 G180 D0.25 U0.75
N5765 X63.5
N5770 ; DEPOSITION OFF
N5775 G181 D0.25 U0.75
N5780 G0 Y97.76
N5785 ; DEPOSITION ON
N5790 G180 D0.25 U0.75
N5795 G1 X127 F508
N5800 ; DEPOSITION OFF
N5805 G181 D0.25 U0.75
N5810 Y101.211
N5815 ; DEPOSITION ON
N5820 G180 D0.25 U0.75
N5825 X63.5
N5830 ; DEPOSITION OFF
N5835 G181 D0.25 U0.75
N5840 Y104.663
N5845 ; DEPOSITION ON
N5850 G180 D0.25 U0.75
N5855 X127
N5860 ; DEPOSITION OFF
N5865 G181 D0.25 U0.75
N5870 Y108.114
N5875 ; DEPOSITION ON
N5880 G180 D0.25 U0.75
N5885 X63.5
N5890 ; DEPOSITION OFF
N5895 G181 D0.25 U0.75
N5900 Y111.566
N5905 ; DEPOSITION ON
N5910 G180 D0.25 U0.75
N5915 X127
N5920 ; DEPOSITION OFF
N5925 G181 D0.25 U0.75
N5930 Y115.017
N5935 ; DEPOSITION ON
N5940 G180 D0.25 U0.75
N5945 X63.5
N5950 ; DEPOSITION OFF
N5955 G181 D0.25 U0.75
N5960 Y118.469
N5965 ; DEPOSITION ON
N5970 G180 D0.25 U0.75
N5975 X127
N5980 ; DEPOSITION OFF
N5985 G181 D0.25 U0.75
N5990 Y121.92
N5995 ; DEPOSITION ON
N6000 G180 D0.25 U0.75
N6005 X63.5
N6010 G181 D0.25 U0.75
N6015 V.P.layer_num = 14
N6020 P12011=0
N6025 #PCALL decking.nc P1 = V.P.layer_num
N6030 P12012= 14
N6035 P12011=1
N6040 ; LAYER 14  END
N6045 ; DEPOSITION OFF
N6050 G181 D0.25 U0.75
N6055 G0 Z30
N6060 Y63.5
N6065 ; LAYER 15 START
N6070 ; DEPOSITION ON
N6075 G180 D0.25 U0.75
N6080 G1 X127 F508
N6085 ; DEPOSITION OFF
N6090 G181 D0.25 U0.75
N6095 Y66.645
N6100 ; DEPOSITION ON
N6105 G180 D0.25 U0.75
N6110 X63.5
N6115 ; DEPOSITION OFF
N6120 G181 D0.25 U0.75
N6125 Y69.79
N6130 ; DEPOSITION ON
N6135 G180 D0.25 U0.75
N6140 X127
N6145 ; DEPOSITION OFF
N6150 G181 D0.25 U0.75
N6155 Y72.935
N6160 ; DEPOSITION ON
N6165 G180 D0.25 U0.75
N6170 X63.5
N6175 ; DEPOSITION OFF
N6180 G181 D0.25 U0.75
N6185 Y76.08
N6190 ; DEPOSITION ON
N6195 G180 D0.25 U0.75
N6200 X127
N6205 ; DEPOSITION OFF
N6210 G181 D0.25 U0.75
N6215 Y79.225
N6220 ; DEPOSITION ON
N6225 G180 D0.25 U0.75
N6230 X63.5
N6235 ; DEPOSITION OFF
N6240 G181 D0.25 U0.75
N6245 Y82.37
N6250 ; DEPOSITION ON
N6255 G180 D0.25 U0.75
N6260 X127
N6265 ; DEPOSITION OFF
N6270 G181 D0.25 U0.75
N6275 Y85.515
N6280 ; DEPOSITION ON
N6285 G180 D0.25 U0.75
N6290 X63.5
N6295 ; DEPOSITION OFF
N6300 G181 D0.25 U0.75
N6305 Y88.66
N6310 ; DEPOSITION ON
N6315 G180 D0.25 U0.75
N6320 X127
N6325 ; DEPOSITION OFF
N6330 G181 D0.25 U0.75
N6335 G0 X63.5 Y96.76
N6340 ; DEPOSITION ON
N6345 G180 D0.25 U0.75
N6350 G1 X127 F508
N6355 ; DEPOSITION OFF
N6360 G181 D0.25 U0.75
N6365 Y99.905
N6370 ; DEPOSITION ON
N6375 G180 D0.25 U0.75
N6380 X63.5
N6385 ; DEPOSITION OFF
N6390 G181 D0.25 U0.75
N6395 Y103.05
N6400 ; DEPOSITION ON
N6405 G180 D0.25 U0.75
N6410 X127
N6415 ; DEPOSITION OFF
N6420 G181 D0.25 U0.75
N6425 Y106.195
N6430 ; DEPOSITION ON
N6435 G180 D0.25 U0.75
N6440 X63.5
N6445 ; DEPOSITION OFF
N6450 G181 D0.25 U0.75
N6455 Y109.34
N6460 ; DEPOSITION ON
N6465 G180 D0.25 U0.75
N6470 X127
N6475 ; DEPOSITION OFF
N6480 G181 D0.25 U0.75
N6485 Y112.485
N6490 ; DEPOSITION ON
N6495 G180 D0.25 U0.75
N6500 X63.5
N6505 ; DEPOSITION OFF
N6510 G181 D0.25 U0.75
N6515 Y115.63
N6520 ; DEPOSITION ON
N6525 G180 D0.25 U0.75
N6530 X127
N6535 ; DEPOSITION OFF
N6540 G181 D0.25 U0.75
N6545 Y118.775
N6550 ; DEPOSITION ON
N6555 G180 D0.25 U0.75
N6560 X63.5
N6565 ; DEPOSITION OFF
N6570 G181 D0.25 U0.75
N6575 Y121.92
N6580 ; DEPOSITION ON
N6585 G180 D0.25 U0.75
N6590 X127
N6595 G181 D0.25 U0.75
N6600 V.P.layer_num = 15
N6605 P12011=0
N6610 #PCALL decking.nc P1 = V.P.layer_num
N6615 P12012= 15
N6620 P12011=1
N6625 ; LAYER 15  END
N6630 ; DEPOSITION OFF
N6635 G181 D0.25 U0.75
N6640 G0 Z32
N6645 X63.5 Y63.5
N6650 ; LAYER 16 START
N6655 ; DEPOSITION ON
N6660 G180 D0.25 U0.75
N6665 G1 X127 F508
N6670 ; DEPOSITION OFF
N6675 G181 D0.25 U0.75
N6680 Y66.77
N6685 ; DEPOSITION ON
N6690 G180 D0.25 U0.75
N6695 X63.5
N6700 ; DEPOSITION OFF
N6705 G181 D0.25 U0.75
N6710 Y70.04
N6715 ; DEPOSITION ON
N6720 G180 D0.25 U0.75
N6725 X127
N6730 ; DEPOSITION OFF
N6735 G181 D0.25 U0.75
N6740 Y73.31
N6745 ; DEPOSITION ON
N6750 G180 D0.25 U0.75
N6755 X63.5
N6760 ; DEPOSITION OFF
N6765 G181 D0.25 U0.75
N6770 Y76.58
N6775 ; DEPOSITION ON
N6780 G180 D0.25 U0.75
N6785 X127
N6790 ; DEPOSITION OFF
N6795 G181 D0.25 U0.75
N6800 Y79.85
N6805 ; DEPOSITION ON
N6810 G180 D0.25 U0.75
N6815 X63.5
N6820 ; DEPOSITION OFF
N6825 G181 D0.25 U0.75
N6830 Y83.12
N6835 ; DEPOSITION ON
N6840 G180 D0.25 U0.75
N6845 X127
N6850 ; DEPOSITION OFF
N6855 G181 D0.25 U0.75
N6860 Y86.39
N6865 ; DEPOSITION ON
N6870 G180 D0.25 U0.75
N6875 X63.5
N6880 ; DEPOSITION OFF
N6885 G181 D0.25 U0.75
N6890 Y89.66
N6895 ; DEPOSITION ON
N6900 G180 D0.25 U0.75
N6905 X127
N6910 ; DEPOSITION OFF
N6915 G181 D0.25 U0.75
N6920 G0 X63.5 Y95.76
N6925 ; DEPOSITION ON
N6930 G180 D0.25 U0.75
N6935 G1 X127 F508
N6940 ; DEPOSITION OFF
N6945 G181 D0.25 U0.75
N6950 Y99.03
N6955 ; DEPOSITION ON
N6960 G180 D0.25 U0.75
N6965 X63.5
N6970 ; DEPOSITION OFF
N6975 G181 D0.25 U0.75
N6980 Y102.3
N6985 ; DEPOSITION ON
N6990 G180 D0.25 U0.75
N6995 X127
N7000 ; DEPOSITION OFF
N7005 G181 D0.25 U0.75
N7010 Y105.57
N7015 ; DEPOSITION ON
N7020 G180 D0.25 U0.75
N7025 X63.5
N7030 ; DEPOSITION OFF
N7035 G181 D0.25 U0.75
N7040 Y108.84
N7045 ; DEPOSITION ON
N7050 G180 D0.25 U0.75
N7055 X127
N7060 ; DEPOSITION OFF
N7065 G181 D0.25 U0.75
N7070 Y112.11
N7075 ; DEPOSITION ON
N7080 G180 D0.25 U0.75
N7085 X63.5
N7090 ; DEPOSITION OFF
N7095 G181 D0.25 U0.75
N7100 Y115.38
N7105 ; DEPOSITION ON
N7110 G180 D0.25 U0.75
N7115 X127
N7120 ; DEPOSITION OFF
N7125 G181 D0.25 U0.75
N7130 Y118.65
N7135 ; DEPOSITION ON
N7140 G180 D0.25 U0.75
N7145 X63.5
N7150 ; DEPOSITION OFF
N7155 G181 D0.25 U0.75
N7160 Y121.92
N7165 ; DEPOSITION ON
N7170 G180 D0.25 U0.75
N7175 X127
N7180 G181 D0.25 U0.75
N7185 V.P.layer_num = 16
N7190 P12011=0
N7195 #PCALL decking.nc P1 = V.P.layer_num
N7200 P12012= 16
N7205 P12011=1
N7210 ; LAYER 16  END
N7215 ; DEPOSITION OFF
N7220 G181 D0.25 U0.75
N7225 G0 Z34
N7230 X63.5 Y63.5
N7235 ; LAYER 17 START
N7240 ; DEPOSITION ON
N7245 G180 D0.25 U0.75
N7250 G1 X127 F508
N7255 ; DEPOSITION OFF
N7260 G181 D0.25 U0.75
N7265 Y66.895
N7270 ; DEPOSITION ON
N7275 G180 D0.25 U0.75
N7280 X63.5
N7285 ; DEPOSITION OFF
N7290 G181 D0.25 U0.75
N7295 Y70.29
N7300 ; DEPOSITION ON
N7305 G180 D0.25 U0.75
N7310 X127
N7315 ; DEPOSITION OFF
N7320 G181 D0.25 U0.75
N7325 Y73.685
N7330 ; DEPOSITION ON
N7335 G180 D0.25 U0.75
N7340 X63.5
N7345 ; DEPOSITION OFF
N7350 G181 D0.25 U0.75
N7355 Y77.08
N7360 ; DEPOSITION ON
N7365 G180 D0.25 U0.75
N7370 X127
N7375 ; DEPOSITION OFF
N7380 G181 D0.25 U0.75
N7385 Y80.475
N7390 ; DEPOSITION ON
N7395 G180 D0.25 U0.75
N7400 X63.5
N7405 ; DEPOSITION OFF
N7410 G181 D0.25 U0.75
N7415 Y83.87
N7420 ; DEPOSITION ON
N7425 G180 D0.25 U0.75
N7430 X127
N7435 ; DEPOSITION OFF
N7440 G181 D0.25 U0.75
N7445 Y87.265
N7450 ; DEPOSITION ON
N7455 G180 D0.25 U0.75
N7460 X63.5
N7465 ; DEPOSITION OFF
N7470 G181 D0.25 U0.75
N7475 Y90.66
N7480 ; DEPOSITION ON
N7485 G180 D0.25 U0.75
N7490 X127
N7495 ; DEPOSITION OFF
N7500 G181 D0.25 U0.75
N7505 G0 X63.5 Y94.76
N7510 ; DEPOSITION ON
N7515 G180 D0.25 U0.75
N7520 G1 X127 F508
N7525 ; DEPOSITION OFF
N7530 G181 D0.25 U0.75
N7535 Y98.155
N7540 ; DEPOSITION ON
N7545 G180 D0.25 U0.75
N7550 X63.5
N7555 ; DEPOSITION OFF
N7560 G181 D0.25 U0.75
N7565 Y101.55
N7570 ; DEPOSITION ON
N7575 G180 D0.25 U0.75
N7580 X127
N7585 ; DEPOSITION OFF
N7590 G181 D0.25 U0.75
N7595 Y104.945
N7600 ; DEPOSITION ON
N7605 G180 D0.25 U0.75
N7610 X63.5
N7615 ; DEPOSITION OFF
N7620 G181 D0.25 U0.75
N7625 Y108.34
N7630 ; DEPOSITION ON
N7635 G180 D0.25 U0.75
N7640 X127
N7645 ; DEPOSITION OFF
N7650 G181 D0.25 U0.75
N7655 Y111.735
N7660 ; DEPOSITION ON
N7665 G180 D0.25 U0.75
N7670 X63.5
N7675 ; DEPOSITION OFF
N7680 G181 D0.25 U0.75
N7685 Y115.13
N7690 ; DEPOSITION ON
N7695 G180 D0.25 U0.75
N7700 X127
N7705 ; DEPOSITION OFF
N7710 G181 D0.25 U0.75
N7715 Y118.525
N7720 ; DEPOSITION ON
N7725 G180 D0.25 U0.75
N7730 X63.5
N7735 ; DEPOSITION OFF
N7740 G181 D0.25 U0.75
N7745 Y121.92
N7750 ; DEPOSITION ON
N7755 G180 D0.25 U0.75
N7760 X127
N7765 G181 D0.25 U0.75
N7770 V.P.layer_num = 17
N7775 P12011=0
N7780 #PCALL decking.nc P1 = V.P.layer_num
N7785 P12012= 17
N7790 P12011=1
N7795 ; LAYER 17  END
N7800 ; DEPOSITION OFF
N7805 G181 D0.25 U0.75
N7810 G0 Z36
N7815 X63.5 Y63.5
N7820 ; LAYER 18 START
N7825 ; DEPOSITION ON
N7830 G180 D0.25 U0.75
N7835 G1 X127 F508
N7840 ; DEPOSITION OFF
N7845 G181 D0.25 U0.75
N7850 Y67.02
N7855 ; DEPOSITION ON
N7860 G180 D0.25 U0.75
N7865 X63.5
N7870 ; DEPOSITION OFF
N7875 G181 D0.25 U0.75
N7880 Y70.54
N7885 ; DEPOSITION ON
N7890 G180 D0.25 U0.75
N7895 X127
N7900 ; DEPOSITION OFF
N7905 G181 D0.25 U0.75
N7910 Y74.06
N7915 ; DEPOSITION ON
N7920 G180 D0.25 U0.75
N7925 X63.5
N7930 ; DEPOSITION OFF
N7935 G181 D0.25 U0.75
N7940 Y77.58
N7945 ; DEPOSITION ON
N7950 G180 D0.25 U0.75
N7955 X127
N7960 ; DEPOSITION OFF
N7965 G181 D0.25 U0.75
N7970 Y81.1
N7975 ; DEPOSITION ON
N7980 G180 D0.25 U0.75
N7985 X63.5
N7990 ; DEPOSITION OFF
N7995 G181 D0.25 U0.75
N8000 Y84.62
N8005 ; DEPOSITION ON
N8010 G180 D0.25 U0.75
N8015 X127
N8020 ; DEPOSITION OFF
N8025 G181 D0.25 U0.75
N8030 Y88.14
N8035 ; DEPOSITION ON
N8040 G180 D0.25 U0.75
N8045 X63.5
N8050 ; DEPOSITION OFF
N8055 G181 D0.25 U0.75
N8060 Y91.66
N8065 ; DEPOSITION ON
N8070 G180 D0.25 U0.75
N8075 X127
N8080 ; DEPOSITION OFF
N8085 G181 D0.25 U0.75
N8090 G0 X63.5 Y93.76
N8095 ; DEPOSITION ON
N8100 G180 D0.25 U0.75
N8105 G1 X127 F508
N8110 ; DEPOSITION OFF
N8115 G181 D0.25 U0.75
N8120 Y97.28
N8125 ; DEPOSITION ON
N8130 G180 D0.25 U0.75
N8135 X63.5
N8140 ; DEPOSITION OFF
N8145 G181 D0.25 U0.75
N8150 Y100.8
N8155 ; DEPOSITION ON
N8160 G180 D0.25 U0.75
N8165 X127
N8170 ; DEPOSITION OFF
N8175 G181 D0.25 U0.75
N8180 Y104.32
N8185 ; DEPOSITION ON
N8190 G180 D0.25 U0.75
N8195 X63.5
N8200 ; DEPOSITION OFF
N8205 G181 D0.25 U0.75
N8210 Y107.84
N8215 ; DEPOSITION ON
N8220 G180 D0.25 U0.75
N8225 X127
N8230 ; DEPOSITION OFF
N8235 G181 D0.25 U0.75
N8240 Y111.36
N8245 ; DEPOSITION ON
N8250 G180 D0.25 U0.75
N8255 X63.5
N8260 ; DEPOSITION OFF
N8265 G181 D0.25 U0.75
N8270 Y114.88
N8275 ; DEPOSITION ON
N8280 G180 D0.25 U0.75
N8285 X127
N8290 ; DEPOSITION OFF
N8295 G181 D0.25 U0.75
N8300 Y118.4
N8305 ; DEPOSITION ON
N8310 G180 D0.25 U0.75
N8315 X63.5
N8320 ; DEPOSITION OFF
N8325 G181 D0.25 U0.75
N8330 Y121.92
N8335 ; DEPOSITION ON
N8340 G180 D0.25 U0.75
N8345 X127
N8350 G181 D0.25 U0.75
N8355 V.P.layer_num = 18
N8360 P12011=0
N8365 #PCALL decking.nc P1 = V.P.layer_num
N8370 P12012= 18
N8375 P12011=1
N8380 ; LAYER 18  END
N8385 ; DEPOSITION OFF
N8390 G181 D0.25 U0.75
N8395 G0 Z38
N8400 X63.5 Y63.5
N8405 ; LAYER 19 START
N8410 ; DEPOSITION ON
N8415 G180 D0.25 U0.75
N8420 G1 X127 F508
N8425 ; DEPOSITION OFF
N8430 G181 D0.25 U0.75
N8435 Y66.937
N8440 ; DEPOSITION ON
N8445 G180 D0.25 U0.75
N8450 X63.5
N8455 ; DEPOSITION OFF
N8460 G181 D0.25 U0.75
N8465 Y70.373
N8470 ; DEPOSITION ON
N8475 G180 D0.25 U0.75
N8480 X127
N8485 ; DEPOSITION OFF
N8490 G181 D0.25 U0.75
N8495 Y73.809
N8500 ; DEPOSITION ON
N8505 G180 D0.25 U0.75
N8510 X63.5
N8515 ; DEPOSITION OFF
N8520 G181 D0.25 U0.75
N8525 Y77.246
N8530 ; DEPOSITION ON
N8535 G180 D0.25 U0.75
N8540 X127
N8545 ; DEPOSITION OFF
N8550 G181 D0.25 U0.75
N8555 Y80.682
N8560 ; DEPOSITION ON
N8565 G180 D0.25 U0.75
N8570 X63.5
N8575 ; DEPOSITION OFF
N8580 G181 D0.25 U0.75
N8585 Y84.119
N8590 ; DEPOSITION ON
N8595 G180 D0.25 U0.75
N8600 X127
N8605 ; DEPOSITION OFF
N8610 G181 D0.25 U0.75
N8615 Y87.555
N8620 ; DEPOSITION ON
N8625 G180 D0.25 U0.75
N8630 X63.5
N8635 ; DEPOSITION OFF
N8640 G181 D0.25 U0.75
N8645 Y90.992
N8650 ; DEPOSITION ON
N8655 G180 D0.25 U0.75
N8660 X127
N8665 ; DEPOSITION OFF
N8670 G181 D0.25 U0.75
N8675 Y94.428
N8680 ; DEPOSITION ON
N8685 G180 D0.25 U0.75
N8690 X63.5
N8695 ; DEPOSITION OFF
N8700 G181 D0.25 U0.75
N8705 Y97.865
N8710 ; DEPOSITION ON
N8715 G180 D0.25 U0.75
N8720 X127
N8725 ; DEPOSITION OFF
N8730 G181 D0.25 U0.75
N8735 Y101.301
N8740 ; DEPOSITION ON
N8745 G180 D0.25 U0.75
N8750 X63.5
N8755 ; DEPOSITION OFF
N8760 G181 D0.25 U0.75
N8765 Y104.738
N8770 ; DEPOSITION ON
N8775 G180 D0.25 U0.75
N8780 X127
N8785 ; DEPOSITION OFF
N8790 G181 D0.25 U0.75
N8795 Y108.174
N8800 ; DEPOSITION ON
N8805 G180 D0.25 U0.75
N8810 X63.5
N8815 ; DEPOSITION OFF
N8820 G181 D0.25 U0.75
N8825 Y111.611
N8830 ; DEPOSITION ON
N8835 G180 D0.25 U0.75
N8840 X127
N8845 ; DEPOSITION OFF
N8850 G181 D0.25 U0.75
N8855 Y115.047
N8860 ; DEPOSITION ON
N8865 G180 D0.25 U0.75
N8870 X63.5
N8875 ; DEPOSITION OFF
N8880 G181 D0.25 U0.75
N8885 Y118.483
N8890 ; DEPOSITION ON
N8895 G180 D0.25 U0.75
N8900 X127
N8905 ; DEPOSITION OFF
N8910 G181 D0.25 U0.75
N8915 Y121.92
N8920 ; DEPOSITION ON
N8925 G180 D0.25 U0.75
N8930 X63.5
N8935 G181 D0.25 U0.75
N8940 V.P.layer_num = 19
N8945 P12011=0
N8950 #PCALL decking.nc P1 = V.P.layer_num
N8955 P12012= 19
N8960 P12011=1
N8965 ; LAYER 19  END
N8970 ; DEPOSITION OFF
N8975 G181 D0.25 U0.75
N8980 G0 Z48.26
N8985 M5
N8990 #MCS OFF
N8995 G0 G53 Z609.6
N9000 X0 Y0
N9005 A0. C0.
N9010 M30
