; EDITED

depomodel234 
N10 ; MACHINE 
N15 ; VENDOR AUTODESK 
N20 ; MODEL GENERIC DED 
N25 ; DESCRIPTION GENERIC DIRECT ENERGY DEPOSITION MACHINE WITH EXPORT TO SIMULATION AND POWERMILL 
N30 ; T1 D=0 CR=0 - ZMIN=2 - ELECTRIC ARC WIRE 
N35 #MCS OFF 
N40 #CS OFF 
N45 G71 G80 G90 
N50 G17 G40 
N55 G54 
N60 ; PROCESS ON 
N65 ; PROCESS OFF 
N70 ; PROCESS ON 
N75 ; PROCESS OFF

#MCS Z0
N80 G0 G54 
N85 X0 Y0 
N95 ; FEATURE CONSTRUCTION2 
N100 T1 M6 

N110 M3 
N115 G4 K3 
N120 G0 
N125 G54 


N140 D2 
N145 G0 X98.098 Y28.212 
G0 Z10
N155 G1 Z2 F30
N160 ; LAYER 1 START 
N165 ; DEPOSITION ON 
N170 G180 D0.25 U0.75 
N175 G94 G1 X119.539 Y53.764 F508 
N180 X116.962 Y55.926 
N185 X95.521 Y30.374 
N190 X92.944 Y32.537 
N195 X114.385 Y58.089 
N200 X111.807 Y60.252 
N205 X90.367 Y34.699 
N210 X87.789 Y36.862 
N215 X109.23 Y62.414 
N220 X106.653 Y64.577 
N225 X85.212 Y39.025 
N230 X82.635 Y41.187 
N235 X104.076 Y66.739 
N240 ; DEPOSITION OFF 
N245 G181 D0.25 U0.75 
N250 G0 X263.738 Y262.252 
N255 ; DEPOSITION ON 
N260 G180 D0.25 U0.75 
N265 G1 X80.058 Y43.35 F508 
N270 X77.48 Y45.512 
N275 X261.161 Y264.414 
N280 X258.583 Y266.577 
N285 X74.903 Y47.675 
N290 X72.326 Y49.838 
N295 X93.767 Y75.39 
N300 ; DEPOSITION OFF 
N305 G181 D0.25 U0.75 
N310 G0 X237.915 Y247.179 
N315 ; DEPOSITION ON 
N320 G180 D0.25 U0.75 
N325 G1 X256.006 Y268.739 F508 
N330 X253.429 Y270.902 
N335 X235.338 Y249.342 
N340 ; DEPOSITION OFF 
N345 G181 D0.25 U0.75 
N350 G0 X91.189 Y77.552 
N355 ; DEPOSITION ON 
N360 G180 D0.25 U0.75 
N365 G1 X69.749 Y52 F508 
N370 X67.171 Y54.163 
N375 X88.612 Y79.715 
N380 ; DEPOSITION OFF 
N385 G181 D0.25 U0.75 
N390 G0 X232.761 Y251.504 
N395 ; DEPOSITION ON 
N400 G180 D0.25 U0.75 
N405 G1 X250.852 Y273.064 F508 
N410 X248.274 Y275.227 
N415 X230.183 Y253.667 
N420 ; DEPOSITION OFF 
N425 G181 D0.25 U0.75 
N430 G0 X86.035 Y81.877 
N435 ; DEPOSITION ON 
N440 G180 D0.25 U0.75 
N445 G1 X64.594 Y56.325 F508 
N450 X62.017 Y58.488 
N455 X83.458 Y84.04 
N460 ; DEPOSITION OFF 
N465 G181 D0.25 U0.75 
N470 G0 X227.606 Y255.829 
N475 ; DEPOSITION ON 
N480 G180 D0.25 U0.75 
N485 G1 X245.697 Y277.39 F508 
N490 X243.12 Y279.552 
N495 X225.029 Y257.992 
N500 ; DEPOSITION OFF 
N505 G181 D0.25 U0.75 
N510 G0 X80.88 Y86.203 
N515 ; DEPOSITION ON 
N520 G180 D0.25 U0.75 
N525 G1 X59.439 Y60.65 F508 
N530 X56.862 Y62.813 
N535 X78.303 Y88.365 
N540 ; DEPOSITION OFF 
N545 G181 D0.25 U0.75 
N550 G0 X222.451 Y260.155 
N555 ; DEPOSITION ON 
N560 G180 D0.25 U0.75 
N565 G1 X240.543 Y281.715 F508 
N570 X237.965 Y283.877 
N575 X219.874 Y262.317 
N580 ; DEPOSITION OFF 
N585 G181 D0.25 U0.75 
N590 G0 X75.726 Y90.528 
N595 ; DEPOSITION ON 
N600 G180 D0.25 U0.75 
N605 G1 X54.285 Y64.976 F508 
N610 X51.708 Y67.138 
N615 X73.148 Y92.69 
N620 ; DEPOSITION OFF 
N625 G181 D0.25 U0.75 
N630 G0 X217.297 Y264.48 
N635 ; DEPOSITION ON 
N640 G180 D0.25 U0.75 
N645 G1 X235.388 Y286.04 F508 
N650 X232.811 Y288.203 
N655 X214.72 Y266.642 
N660 ; DEPOSITION OFF 
N665 G181 D0.25 U0.75 
N670 G0 X70.571 Y94.853 
N675 ; DEPOSITION ON 
N680 G180 D0.25 U0.75 
N685 G1 X49.13 Y69.301 F508 
N690 X46.553 Y71.463 
N695 X230.234 Y290.365 
N700 X227.656 Y292.528 
N705 X43.976 Y73.626 
N710 X41.399 Y75.788 
N715 X225.079 Y294.69 
N720 X222.502 Y296.853 
N725 X38.821 Y77.951 
N730 X36.244 Y80.114 
N735 X219.924 Y299.015 
N740 ; DEPOSITION OFF 
N745 G181 D0.25 U0.75 
N750 G0 X55.108 Y107.828 
N755 ; DEPOSITION ON 
N760 G180 D0.25 U0.75 
N765 G1 X33.667 Y82.276 F508 
N770 X31.09 Y84.439 
N775 X52.53 Y109.991 
N780 G181 D0.25 U0.75 
N785 V.P.layer_num = 1 
N790 P12011=0 
N795 #PCALL decking.nc P1 = V.P.layer_num 
N800 P12012= 1 
N805 P12011=1 
N810 ; LAYER 1 END 
N815 ; DEPOSITION OFF 
N820 G181 D0.25 U0.75 
N825 G0 Z4 
N830 X98.098 Y28.212 
N835 ; LAYER 2 START 
N840 ; DEPOSITION ON 
N845 G180 D0.25 U0.75 
N850 G1 X119.539 Y53.764 F508 
N855 X116.962 Y55.926 
N860 X95.521 Y30.374 
N865 X92.944 Y32.537 
N870 X114.385 Y58.089 
N875 X111.807 Y60.252 
N880 X90.367 Y34.699 
N885 X87.789 Y36.862 
N890 X109.23 Y62.414 
N895 X106.653 Y64.577 
N900 X85.212 Y39.025 
N905 X82.635 Y41.187 
N910 X104.076 Y66.739 
N915 ; DEPOSITION OFF 
N920 G181 D0.25 U0.75 
N925 G0 X263.738 Y262.252 
N930 ; DEPOSITION ON 
N935 G180 D0.25 U0.75 
N940 G1 X80.058 Y43.35 F508 
N945 X77.48 Y45.512 
N950 X261.161 Y264.414 
N955 X258.583 Y266.577 
N960 X74.903 Y47.675 
N965 X72.326 Y49.838 
N970 X93.767 Y75.39 
N975 ; DEPOSITION OFF 
N980 G181 D0.25 U0.75 
N985 G0 X237.915 Y247.179 
N990 ; DEPOSITION ON 
N995 G180 D0.25 U0.75 
N1000 G1 X256.006 Y268.739 F508 
N1005 X253.429 Y270.902 
N1010 X235.338 Y249.342 
N1015 ; DEPOSITION OFF 
N1020 G181 D0.25 U0.75 
N1025 G0 X91.189 Y77.552 
N1030 ; DEPOSITION ON 
N1035 G180 D0.25 U0.75 
N1040 G1 X69.749 Y52 F508 
N1045 X67.171 Y54.163 
N1050 X88.612 Y79.715 
N1055 ; DEPOSITION OFF 
N1060 G181 D0.25 U0.75 
N1065 G0 X232.761 Y251.504 
N1070 ; DEPOSITION ON 
N1075 G180 D0.25 U0.75 
N1080 G1 X250.852 Y273.064 F508 
N1085 X248.274 Y275.227 
N1090 X230.183 Y253.667 
N1095 ; DEPOSITION OFF 
N1100 G181 D0.25 U0.75 
N1105 G0 X86.035 Y81.877 
N1110 ; DEPOSITION ON 
N1115 G180 D0.25 U0.75 
N1120 G1 X64.594 Y56.325 F508 
N1125 X62.017 Y58.488 
N1130 X83.458 Y84.04 
N1135 ; DEPOSITION OFF 
N1140 G181 D0.25 U0.75 
N1145 G0 X227.606 Y255.829 
N1150 ; DEPOSITION ON 
N1155 G180 D0.25 U0.75 
N1160 G1 X245.697 Y277.39 F508 
N1165 X243.12 Y279.552 
N1170 X225.029 Y257.992 
N1175 ; DEPOSITION OFF 
N1180 G181 D0.25 U0.75 
N1185 G0 X80.88 Y86.203 
N1190 ; DEPOSITION ON 
N1195 G180 D0.25 U0.75 
N1200 G1 X59.439 Y60.65 F508 
N1205 X56.862 Y62.813 
N1210 X78.303 Y88.365 
N1215 ; DEPOSITION OFF 
N1220 G181 D0.25 U0.75 
N1225 G0 X222.451 Y260.155 
N1230 ; DEPOSITION ON 
N1235 G180 D0.25 U0.75 
N1240 G1 X240.543 Y281.715 F508 
N1245 X237.965 Y283.877 
N1250 X219.874 Y262.317 
N1255 ; DEPOSITION OFF 
N1260 G181 D0.25 U0.75 
N1265 G0 X75.726 Y90.528 
N1270 ; DEPOSITION ON 
N1275 G180 D0.25 U0.75 
N1280 G1 X54.285 Y64.976 F508 
N1285 X51.708 Y67.138 
N1290 X73.148 Y92.69 
N1295 ; DEPOSITION OFF 
N1300 G181 D0.25 U0.75 
N1305 G0 X217.297 Y264.48 
N1310 ; DEPOSITION ON 
N1315 G180 D0.25 U0.75 
N1320 G1 X235.388 Y286.04 F508 
N1325 X232.811 Y288.203 
N1330 X214.72 Y266.642 
N1335 ; DEPOSITION OFF 
N1340 G181 D0.25 U0.75 
N1345 G0 X70.571 Y94.853 
N1350 ; DEPOSITION ON 
N1355 G180 D0.25 U0.75 
N1360 G1 X49.13 Y69.301 F508 
N1365 X46.553 Y71.463 
N1370 X230.234 Y290.365 
N1375 X227.656 Y292.528 
N1380 X43.976 Y73.626 
N1385 X41.399 Y75.788 
N1390 X225.079 Y294.69 
N1395 X222.502 Y296.853 
N1400 X38.821 Y77.951 
N1405 X36.244 Y80.114 
N1410 X219.924 Y299.015 
N1415 ; DEPOSITION OFF 
N1420 G181 D0.25 U0.75 
N1425 G0 X55.108 Y107.828 
N1430 ; DEPOSITION ON 
N1435 G180 D0.25 U0.75 
N1440 G1 X33.667 Y82.276 F508 
N1445 X31.09 Y84.439 
N1450 X52.53 Y109.991 
N1455 G181 D0.25 U0.75 
N1460 V.P.layer_num = 2 
N1465 P12011=0 
N1470 #PCALL decking.nc P1 = V.P.layer_num 
N1475 P12012= 2 
N1480 P12011=1 
N1485 ; LAYER 2 END 
N1490 ; DEPOSITION OFF 
N1495 G181 D0.25 U0.75 
N1500 G0 Z6 
N1505 X98.098 Y28.212 
N1510 ; LAYER 3 START 
N1515 ; DEPOSITION ON 
N1520 G180 D0.25 U0.75 
N1525 G1 X119.539 Y53.764 F508 
N1530 X116.962 Y55.926 
N1535 X95.521 Y30.374 
N1540 X92.944 Y32.537 
N1545 X114.385 Y58.089 
N1550 X111.807 Y60.252 
N1555 X90.367 Y34.7 
N1560 X87.789 Y36.862 
N1565 X109.23 Y62.414 
N1570 X106.653 Y64.577 
N1575 X85.212 Y39.025 
N1580 X82.635 Y41.187 
N1585 X104.076 Y66.739 
N1590 ; DEPOSITION OFF 
N1595 G181 D0.25 U0.75 
N1600 G0 X263.738 Y262.252 
N1605 ; DEPOSITION ON 
N1610 G180 D0.25 U0.75 
N1615 G1 X80.058 Y43.35 F508 
N1620 X77.48 Y45.512 
N1625 X261.161 Y264.414 
N1630 X258.583 Y266.577 
N1635 X74.903 Y47.675 
N1640 X72.326 Y49.838 
N1645 X93.767 Y75.39 
N1650 ; DEPOSITION OFF 
N1655 G181 D0.25 U0.75 
N1660 G0 X237.915 Y247.179 
N1665 ; DEPOSITION ON 
N1670 G180 D0.25 U0.75 
N1675 G1 X256.006 Y268.739 F508 
N1680 X253.429 Y270.902 
N1685 X235.338 Y249.342 
N1690 ; DEPOSITION OFF 
N1695 G181 D0.25 U0.75 
N1700 G0 X91.189 Y77.552 
N1705 ; DEPOSITION ON 
N1710 G180 D0.25 U0.75 
N1715 G1 X69.749 Y52 F508 
N1720 X67.171 Y54.163 
N1725 X88.612 Y79.715 
N1730 ; DEPOSITION OFF 
N1735 G181 D0.25 U0.75 
N1740 G0 X232.761 Y251.504 
N1745 ; DEPOSITION ON 
N1750 G180 D0.25 U0.75 
N1755 G1 X250.852 Y273.064 F508 
N1760 X248.274 Y275.227 
N1765 X230.183 Y253.667 
N1770 ; DEPOSITION OFF 
N1775 G181 D0.25 U0.75 
N1780 G0 X86.035 Y81.877 
N1785 ; DEPOSITION ON 
N1790 G180 D0.25 U0.75 
N1795 G1 X64.594 Y56.325 F508 
N1800 X62.017 Y58.488 
N1805 X83.458 Y84.04 
N1810 ; DEPOSITION OFF 
N1815 G181 D0.25 U0.75 
N1820 G0 X227.606 Y255.829 
N1825 ; DEPOSITION ON 
N1830 G180 D0.25 U0.75 
N1835 G1 X245.697 Y277.39 F508 
N1840 X243.12 Y279.552 
N1845 X225.029 Y257.992 
N1850 ; DEPOSITION OFF 
N1855 G181 D0.25 U0.75 
N1860 G0 X80.88 Y86.203 
N1865 ; DEPOSITION ON 
N1870 G180 D0.25 U0.75 
N1875 G1 X59.439 Y60.65 F508 
N1880 X56.862 Y62.813 
N1885 X78.303 Y88.365 
N1890 ; DEPOSITION OFF 
N1895 G181 D0.25 U0.75 
N1900 G0 X222.451 Y260.155 
N1905 ; DEPOSITION ON 
N1910 G180 D0.25 U0.75 
N1915 G1 X240.543 Y281.715 F508 
N1920 X237.965 Y283.877 
N1925 X219.874 Y262.317 
N1930 ; DEPOSITION OFF 
N1935 G181 D0.25 U0.75 
N1940 G0 X75.726 Y90.528 
N1945 ; DEPOSITION ON 
N1950 G180 D0.25 U0.75 
N1955 G1 X54.285 Y64.976 F508 
N1960 X51.708 Y67.138 
N1965 X73.148 Y92.69 
N1970 ; DEPOSITION OFF 
N1975 G181 D0.25 U0.75 
N1980 G0 X217.297 Y264.48 
N1985 ; DEPOSITION ON 
N1990 G180 D0.25 U0.75 
N1995 G1 X235.388 Y286.04 F508 
N2000 X232.811 Y288.203 
N2005 X214.72 Y266.642 
N2010 ; DEPOSITION OFF 
N2015 G181 D0.25 U0.75 
N2020 G0 X70.571 Y94.853 
N2025 ; DEPOSITION ON 
N2030 G180 D0.25 U0.75 
N2035 G1 X49.13 Y69.301 F508 
N2040 X46.553 Y71.463 
N2045 X230.234 Y290.365 
N2050 X227.656 Y292.528 
N2055 X43.976 Y73.626 
N2060 X41.399 Y75.788 
N2065 X225.079 Y294.69 
N2070 X222.502 Y296.853 
N2075 X38.821 Y77.951 
N2080 X36.244 Y80.114 
N2085 X219.924 Y299.015 
N2090 ; DEPOSITION OFF 
N2095 G181 D0.25 U0.75 
N2100 G0 X55.108 Y107.828 
N2105 ; DEPOSITION ON 
N2110 G180 D0.25 U0.75 
N2115 G1 X33.667 Y82.276 F508 
N2120 X31.09 Y84.439 
N2125 X52.53 Y109.991 
N2130 G181 D0.25 U0.75 
N2135 V.P.layer_num = 3 
N2140 P12011=0 
N2145 #PCALL decking.nc P1 = V.P.layer_num 
N2150 P12012= 3 
N2155 P12011=1 
N2160 ; LAYER 3 END 
N2165 ; DEPOSITION OFF 
N2170 G181 D0.25 U0.75 
N2175 G0 Z8 
N2180 X97.258 Y27.788 
N2185 ; LAYER 4 START 
N2190 ; DEPOSITION ON 
N2195 G180 D0.25 U0.75 
N2200 G1 X119.255 Y54.002 F508 
N2205 X116.699 Y56.147 
N2210 X94.703 Y29.932 
N2215 X92.147 Y32.076 
N2220 X114.144 Y58.291 
N2225 X111.589 Y60.435 
N2230 X89.592 Y34.221 
N2235 X87.037 Y36.365 
N2240 X109.033 Y62.579 
N2245 X106.478 Y64.724 
N2250 X84.481 Y38.509 
N2255 X81.926 Y40.653 
N2260 X103.923 Y66.868 
N2265 ; DEPOSITION OFF 
N2270 G181 D0.25 U0.75 
N2275 G0 X263.607 Y262.362 
N2280 ; DEPOSITION ON 
N2285 G180 D0.25 U0.75 
N2290 G1 X79.371 Y42.798 F508 
N2295 X76.815 Y44.942 
N2300 X261.051 Y264.506 
N2305 X258.496 Y266.65 
N2310 X74.26 Y47.086 
N2315 X71.704 Y49.23 
N2320 X93.701 Y75.445 
N2325 ; DEPOSITION OFF 
N2330 G181 D0.25 U0.75 
N2335 G0 X237.849 Y247.234 
N2340 ; DEPOSITION ON 
N2345 G180 D0.25 U0.75 
N2350 G1 X255.941 Y268.794 F508 
N2355 X253.385 Y270.939 
N2360 X235.294 Y249.378 
N2365 ; DEPOSITION OFF 
N2370 G181 D0.25 U0.75 
N2375 G0 X91.146 Y77.589 
N2380 ; DEPOSITION ON 
N2385 G180 D0.25 U0.75 
N2390 G1 X69.149 Y51.374 F508 
N2395 X66.594 Y53.519 
N2400 X88.59 Y79.733 
N2405 ; DEPOSITION OFF 
N2410 G181 D0.25 U0.75 
N2415 G0 X232.739 Y251.523 
N2420 ; DEPOSITION ON 
N2425 G180 D0.25 U0.75 
N2430 G1 X250.83 Y273.083 F508 
N2435 X248.274 Y275.227 
N2440 X230.183 Y253.667 
N2445 ; DEPOSITION OFF 
N2450 G181 D0.25 U0.75 
N2455 G0 X86.035 Y81.877 
N2460 ; DEPOSITION ON 
N2465 G180 D0.25 U0.75 
N2470 G1 X64.038 Y55.663 F508 
N2475 X61.483 Y57.807 
N2480 X83.479 Y84.022 
N2485 ; DEPOSITION OFF 
N2490 G181 D0.25 U0.75 
N2495 G0 X227.628 Y255.811 
N2500 ; DEPOSITION ON 
N2505 G180 D0.25 U0.75 
N2510 G1 X245.719 Y277.371 F508 
N2515 X243.164 Y279.516 
N2520 X225.072 Y257.955 
N2525 ; DEPOSITION OFF 
N2530 G181 D0.25 U0.75 
N2535 G0 X80.924 Y86.166 
N2540 ; DEPOSITION ON 
N2545 G180 D0.25 U0.75 
N2550 G1 X58.927 Y59.951 F508 
N2555 X56.372 Y62.096 
N2560 X78.369 Y88.31 
N2565 ; DEPOSITION OFF 
N2570 G181 D0.25 U0.75 
N2575 G0 X222.517 Y260.1 
N2580 ; DEPOSITION ON 
N2585 G180 D0.25 U0.75 
N2590 G1 X240.608 Y281.66 F508 
N2595 X238.053 Y283.804 
N2600 X219.962 Y262.244 
N2605 ; DEPOSITION OFF 
N2610 G181 D0.25 U0.75 
N2615 G0 X75.813 Y90.454 
N2620 ; DEPOSITION ON 
N2625 G180 D0.25 U0.75 
N2630 G1 X53.817 Y64.24 F508 
N2635 X51.261 Y66.384 
N2640 X73.258 Y92.599 
N2645 ; DEPOSITION OFF 
N2650 G181 D0.25 U0.75 
N2655 G0 X217.406 Y264.388 
N2660 ; DEPOSITION ON 
N2665 G180 D0.25 U0.75 
N2670 G1 X235.497 Y285.948 F508 
N2675 X232.942 Y288.092 
N2680 X214.851 Y266.532 
N2685 ; DEPOSITION OFF 
N2690 G181 D0.25 U0.75 
N2695 G0 X70.702 Y94.743 
N2700 ; DEPOSITION ON 
N2705 G180 D0.25 U0.75 
N2710 G1 X48.706 Y68.528 F508 
N2715 X46.15 Y70.672 
N2720 X230.387 Y290.237 
N2725 X227.831 Y292.381 
N2730 X43.595 Y72.817 
N2735 X41.04 Y74.961 
N2740 X225.276 Y294.525 
N2745 X222.72 Y296.669 
N2750 X38.484 Y77.105 
N2755 X35.929 Y79.249 
N2760 X220.165 Y298.814 
N2765 ; DEPOSITION OFF 
N2770 G181 D0.25 U0.75 
N2775 G0 X55.37 Y107.608 
N2780 ; DEPOSITION ON 
N2785 G180 D0.25 U0.75 
N2790 G1 X33.374 Y81.394 F508 
N2795 X30.818 Y83.538 
N2800 X52.815 Y109.752 
N2805 G181 D0.25 U0.75 
N2810 V.P.layer_num = 4 
N2815 P12011=0 
N2820 #PCALL decking.nc P1 = V.P.layer_num 
N2825 P12012= 4 
N2830 P12011=1 
N2835 ; LAYER 4 END 
N2840 ; DEPOSITION OFF 
N2845 G181 D0.25 U0.75 
N2850 G0 Z10 
N2855 X96.799 Y27.045 
N2860 ; LAYER 5 START 
N2865 ; DEPOSITION ON 
N2870 G180 D0.25 U0.75 
N2875 G1 X119.351 Y53.921 F508 
N2880 X116.788 Y56.072 
N2885 X94.236 Y29.195 
N2890 X91.673 Y31.346 
N2895 X114.226 Y58.222 
N2900 X111.663 Y60.373 
N2905 X89.11 Y33.496 
N2910 X86.548 Y35.647 
N2915 X109.1 Y62.523 
N2920 X106.537 Y64.674 
N2925 X83.985 Y37.797 
N2930 X81.422 Y39.947 
N2935 X103.974 Y66.824 
N2940 ; DEPOSITION OFF 
N2945 G181 D0.25 U0.75 
N2950 G0 X263.651 Y262.324 
N2955 ; DEPOSITION ON 
N2960 G180 D0.25 U0.75 
N2965 G1 X78.859 Y42.098 F508 
N2970 X76.296 Y44.248 
N2975 X261.088 Y264.475 
N2980 X258.526 Y266.625 
N2985 X73.734 Y46.399 
N2990 X71.171 Y48.549 
N2995 X93.723 Y75.426 
N3000 ; DEPOSITION OFF 
N3005 G181 D0.25 U0.75 
N3010 G0 X237.872 Y247.216 
N3015 ; DEPOSITION ON 
N3020 G180 D0.25 U0.75 
N3025 G1 X255.963 Y268.776 F508 
N3030 X253.4 Y270.926 
N3035 X235.309 Y249.366 
N3040 ; DEPOSITION OFF 
N3045 G181 D0.25 U0.75 
N3050 G0 X91.16 Y77.577 
N3055 ; DEPOSITION ON 
N3060 G180 D0.25 U0.75 
N3065 G1 X68.608 Y50.7 F508 
N3070 X66.045 Y52.85 
N3075 X88.598 Y79.727 
N3080 ; DEPOSITION OFF 
N3085 G181 D0.25 U0.75 
N3090 G0 X232.746 Y251.516 
N3095 ; DEPOSITION ON 
N3100 G180 D0.25 U0.75 
N3105 G1 X250.837 Y273.077 F508 
N3110 X248.274 Y275.227 
N3115 X230.183 Y253.667 
N3120 ; DEPOSITION OFF 
N3125 G181 D0.25 U0.75 
N3130 G0 X86.035 Y81.877 
N3135 ; DEPOSITION ON 
N3140 G180 D0.25 U0.75 
N3145 G1 X63.482 Y55 F508 
N3150 X60.92 Y57.151 
N3155 X83.472 Y84.028 
N3160 ; DEPOSITION OFF 
N3165 G181 D0.25 U0.75 
N3170 G0 X227.62 Y255.817 
N3175 ; DEPOSITION ON 
N3180 G180 D0.25 U0.75 
N3185 G1 X245.712 Y277.378 F508 
N3190 X243.149 Y279.528 
N3195 X225.058 Y257.968 
N3200 ; DEPOSITION OFF 
N3205 G181 D0.25 U0.75 
N3210 G0 X80.909 Y86.178 
N3215 ; DEPOSITION ON 
N3220 G180 D0.25 U0.75 
N3225 G1 X58.357 Y59.301 F508 
N3230 X55.794 Y61.452 
N3235 X78.346 Y88.329 
N3240 ; DEPOSITION OFF 
N3245 G181 D0.25 U0.75 
N3250 G0 X222.495 Y260.118 
N3255 ; DEPOSITION ON 
N3260 G180 D0.25 U0.75 
N3265 G1 X240.586 Y281.678 F508 
N3270 X238.023 Y283.829 
N3275 X219.932 Y262.269 
N3280 ; DEPOSITION OFF 
N3285 G181 D0.25 U0.75 
N3290 G0 X75.784 Y90.479 
N3295 ; DEPOSITION ON 
N3300 G180 D0.25 U0.75 
N3305 G1 X53.231 Y63.602 F508 
N3310 X50.668 Y65.753 
N3315 X73.221 Y92.63 
N3320 ; DEPOSITION OFF 
N3325 G181 D0.25 U0.75 
N3330 G0 X217.369 Y264.419 
N3335 ; DEPOSITION ON 
N3340 G180 D0.25 U0.75 
N3345 G1 X235.46 Y285.979 F508 
N3350 X232.898 Y288.13 
N3355 X214.806 Y266.57 
N3360 ; DEPOSITION OFF 
N3365 G181 D0.25 U0.75 
N3370 G0 X70.658 Y94.78 
N3375 ; DEPOSITION ON 
N3380 G180 D0.25 U0.75 
N3385 G1 X48.106 Y67.903 F508 
N3390 X45.543 Y70.054 
N3395 X230.335 Y290.28 
N3400 X227.772 Y292.431 
N3405 X42.98 Y72.204 
N3410 X40.417 Y74.355 
N3415 X225.209 Y294.581 
N3420 X222.646 Y296.732 
N3425 X37.854 Y76.505 
N3430 X35.292 Y78.655 
N3435 X220.084 Y298.882 
N3440 ; DEPOSITION OFF 
N3445 G181 D0.25 U0.75 
N3450 G0 X55.281 Y107.683 
N3455 ; DEPOSITION ON 
N3460 G180 D0.25 U0.75 
N3465 G1 X32.729 Y80.806 F508 
N3470 X30.166 Y82.956 
N3475 X52.718 Y109.833 
N3480 G181 D0.25 U0.75 
N3485 V.P.layer_num = 5 
N3490 P12011=0 
N3495 #PCALL decking.nc P1 = V.P.layer_num 
N3500 P12012= 5 
N3505 P12011=1 
N3510 ; LAYER 5 END 
N3515 ; DEPOSITION OFF 
N3520 G181 D0.25 U0.75 
N3525 G0 Z12 
N3530 X96.339 Y26.302 
N3535 ; LAYER 6 START 
N3540 ; DEPOSITION ON 
N3545 G180 D0.25 U0.75 
N3550 G1 X119.447 Y53.841 F508 
N3555 X116.877 Y55.997 
N3560 X93.769 Y28.458 
N3565 X91.199 Y30.615 
N3570 X114.307 Y58.154 
N3575 X111.737 Y60.311 
N3580 X88.629 Y32.772 
N3585 X86.059 Y34.928 
N3590 X109.167 Y62.467 
N3595 X106.596 Y64.624 
N3600 X83.488 Y37.085 
N3605 X80.918 Y39.241 
N3610 X104.026 Y66.781 
N3615 ; DEPOSITION OFF 
N3620 G181 D0.25 U0.75 
N3625 G0 X263.696 Y262.287 
N3630 ; DEPOSITION ON 
N3635 G180 D0.25 U0.75 
N3640 G1 X78.348 Y41.398 F508 
N3645 X75.778 Y43.555 
N3650 X261.125 Y264.444 
N3655 X258.555 Y266.6 
N3660 X73.207 Y45.711 
N3665 X70.637 Y47.868 
N3670 X93.745 Y75.407 
N3675 ; DEPOSITION OFF 
N3680 G181 D0.25 U0.75 
N3685 G0 X237.894 Y247.197 
N3690 ; DEPOSITION ON 
N3695 G180 D0.25 U0.75 
N3700 G1 X255.985 Y268.757 F508 
N3705 X253.415 Y270.914 
N3710 X235.324 Y249.354 
N3715 ; DEPOSITION OFF 
N3720 G181 D0.25 U0.75 
N3725 G0 X91.175 Y77.564 
N3730 ; DEPOSITION ON 
N3735 G180 D0.25 U0.75 
N3740 G1 X68.067 Y50.025 F508 
N3745 X65.497 Y52.181 
N3750 X88.605 Y79.721 
N3755 ; DEPOSITION OFF 
N3760 G181 D0.25 U0.75 
N3765 G0 X232.753 Y251.51 
N3770 ; DEPOSITION ON 
N3775 G180 D0.25 U0.75 
N3780 G1 X250.845 Y273.07 F508 
N3785 X248.274 Y275.227 
N3790 X230.183 Y253.667 
N3795 ; DEPOSITION OFF 
N3800 G181 D0.25 U0.75 
N3805 G0 X86.035 Y81.877 
N3810 ; DEPOSITION ON 
N3815 G180 D0.25 U0.75 
N3820 G1 X62.927 Y54.338 F508 
N3825 X60.356 Y56.495 
N3830 X83.465 Y84.034 
N3835 ; DEPOSITION OFF 
N3840 G181 D0.25 U0.75 
N3845 G0 X227.613 Y255.824 
N3850 ; DEPOSITION ON 
N3855 G180 D0.25 U0.75 
N3860 G1 X245.704 Y277.384 F508 
N3865 X243.134 Y279.54 
N3870 X225.043 Y257.98 
N3875 ; DEPOSITION OFF 
N3880 G181 D0.25 U0.75 
N3885 G0 X80.894 Y86.191 
N3890 ; DEPOSITION ON 
N3895 G180 D0.25 U0.75 
N3900 G1 X57.786 Y58.651 F508 
N3905 X55.216 Y60.808 
N3910 X78.324 Y88.347 
N3915 ; DEPOSITION OFF 
N3920 G181 D0.25 U0.75 
N3925 G0 X222.473 Y260.137 
N3930 ; DEPOSITION ON 
N3935 G180 D0.25 U0.75 
N3940 G1 X240.564 Y281.697 F508 
N3945 X237.994 Y283.854 
N3950 X219.902 Y262.294 
N3955 ; DEPOSITION OFF 
N3960 G181 D0.25 U0.75 
N3965 G0 X75.754 Y90.504 
N3970 ; DEPOSITION ON 
N3975 G180 D0.25 U0.75 
N3980 G1 X52.646 Y62.965 F508 
N3985 X50.075 Y65.121 
N3990 X73.184 Y92.661 
N3995 ; DEPOSITION OFF 
N4000 G181 D0.25 U0.75 
N4005 G0 X217.332 Y264.45 
N4010 ; DEPOSITION ON 
N4015 G180 D0.25 U0.75 
N4020 G1 X235.423 Y286.01 F508 
N4025 X232.853 Y288.167 
N4030 X214.762 Y266.607 
N4035 ; DEPOSITION OFF 
N4040 G181 D0.25 U0.75 
N4045 G0 X70.614 Y94.817 
N4050 ; DEPOSITION ON 
N4055 G180 D0.25 U0.75 
N4060 G1 X47.505 Y67.278 F508 
N4065 X44.935 Y69.435 
N4070 X230.283 Y290.324 
N4075 X227.713 Y292.48 
N4080 X42.365 Y71.591 
N4085 X39.795 Y73.748 
N4090 X225.142 Y294.637 
N4095 X222.572 Y296.794 
N4100 X37.224 Y75.905 
N4105 X34.654 Y78.061 
N4110 X220.002 Y298.95 
N4115 ; DEPOSITION OFF 
N4120 G181 D0.25 U0.75 
N4125 G0 X55.192 Y107.757 
N4130 ; DEPOSITION ON 
N4135 G180 D0.25 U0.75 
N4140 G1 X32.084 Y80.218 F508 
N4145 X29.514 Y82.375 
N4150 X52.622 Y109.914 
N4155 G181 D0.25 U0.75 
N4160 V.P.layer_num = 6 
N4165 P12011=0 
N4170 #PCALL decking.nc P1 = V.P.layer_num 
N4175 P12012= 6 
N4180 P12011=1 
N4185 ; LAYER 6 END 
N4190 ; DEPOSITION OFF 
N4195 G181 D0.25 U0.75 
N4200 G0 Z14 
N4205 X95.88 Y25.558 
N4210 ; LAYER 7 START 
N4215 ; DEPOSITION ON 
N4220 G180 D0.25 U0.75 
N4225 G1 X119.544 Y53.76 F508 
N4230 X116.966 Y55.923 
N4235 X93.302 Y27.721 
N4240 X90.725 Y29.884 
N4245 X114.389 Y58.086 
N4250 X111.811 Y60.248 
N4255 X88.147 Y32.047 
N4260 X85.569 Y34.21 
N4265 X109.233 Y62.411 
N4270 X106.656 Y64.574 
N4275 X82.992 Y36.373 
N4280 X80.414 Y38.536 
N4285 X104.078 Y66.737 
N4290 ; DEPOSITION OFF 
N4295 G181 D0.25 U0.75 
N4300 G0 X263.74 Y262.25 
N4305 ; DEPOSITION ON 
N4310 G180 D0.25 U0.75 
N4315 G1 X77.837 Y40.698 F508 
N4320 X75.259 Y42.861 
N4325 X261.163 Y264.413 
N4330 X258.585 Y266.576 
N4335 X72.681 Y45.024 
N4340 X70.104 Y47.187 
N4345 X93.768 Y75.389 
N4350 ; DEPOSITION OFF 
N4355 G181 D0.25 U0.75 
N4360 G0 X237.916 Y247.178 
N4365 ; DEPOSITION ON 
N4370 G180 D0.25 U0.75 
N4375 G1 X256.007 Y268.738 F508 
N4380 X253.43 Y270.901 
N4385 X235.339 Y249.341 
N4390 ; DEPOSITION OFF 
N4395 G181 D0.25 U0.75 
N4400 G0 X91.19 Y77.552 
N4405 ; DEPOSITION ON 
N4410 G180 D0.25 U0.75 
N4415 G1 X67.526 Y49.35 F508 
N4420 X64.948 Y51.513 
N4425 X88.612 Y79.715 
N4430 ; DEPOSITION OFF 
N4435 G181 D0.25 U0.75 
N4440 G0 X232.761 Y251.504 
N4445 ; DEPOSITION ON 
N4450 G180 D0.25 U0.75 
N4455 G1 X250.852 Y273.064 F508 
N4460 X248.274 Y275.227 
N4465 X230.183 Y253.667 
N4470 ; DEPOSITION OFF 
N4475 G181 D0.25 U0.75 
N4480 G0 X86.035 Y81.877 
N4485 ; DEPOSITION ON 
N4490 G180 D0.25 U0.75 
N4495 G1 X62.371 Y53.676 F508 
N4500 X59.793 Y55.839 
N4505 X83.457 Y84.04 
N4510 ; DEPOSITION OFF 
N4515 G181 D0.25 U0.75 
N4520 G0 X227.606 Y255.83 
N4525 ; DEPOSITION ON 
N4530 G180 D0.25 U0.75 
N4535 G1 X245.697 Y277.39 F508 
N4540 X243.119 Y279.553 
N4545 X225.028 Y257.993 
N4550 ; DEPOSITION OFF 
N4555 G181 D0.25 U0.75 
N4560 G0 X80.88 Y86.203 
N4565 ; DEPOSITION ON 
N4570 G180 D0.25 U0.75 
N4575 G1 X57.215 Y58.001 F508 
N4580 X54.638 Y60.164 
N4585 X78.302 Y88.366 
N4590 ; DEPOSITION OFF 
N4595 G181 D0.25 U0.75 
N4600 G0 X222.45 Y260.156 
N4605 ; DEPOSITION ON 
N4610 G180 D0.25 U0.75 
N4615 G1 X240.542 Y281.716 F508 
N4620 X237.964 Y283.879 
N4625 X219.873 Y262.318 
N4630 ; DEPOSITION OFF 
N4635 G181 D0.25 U0.75 
N4640 G0 X75.724 Y90.529 
N4645 ; DEPOSITION ON 
N4650 G180 D0.25 U0.75 
N4655 G1 X52.06 Y62.327 F508 
N4660 X49.483 Y64.49 
N4665 X73.147 Y92.692 
N4670 ; DEPOSITION OFF 
N4675 G181 D0.25 U0.75 
N4680 G0 X217.295 Y264.481 
N4685 ; DEPOSITION ON 
N4690 G180 D0.25 U0.75 
N4695 G1 X235.386 Y286.041 F508 
N4700 X232.809 Y288.204 
N4705 X214.717 Y266.644 
N4710 ; DEPOSITION OFF 
N4715 G181 D0.25 U0.75 
N4720 G0 X70.569 Y94.855 
N4725 ; DEPOSITION ON 
N4730 G180 D0.25 U0.75 
N4735 G1 X46.905 Y66.653 F508 
N4740 X44.327 Y68.816 
N4745 X230.231 Y290.367 
N4750 X227.653 Y292.53 
N4755 X41.75 Y70.979 
N4760 X39.172 Y73.142 
N4765 X225.076 Y294.693 
N4770 X222.498 Y296.856 
N4775 X36.594 Y75.305 
N4780 X34.017 Y77.467 
N4785 X219.92 Y299.019 
N4790 ; DEPOSITION OFF 
N4795 G181 D0.25 U0.75 
N4800 G0 X55.103 Y107.832 
N4805 ; DEPOSITION ON 
N4810 G180 D0.25 U0.75 
N4815 G1 X31.439 Y79.63 F508 
N4820 X28.862 Y81.793 
N4825 X52.526 Y109.995 
N4830 G181 D0.25 U0.75 
N4835 V.P.layer_num = 7 
N4840 P12011=0 
N4845 #PCALL decking.nc P1 = V.P.layer_num 
N4850 P12012= 7 
N4855 P12011=1 
N4860 ; LAYER 7 END 
N4865 ; DEPOSITION OFF 
N4870 G181 D0.25 U0.75 
N4875 G0 Z16 
N4880 X95.043 Y25.132 
N4885 ; LAYER 8 START 
N4890 ; DEPOSITION ON 
N4895 G180 D0.25 U0.75 
N4900 G1 X119.263 Y53.996 F508 
N4905 X116.707 Y56.14 
N4910 X92.487 Y27.277 
N4915 X89.931 Y29.421 
N4920 X114.151 Y58.285 
N4925 X111.595 Y60.43 
N4930 X87.375 Y31.566 
N4935 X84.819 Y33.711 
N4940 X109.039 Y62.575 
N4945 X106.483 Y64.72 
N4950 X82.263 Y35.856 
N4955 X79.707 Y38 
N4960 X103.927 Y66.864 
N4965 ; DEPOSITION OFF 
N4970 G181 D0.25 U0.75 
N4975 G0 X263.61 Y262.359 
N4980 ; DEPOSITION ON 
N4985 G180 D0.25 U0.75 
N4990 G1 X77.151 Y40.145 F508 
N4995 X74.595 Y42.29 
N5000 X261.054 Y264.503 
N5005 X258.498 Y266.648 
N5010 X72.039 Y44.434 
N5015 X69.483 Y46.579 
N5020 X93.703 Y75.443 
N5025 ; DEPOSITION OFF 
N5030 G181 D0.25 U0.75 
N5035 G0 X237.851 Y247.233 
N5040 ; DEPOSITION ON 
N5045 G180 D0.25 U0.75 
N5050 G1 X255.942 Y268.793 F508 
N5055 X253.386 Y270.938 
N5060 X235.295 Y249.377 
N5065 ; DEPOSITION OFF 
N5070 G181 D0.25 U0.75 
N5075 G0 X91.147 Y77.588 
N5080 ; DEPOSITION ON 
N5085 G180 D0.25 U0.75 
N5090 G1 X66.927 Y48.724 F508 
N5095 X64.371 Y50.869 
N5100 X88.591 Y79.733 
N5105 ; DEPOSITION OFF 
N5110 G181 D0.25 U0.75 
N5115 G0 X232.739 Y251.522 
N5120 ; DEPOSITION ON 
N5125 G180 D0.25 U0.75 
N5130 G1 X250.83 Y273.082 F508 
N5135 X248.274 Y275.227 
N5140 X230.183 Y253.667 
N5145 ; DEPOSITION OFF 
N5150 G181 D0.25 U0.75 
N5155 G0 X86.035 Y81.877 
N5160 ; DEPOSITION ON 
N5165 G180 D0.25 U0.75 
N5170 G1 X61.815 Y53.013 F508 
N5175 X59.259 Y55.158 
N5180 X83.479 Y84.022 
N5185 ; DEPOSITION OFF 
N5190 G181 D0.25 U0.75 
N5195 G0 X227.627 Y255.812 
N5200 ; DEPOSITION ON 
N5205 G180 D0.25 U0.75 
N5210 G1 X245.718 Y277.372 F508 
N5215 X243.162 Y279.517 
N5220 X225.071 Y257.956 
N5225 ; DEPOSITION OFF 
N5230 G181 D0.25 U0.75 
N5235 G0 X80.923 Y86.167 
N5240 ; DEPOSITION ON 
N5245 G180 D0.25 U0.75 
N5250 G1 X56.703 Y57.303 F508 
N5255 X54.147 Y59.448 
N5260 X78.367 Y88.312 
N5265 ; DEPOSITION OFF 
N5270 G181 D0.25 U0.75 
N5275 G0 X222.515 Y260.101 
N5280 ; DEPOSITION ON 
N5285 G180 D0.25 U0.75 
N5290 G1 X240.606 Y281.661 F508 
N5295 X238.05 Y283.806 
N5300 X219.959 Y262.246 
N5305 ; DEPOSITION OFF 
N5310 G181 D0.25 U0.75 
N5315 G0 X75.811 Y90.456 
N5320 ; DEPOSITION ON 
N5325 G180 D0.25 U0.75 
N5330 G1 X51.591 Y61.592 F508 
N5335 X49.035 Y63.737 
N5340 X73.255 Y92.601 
N5345 ; DEPOSITION OFF 
N5350 G181 D0.25 U0.75 
N5355 G0 X217.403 Y264.391 
N5360 ; DEPOSITION ON 
N5365 G180 D0.25 U0.75 
N5370 G1 X235.494 Y285.951 F508 
N5375 X232.938 Y288.095 
N5380 X214.847 Y266.535 
N5385 ; DEPOSITION OFF 
N5390 G181 D0.25 U0.75 
N5395 G0 X70.699 Y94.746 
N5400 ; DEPOSITION ON 
N5405 G180 D0.25 U0.75 
N5410 G1 X46.479 Y65.882 F508 
N5415 X43.923 Y68.026 
N5420 X230.382 Y290.24 
N5425 X227.826 Y292.385 
N5430 X41.367 Y70.171 
N5435 X38.811 Y72.316 
N5440 X225.27 Y294.53 
N5445 X222.714 Y296.674 
N5450 X36.255 Y74.461 
N5455 X33.699 Y76.605 
N5460 X220.158 Y298.819 
N5465 ; DEPOSITION OFF 
N5470 G181 D0.25 U0.75 
N5475 G0 X55.363 Y107.614 
N5480 ; DEPOSITION ON 
N5485 G180 D0.25 U0.75 
N5490 G1 X31.143 Y78.75 F508 
N5495 X28.587 Y80.895 
N5500 X52.807 Y109.759 
N5505 G181 D0.25 U0.75 
N5510 V.P.layer_num = 8 
N5515 P12011=0 
N5520 #PCALL decking.nc P1 = V.P.layer_num 
N5525 P12012= 8 
N5530 P12011=1 
N5535 ; LAYER 8 END 
N5540 ; DEPOSITION OFF 
N5545 G181 D0.25 U0.75 
N5550 G0 Z18 
N5555 X94.614 Y24.363 
N5560 ; LAYER 9 START 
N5565 ; DEPOSITION ON 
N5570 G180 D0.25 U0.75 
N5575 G1 X119.389 Y53.89 F508 
N5580 X116.824 Y56.042 
N5585 X92.048 Y26.516 
N5590 X89.482 Y28.669 
N5595 X114.258 Y58.195 
N5600 X111.692 Y60.348 
N5605 X86.917 Y30.822 
N5610 X84.351 Y32.975 
N5615 X109.126 Y62.501 
N5620 X106.561 Y64.654 
N5625 X81.785 Y35.128 
N5630 X79.219 Y37.281 
N5635 X103.995 Y66.807 
N5640 ; DEPOSITION OFF 
N5645 G181 D0.25 U0.75 
N5650 G0 X263.852 Y262.528 
N5655 ; DEPOSITION ON 
N5660 G180 D0.25 U0.75 
N5665 G1 X76.654 Y39.433 F508 
N5670 X74.088 Y41.586 
N5675 X261.286 Y264.681 
N5680 X258.721 Y266.834 
N5685 X71.522 Y43.739 
N5690 X68.956 Y45.892 
N5695 X93.732 Y75.419 
N5700 ; DEPOSITION OFF 
N5705 G181 D0.25 U0.75 
N5710 G0 X237.88 Y247.208 
N5715 ; DEPOSITION ON 
N5720 G180 D0.25 U0.75 
N5725 G1 X256.155 Y268.987 F508 
N5730 X253.589 Y271.14 
N5735 X235.315 Y249.361 
N5740 ; DEPOSITION OFF 
N5745 G181 D0.25 U0.75 
N5750 G0 X91.166 Y77.572 
N5755 ; DEPOSITION ON 
N5760 G180 D0.25 U0.75 
N5765 G1 X66.391 Y48.045 F508 
N5770 X63.825 Y50.198 
N5775 X88.601 Y79.725 
N5780 ; DEPOSITION OFF 
N5785 G181 D0.25 U0.75 
N5790 G0 X232.749 Y251.514 
N5795 ; DEPOSITION ON 
N5800 G180 D0.25 U0.75 
N5805 G1 X251.023 Y273.293 F508 
N5810 X248.458 Y275.445 
N5815 X230.183 Y253.667 
N5820 ; DEPOSITION OFF 
N5825 G181 D0.25 U0.75 
N5830 G0 X86.035 Y81.877 
N5835 ; DEPOSITION ON 
N5840 G180 D0.25 U0.75 
N5845 G1 X61.259 Y52.351 F508 
N5850 X58.693 Y54.504 
N5855 X83.469 Y84.03 
N5860 ; DEPOSITION OFF 
N5865 G181 D0.25 U0.75 
N5870 G0 X227.618 Y255.82 
N5875 ; DEPOSITION ON 
N5880 G180 D0.25 U0.75 
N5885 G1 X245.892 Y277.598 F508 
N5890 X243.326 Y279.751 
N5895 X225.052 Y257.973 
N5900 ; DEPOSITION OFF 
N5905 G181 D0.25 U0.75 
N5910 G0 X80.903 Y86.183 
N5915 ; DEPOSITION ON 
N5920 G180 D0.25 U0.75 
N5925 G1 X56.128 Y56.657 F508 
N5930 X53.562 Y58.81 
N5935 X78.338 Y88.336 
N5940 ; DEPOSITION OFF 
N5945 G181 D0.25 U0.75 
N5950 G0 X222.486 Y260.126 
N5955 ; DEPOSITION ON 
N5960 G180 D0.25 U0.75 
N5965 G1 X240.76 Y281.904 F508 
N5970 X238.195 Y284.057 
N5975 X219.92 Y262.279 
N5980 ; DEPOSITION OFF 
N5985 G181 D0.25 U0.75 
N5990 G0 X75.772 Y90.489 
N5995 ; DEPOSITION ON 
N6000 G180 D0.25 U0.75 
N6005 G1 X50.996 Y60.963 F508 
N6010 X48.43 Y63.116 
N6015 X73.206 Y92.642 
N6020 ; DEPOSITION OFF 
N6025 G181 D0.25 U0.75 
N6030 G0 X217.355 Y264.431 
N6035 ; DEPOSITION ON 
N6040 G180 D0.25 U0.75 
N6045 G1 X235.629 Y286.21 F508 
N6050 X233.063 Y288.363 
N6055 X214.789 Y266.584 
N6060 ; DEPOSITION OFF 
N6065 G181 D0.25 U0.75 
N6070 G0 X70.64 Y94.795 
N6075 ; DEPOSITION ON 
N6080 G180 D0.25 U0.75 
N6085 G1 X45.865 Y65.268 F508 
N6090 X43.299 Y67.421 
N6095 X230.497 Y290.516 
N6100 X227.932 Y292.669 
N6105 X40.733 Y69.574 
N6110 X38.167 Y71.727 
N6115 X225.366 Y294.822 
N6120 X222.8 Y296.975 
N6125 X35.602 Y73.88 
N6130 X33.036 Y76.033 
N6135 X220.234 Y299.127 
N6140 ; DEPOSITION OFF 
N6145 G181 D0.25 U0.75 
N6150 G0 X55.246 Y107.712 
N6155 ; DEPOSITION ON 
N6160 G180 D0.25 U0.75 
N6165 G1 X30.47 Y78.186 F508 
N6170 X27.905 Y80.339 
N6175 X52.68 Y109.865 
N6180 G181 D0.25 U0.75 
N6185 V.P.layer_num = 9 
N6190 P12011=0 
N6195 #PCALL decking.nc P1 = V.P.layer_num 
N6200 P12012= 9 
N6205 P12011=1 
N6210 ; LAYER 9 END 
N6215 ; DEPOSITION OFF 
N6220 G181 D0.25 U0.75 
N6225 G0 Z20 
N6230 X94.197 Y23.584 
N6235 ; LAYER 10 START 
N6240 ; DEPOSITION ON 
N6245 G180 D0.25 U0.75 
N6250 G1 X119.528 Y53.773 F508 
N6255 X116.952 Y55.935 
N6260 X91.62 Y25.746 
N6265 X89.044 Y27.908 
N6270 X114.375 Y58.097 
N6275 X111.799 Y60.259 
N6280 X86.468 Y30.07 
N6285 X83.891 Y32.232 
N6290 X109.223 Y62.421 
N6295 X106.646 Y64.582 
N6300 X81.315 Y34.394 
N6305 X78.738 Y36.555 
N6310 X104.07 Y66.744 
N6315 ; DEPOSITION OFF 
N6320 G181 D0.25 U0.75 
N6325 G0 X264.171 Y262.777 
N6330 ; DEPOSITION ON 
N6335 G180 D0.25 U0.75 
N6340 G1 X76.162 Y38.717 F508 
N6345 X73.585 Y40.879 
N6350 X261.594 Y264.939 
N6355 X259.018 Y267.101 
N6360 X71.009 Y43.041 
N6365 X68.433 Y45.203 
N6370 X93.764 Y75.392 
N6375 ; DEPOSITION OFF 
N6380 G181 D0.25 U0.75 
N6385 G0 X237.913 Y247.181 
N6390 ; DEPOSITION ON 
N6395 G180 D0.25 U0.75 
N6400 G1 X256.441 Y269.263 F508 
N6405 X253.865 Y271.425 
N6410 X235.336 Y249.343 
N6415 ; DEPOSITION OFF 
N6420 G181 D0.25 U0.75 
N6425 G0 X91.188 Y77.554 
N6430 ; DEPOSITION ON 
N6435 G180 D0.25 U0.75 
N6440 G1 X65.856 Y47.365 F508 
N6445 X63.28 Y49.527 
N6450 X88.611 Y79.716 
N6455 ; DEPOSITION OFF 
N6460 G181 D0.25 U0.75 
N6465 G0 X232.76 Y251.505 
N6470 ; DEPOSITION ON 
N6475 G180 D0.25 U0.75 
N6480 G1 X251.288 Y273.587 F508 
N6485 X248.712 Y275.749 
N6490 X230.183 Y253.667 
N6495 ; DEPOSITION OFF 
N6500 G181 D0.25 U0.75 
N6505 G0 X86.035 Y81.877 
N6510 ; DEPOSITION ON 
N6515 G180 D0.25 U0.75 
N6520 G1 X60.703 Y51.689 F508 
N6525 X58.127 Y53.85 
N6530 X83.458 Y84.039 
N6535 ; DEPOSITION OFF 
N6540 G181 D0.25 U0.75 
N6545 G0 X227.607 Y255.829 
N6550 ; DEPOSITION ON 
N6555 G180 D0.25 U0.75 
N6560 G1 X246.136 Y277.911 F508 
N6565 X243.559 Y280.072 
N6570 X225.03 Y257.991 
N6575 ; DEPOSITION OFF 
N6580 G181 D0.25 U0.75 
N6585 G0 X80.882 Y86.201 
N6590 ; DEPOSITION ON 
N6595 G180 D0.25 U0.75 
N6600 G1 X55.55 Y56.012 F508 
N6605 X52.974 Y58.174 
N6610 X78.306 Y88.363 
N6615 ; DEPOSITION OFF 
N6620 G181 D0.25 U0.75 
N6625 G0 X222.454 Y260.153 
N6630 ; DEPOSITION ON 
N6635 G180 D0.25 U0.75 
N6640 G1 X240.983 Y282.234 F508 
N6645 X238.406 Y284.396 
N6650 X219.878 Y262.314 
N6655 ; DEPOSITION OFF 
N6660 G181 D0.25 U0.75 
N6665 G0 X75.729 Y90.525 
N6670 ; DEPOSITION ON 
N6675 G180 D0.25 U0.75 
N6680 G1 X50.398 Y60.336 F508 
N6685 X47.821 Y62.498 
N6690 X73.153 Y92.687 
N6695 ; DEPOSITION OFF 
N6700 G181 D0.25 U0.75 
N6705 G0 X217.301 Y264.476 
N6710 ; DEPOSITION ON 
N6715 G180 D0.25 U0.75 
N6720 G1 X235.83 Y286.558 F508 
N6725 X233.253 Y288.72 
N6730 X214.725 Y266.638 
N6735 ; DEPOSITION OFF 
N6740 G181 D0.25 U0.75 
N6745 G0 X70.576 Y94.849 
N6750 ; DEPOSITION ON 
N6755 G180 D0.25 U0.75 
N6760 G1 X45.245 Y64.66 F508 
N6765 X42.668 Y66.822 
N6770 X230.677 Y290.882 
N6775 X228.101 Y293.044 
N6780 X40.092 Y68.984 
N6785 X37.515 Y71.145 
N6790 X225.524 Y295.206 
N6795 X222.948 Y297.367 
N6800 X34.939 Y73.307 
N6805 X32.363 Y75.469 
N6810 X220.371 Y299.529 
N6815 ; DEPOSITION OFF 
N6820 G181 D0.25 U0.75 
N6825 G0 X55.118 Y107.82 
N6830 ; DEPOSITION ON 
N6835 G180 D0.25 U0.75 
N6840 G1 X29.786 Y77.631 F508 
N6845 X27.21 Y79.793 
N6850 X52.541 Y109.982 
N6855 G181 D0.25 U0.75 
N6860 V.P.layer_num = 10 
N6865 P12011=0 
N6870 #PCALL decking.nc P1 = V.P.layer_num 
N6875 P12012= 10 
N6880 P12011=1 
N6885 ; LAYER 10 END 
N6890 ; DEPOSITION OFF 
N6895 G181 D0.25 U0.75 
N6900 G0 Z22 
N6905 X93.405 Y23.12 
N6910 ; LAYER 11 START 
N6915 ; DEPOSITION ON 
N6920 G180 D0.25 U0.75 
N6925 G1 X119.292 Y53.971 F508 
N6930 X116.734 Y56.118 
N6935 X90.847 Y25.267 
N6940 X88.288 Y27.413 
N6945 X114.176 Y58.265 
N6950 X111.617 Y60.411 
N6955 X85.73 Y29.56 
N6960 X83.172 Y31.707 
N6965 X109.059 Y62.558 
N6970 X106.501 Y64.704 
N6975 X80.614 Y33.853 
N6980 X78.055 Y36 
N6985 X103.943 Y66.851 
N6990 ; DEPOSITION OFF 
N6995 G181 D0.25 U0.75 
N7000 G0 X264.307 Y263.162 
N7005 ; DEPOSITION ON 
N7010 G180 D0.25 U0.75 
N7015 G1 X75.497 Y38.146 F508 
N7020 X72.939 Y40.293 
N7025 X261.749 Y265.308 
N7030 X259.191 Y267.455 
N7035 X70.381 Y42.44 
N7040 X67.822 Y44.586 
N7045 X93.71 Y75.438 
N7050 ; DEPOSITION OFF 
N7055 G181 D0.25 U0.75 
N7060 G0 X237.858 Y247.227 
N7065 ; DEPOSITION ON 
N7070 G180 D0.25 U0.75 
N7075 G1 X256.633 Y269.602 F508 
N7080 X254.074 Y271.748 
N7085 X235.3 Y249.374 
N7090 ; DEPOSITION OFF 
N7095 G181 D0.25 U0.75 
N7100 G0 X91.151 Y77.584 
N7105 ; DEPOSITION ON 
N7110 G180 D0.25 U0.75 
N7115 G1 X65.264 Y46.733 F508 
N7120 X62.706 Y48.88 
N7125 X88.593 Y79.731 
N7130 ; DEPOSITION OFF 
N7135 G181 D0.25 U0.75 
N7140 G0 X232.742 Y251.52 
N7145 ; DEPOSITION ON 
N7150 G180 D0.25 U0.75 
N7155 G1 X251.516 Y273.895 F508 
N7160 X248.958 Y276.042 
N7165 X230.183 Y253.667 
N7170 ; DEPOSITION OFF 
N7175 G181 D0.25 U0.75 
N7180 G0 X86.035 Y81.877 
N7185 ; DEPOSITION ON 
N7190 G180 D0.25 U0.75 
N7195 G1 X60.148 Y51.026 F508 
N7200 X57.589 Y53.173 
N7205 X83.477 Y84.024 
N7210 ; DEPOSITION OFF 
N7215 G181 D0.25 U0.75 
N7220 G0 X227.625 Y255.814 
N7225 ; DEPOSITION ON 
N7230 G180 D0.25 U0.75 
N7235 G1 X246.4 Y278.188 F508 
N7240 X243.841 Y280.335 
N7245 X225.067 Y257.96 
N7250 ; DEPOSITION OFF 
N7255 G181 D0.25 U0.75 
N7260 G0 X80.918 Y86.171 
N7265 ; DEPOSITION ON 
N7270 G180 D0.25 U0.75 
N7275 G1 X55.031 Y55.319 F508 
N7280 X52.473 Y57.466 
N7285 X78.36 Y88.317 
N7290 ; DEPOSITION OFF 
N7295 G181 D0.25 U0.75 
N7300 G0 X222.508 Y260.107 
N7305 ; DEPOSITION ON 
N7310 G180 D0.25 U0.75 
N7315 G1 X241.283 Y282.481 F508 
N7320 X238.725 Y284.628 
N7325 X219.95 Y262.253 
N7330 ; DEPOSITION OFF 
N7335 G181 D0.25 U0.75 
N7340 G0 X75.802 Y90.464 
N7345 ; DEPOSITION ON 
N7350 G180 D0.25 U0.75 
N7355 G1 X49.915 Y59.613 F508 
N7360 X47.356 Y61.759 
N7365 X73.244 Y92.611 
N7370 ; DEPOSITION OFF 
N7375 G181 D0.25 U0.75 
N7380 G0 X217.392 Y264.4 
N7385 ; DEPOSITION ON 
N7390 G180 D0.25 U0.75 
N7395 G1 X236.167 Y286.775 F508 
N7400 X233.608 Y288.921 
N7405 X214.834 Y266.547 
N7410 ; DEPOSITION OFF 
N7415 G181 D0.25 U0.75 
N7420 G0 X70.685 Y94.757 
N7425 ; DEPOSITION ON 
N7430 G180 D0.25 U0.75 
N7435 G1 X44.798 Y63.906 F508 
N7440 X42.24 Y66.053 
N7445 X231.05 Y291.068 
N7450 X228.492 Y293.215 
N7455 X39.681 Y68.199 
N7460 X37.123 Y70.346 
N7465 X225.934 Y295.361 
N7470 X223.375 Y297.508 
N7475 X34.565 Y72.492 
N7480 X32.007 Y74.639 
N7485 X220.817 Y299.654 
N7490 ; DEPOSITION OFF 
N7495 G181 D0.25 U0.75 
N7500 G0 X55.336 Y107.637 
N7505 ; DEPOSITION ON 
N7510 G180 D0.25 U0.75 
N7515 G1 X29.448 Y76.786 F508 
N7520 X26.89 Y78.932 
N7525 X52.778 Y109.784 
N7530 G181 D0.25 U0.75 
N7535 V.P.layer_num = 11 
N7540 P12011=0 
N7545 #PCALL decking.nc P1 = V.P.layer_num 
N7550 P12012= 11 
N7555 P12011=1 
N7560 ; LAYER 11 END 
N7565 ; DEPOSITION OFF 
N7570 G181 D0.25 U0.75 
N7575 G0 Z24 
N7580 X92.983 Y22.345 
N7585 ; LAYER 12 START 
N7590 ; DEPOSITION ON 
N7595 G180 D0.25 U0.75 
N7600 G1 X119.426 Y53.858 F508 
N7605 X116.858 Y56.014 
N7610 X90.415 Y24.5 
N7615 X87.846 Y26.655 
N7620 X114.289 Y58.169 
N7625 X111.721 Y60.324 
N7630 X85.278 Y28.811 
N7635 X82.709 Y30.966 
N7640 X109.152 Y62.48 
N7645 X106.584 Y64.635 
N7650 X80.14 Y33.121 
N7655 X77.572 Y35.277 
N7660 X104.015 Y66.79 
N7665 ; DEPOSITION OFF 
N7670 G181 D0.25 U0.75 
N7675 G0 X264.607 Y263.392 
N7680 ; DEPOSITION ON 
N7685 G180 D0.25 U0.75 
N7690 G1 X75.003 Y37.432 F508 
N7695 X72.435 Y39.587 
N7700 X262.038 Y265.548 
N7705 X259.469 Y267.703 
N7710 X69.866 Y41.743 
N7715 X67.297 Y43.898 
N7720 X93.741 Y75.412 
N7725 ; DEPOSITION OFF 
N7730 G181 D0.25 U0.75 
N7735 G0 X237.889 Y247.201 
N7740 ; DEPOSITION ON 
N7745 G180 D0.25 U0.75 
N7750 G1 X256.901 Y269.858 F508 
N7755 X254.332 Y272.014 
N7760 X235.32 Y249.356 
N7765 ; DEPOSITION OFF 
N7770 G181 D0.25 U0.75 
N7775 G0 X91.172 Y77.567 
N7780 ; DEPOSITION ON 
N7785 G180 D0.25 U0.75 
N7790 G1 X64.729 Y46.053 F508 
N7795 X62.16 Y48.208 
N7800 X88.603 Y79.722 
N7805 ; DEPOSITION OFF 
N7810 G181 D0.25 U0.75 
N7815 G0 X232.752 Y251.512 
N7820 ; DEPOSITION ON 
N7825 G180 D0.25 U0.75 
N7830 G1 X251.764 Y274.169 F508 
N7835 X249.195 Y276.324 
N7840 X230.183 Y253.667 
N7845 ; DEPOSITION OFF 
N7850 G181 D0.25 U0.75 
N7855 G0 X86.035 Y81.877 
N7860 ; DEPOSITION ON 
N7865 G180 D0.25 U0.75 
N7870 G1 X59.592 Y50.364 F508 
N7875 X57.023 Y52.519 
N7880 X83.466 Y84.033 
N7885 ; DEPOSITION OFF 
N7890 G181 D0.25 U0.75 
N7895 G0 X227.615 Y255.822 
N7900 ; DEPOSITION ON 
N7905 G180 D0.25 U0.75 
N7910 G1 X246.626 Y278.479 F508 
N7915 X244.058 Y280.635 
N7920 X225.046 Y257.978 
N7925 ; DEPOSITION OFF 
N7930 G181 D0.25 U0.75 
N7935 G0 X80.898 Y86.188 
N7940 ; DEPOSITION ON 
N7945 G180 D0.25 U0.75 
N7950 G1 X54.455 Y54.674 F508 
N7955 X51.886 Y56.83 
N7960 X78.329 Y88.343 
N7965 ; DEPOSITION OFF 
N7970 G181 D0.25 U0.75 
N7975 G0 X222.477 Y260.133 
N7980 ; DEPOSITION ON 
N7985 G180 D0.25 U0.75 
N7990 G1 X241.489 Y282.79 F508 
N7995 X238.921 Y284.945 
N8000 X219.909 Y262.288 
N8005 ; DEPOSITION OFF 
N8010 G181 D0.25 U0.75 
N8015 G0 X75.76 Y90.499 
N8020 ; DEPOSITION ON 
N8025 G180 D0.25 U0.75 
N8030 G1 X49.317 Y58.985 F508 
N8035 X46.749 Y61.14 
N8040 X73.192 Y92.654 
N8045 ; DEPOSITION OFF 
N8050 G181 D0.25 U0.75 
N8055 G0 X217.34 Y264.443 
N8060 ; DEPOSITION ON 
N8065 G180 D0.25 U0.75 
N8070 G1 X236.352 Y287.101 F508 
N8075 X233.783 Y289.256 
N8080 X214.772 Y266.599 
N8085 ; DEPOSITION OFF 
N8090 G181 D0.25 U0.75 
N8095 G0 X70.623 Y94.809 
N8100 ; DEPOSITION ON 
N8105 G180 D0.25 U0.75 
N8110 G1 X44.18 Y63.296 F508 
N8115 X41.612 Y65.451 
N8120 X231.215 Y291.411 
N8125 X228.646 Y293.567 
N8130 X39.043 Y67.606 
N8135 X36.474 Y69.762 
N8140 X226.078 Y295.722 
N8145 X223.509 Y297.877 
N8150 X33.906 Y71.917 
N8155 X31.337 Y74.072 
N8160 X220.94 Y300.033 
N8165 ; DEPOSITION OFF 
N8170 G181 D0.25 U0.75 
N8175 G0 X55.212 Y107.741 
N8180 ; DEPOSITION ON 
N8185 G180 D0.25 U0.75 
N8190 G1 X28.769 Y76.227 F508 
N8195 X26.2 Y78.383 
N8200 X52.643 Y109.896 
N8205 G181 D0.25 U0.75 
N8210 V.P.layer_num = 12 
N8215 P12011=0 
N8220 #PCALL decking.nc P1 = V.P.layer_num 
N8225 P12012= 12 
N8230 P12011=1 
N8235 ; LAYER 12 END 
N8240 ; DEPOSITION OFF 
N8245 G181 D0.25 U0.75 
N8250 G0 Z26 
N8255 X92.561 Y21.571 
N8260 ; LAYER 13 START 
N8265 ; DEPOSITION ON 
N8270 G180 D0.25 U0.75 
N8275 G1 X119.559 Y53.747 F508 
N8280 X116.981 Y55.911 
N8285 X89.982 Y23.735 
N8290 X87.403 Y25.899 
N8295 X114.402 Y58.075 
N8300 X111.823 Y60.239 
N8305 X84.824 Y28.063 
N8310 X82.245 Y30.226 
N8315 X109.244 Y62.402 
N8320 X106.665 Y64.566 
N8325 X79.666 Y32.39 
N8330 X77.088 Y34.554 
N8335 X104.087 Y66.73 
N8340 ; DEPOSITION OFF 
N8345 G181 D0.25 U0.75 
N8350 G0 X264.897 Y263.613 
N8355 ; DEPOSITION ON 
N8360 G180 D0.25 U0.75 
N8365 G1 X74.509 Y36.718 F508 
N8370 X71.93 Y38.882 
N8375 X262.318 Y265.777 
N8380 X259.739 Y267.941 
N8385 X69.351 Y41.046 
N8390 X66.772 Y43.21 
N8395 X93.771 Y75.386 
N8400 ; DEPOSITION OFF 
N8405 G181 D0.25 U0.75 
N8410 G0 X237.92 Y247.175 
N8415 ; DEPOSITION ON 
N8420 G180 D0.25 U0.75 
N8425 G1 X257.16 Y270.105 F508 
N8430 X254.581 Y272.269 
N8435 X235.341 Y249.339 
N8440 ; DEPOSITION OFF 
N8445 G181 D0.25 U0.75 
N8450 G0 X91.192 Y77.55 
N8455 ; DEPOSITION ON 
N8460 G180 D0.25 U0.75 
N8465 G1 X64.194 Y45.374 F508 
N8470 X61.615 Y47.538 
N8475 X88.614 Y79.714 
N8480 ; DEPOSITION OFF 
N8485 G181 D0.25 U0.75 
N8490 G0 X232.762 Y251.503 
N8495 ; DEPOSITION ON 
N8500 G180 D0.25 U0.75 
N8505 G1 X252.002 Y274.433 F508 
N8510 X249.424 Y276.597 
N8515 X230.183 Y253.667 
N8520 ; DEPOSITION OFF 
N8525 G181 D0.25 U0.75 
N8530 G0 X86.035 Y81.877 
N8535 ; DEPOSITION ON 
N8540 G180 D0.25 U0.75 
N8545 G1 X59.036 Y49.701 F508 
N8550 X56.457 Y51.865 
N8555 X83.456 Y84.041 
N8560 ; DEPOSITION OFF 
N8565 G181 D0.25 U0.75 
N8570 G0 X227.604 Y255.831 
N8575 ; DEPOSITION ON 
N8580 G180 D0.25 U0.75 
N8585 G1 X246.845 Y278.76 F508 
N8590 X244.266 Y280.924 
N8595 X225.026 Y257.995 
N8600 ; DEPOSITION OFF 
N8605 G181 D0.25 U0.75 
N8610 G0 X80.877 Y86.205 
N8615 ; DEPOSITION ON 
N8620 G180 D0.25 U0.75 
N8625 G1 X53.878 Y54.029 F508 
N8630 X51.299 Y56.193 
N8635 X78.298 Y88.369 
N8640 ; DEPOSITION OFF 
N8645 G181 D0.25 U0.75 
N8650 G0 X222.447 Y260.159 
N8655 ; DEPOSITION ON 
N8660 G180 D0.25 U0.75 
N8665 G1 X241.687 Y283.088 F508 
N8670 X239.108 Y285.252 
N8675 X219.868 Y262.322 
N8680 ; DEPOSITION OFF 
N8685 G181 D0.25 U0.75 
N8690 G0 X75.72 Y90.533 
N8695 ; DEPOSITION ON 
N8700 G180 D0.25 U0.75 
N8705 G1 X48.721 Y58.357 F508 
N8710 X46.142 Y60.521 
N8715 X73.141 Y92.697 
N8720 ; DEPOSITION OFF 
N8725 G181 D0.25 U0.75 
N8730 G0 X217.289 Y264.486 
N8735 ; DEPOSITION ON 
N8740 G180 D0.25 U0.75 
N8745 G1 X236.529 Y287.416 F508 
N8750 X233.951 Y289.58 
N8755 X214.71 Y266.65 
N8760 ; DEPOSITION OFF 
N8765 G181 D0.25 U0.75 
N8770 G0 X70.562 Y94.861 
N8775 ; DEPOSITION ON 
N8780 G180 D0.25 U0.75 
N8785 G1 X43.563 Y62.685 F508 
N8790 X40.984 Y64.849 
N8795 X231.372 Y291.744 
N8800 X228.793 Y293.908 
N8805 X38.405 Y67.012 
N8810 X35.827 Y69.176 
N8815 X226.214 Y296.072 
N8820 X223.635 Y298.235 
N8825 X33.248 Y71.34 
N8830 X30.669 Y73.504 
N8835 X221.057 Y300.399 
N8840 ; DEPOSITION OFF 
N8845 G181 D0.25 U0.75 
N8850 G0 X55.089 Y107.844 
N8855 ; DEPOSITION ON 
N8860 G180 D0.25 U0.75 
N8865 G1 X28.09 Y75.668 F508 
N8870 X25.511 Y77.832 
N8875 X52.51 Y110.008 
N8880 G181 D0.25 U0.75 
N8885 V.P.layer_num = 13 
N8890 P12011=0 
N8895 #PCALL decking.nc P1 = V.P.layer_num 
N8900 P12012= 13 
N8905 P12011=1 
N8910 ; LAYER 13 END 
N8915 ; DEPOSITION OFF 
N8920 G181 D0.25 U0.75 
N8925 G0 Z28 
N8930 X91.766 Y21.108 
N8935 ; LAYER 14 START 
N8940 ; DEPOSITION ON 
N8945 G180 D0.25 U0.75 
N8950 G1 X119.321 Y53.947 F508 
N8955 X116.761 Y56.095 
N8960 X89.206 Y23.257 
N8965 X86.645 Y25.405 
N8970 X114.2 Y58.244 
N8975 X111.64 Y60.392 
N8980 X84.085 Y27.554 
N8985 X81.524 Y29.702 
N8990 X109.079 Y62.541 
N8995 X106.519 Y64.689 
N9000 X78.964 Y31.851 
N9005 X76.404 Y33.999 
N9010 X103.958 Y66.838 
N9015 ; DEPOSITION OFF 
N9020 G181 D0.25 U0.75 
N9025 G0 X265.007 Y263.968 
N9030 ; DEPOSITION ON 
N9035 G180 D0.25 U0.75 
N9040 G1 X73.843 Y36.148 F508 
N9045 X71.283 Y38.296 
N9050 X262.446 Y266.116 
N9055 X259.886 Y268.265 
N9060 X68.722 Y40.445 
N9065 X66.162 Y42.593 
N9070 X93.716 Y75.432 
N9075 ; DEPOSITION OFF 
N9080 G181 D0.25 U0.75 
N9085 G0 X237.865 Y247.221 
N9090 ; DEPOSITION ON 
N9095 G180 D0.25 U0.75 
N9100 G1 X257.325 Y270.413 F508 
N9105 X254.765 Y272.562 
N9110 X235.304 Y249.37 
N9115 ; DEPOSITION OFF 
N9120 G181 D0.25 U0.75 
N9125 G0 X91.156 Y77.58 
N9130 ; DEPOSITION ON 
N9135 G180 D0.25 U0.75 
N9140 G1 X63.601 Y44.742 F508 
N9145 X61.041 Y46.891 
N9150 X88.595 Y79.729 
N9155 ; DEPOSITION OFF 
N9160 G181 D0.25 U0.75 
N9165 G0 X232.744 Y251.518 
N9170 ; DEPOSITION ON 
N9175 G180 D0.25 U0.75 
N9180 G1 X252.204 Y274.71 F508 
N9185 X249.644 Y276.859 
N9190 X230.183 Y253.667 
N9195 ; DEPOSITION OFF 
N9200 G181 D0.25 U0.75 
N9205 G0 X86.035 Y81.877 
N9210 ; DEPOSITION ON 
N9215 G180 D0.25 U0.75 
N9220 G1 X58.48 Y49.039 F508 
N9225 X55.92 Y51.188 
N9230 X83.474 Y84.026 
N9235 ; DEPOSITION OFF 
N9240 G181 D0.25 U0.75 
N9245 G0 X227.623 Y255.815 
N9250 ; DEPOSITION ON 
N9255 G180 D0.25 U0.75 
N9260 G1 X247.083 Y279.007 F508 
N9265 X244.523 Y281.156 
N9270 X225.062 Y257.964 
N9275 ; DEPOSITION OFF 
N9280 G181 D0.25 U0.75 
N9285 G0 X80.914 Y86.174 
N9290 ; DEPOSITION ON 
N9295 G180 D0.25 U0.75 
N9300 G1 X53.359 Y53.336 F508 
N9305 X50.799 Y55.485 
N9310 X78.353 Y88.323 
N9315 ; DEPOSITION OFF 
N9320 G181 D0.25 U0.75 
N9325 G0 X222.502 Y260.112 
N9330 ; DEPOSITION ON 
N9335 G180 D0.25 U0.75 
N9340 G1 X241.962 Y283.304 F508 
N9345 X239.402 Y285.453 
N9350 X219.941 Y262.261 
N9355 ; DEPOSITION OFF 
N9360 G181 D0.25 U0.75 
N9365 G0 X75.793 Y90.471 
N9370 ; DEPOSITION ON 
N9375 G180 D0.25 U0.75 
N9380 G1 X48.238 Y57.633 F508 
N9385 X45.678 Y59.782 
N9390 X73.232 Y92.62 
N9395 ; DEPOSITION OFF 
N9400 G181 D0.25 U0.75 
N9405 G0 X217.381 Y264.409 
N9410 ; DEPOSITION ON 
N9415 G180 D0.25 U0.75 
N9420 G1 X236.841 Y287.601 F508 
N9425 X234.281 Y289.75 
N9430 X214.82 Y266.558 
N9435 ; DEPOSITION OFF 
N9440 G181 D0.25 U0.75 
N9445 G0 X70.672 Y94.768 
N9450 ; DEPOSITION ON 
N9455 G180 D0.25 U0.75 
N9460 G1 X43.117 Y61.93 F508 
N9465 X40.557 Y64.079 
N9470 X231.72 Y291.898 
N9475 X229.16 Y294.047 
N9480 X37.996 Y66.227 
N9485 X35.436 Y68.376 
N9490 X226.599 Y296.195 
N9495 X224.039 Y298.344 
N9500 X32.875 Y70.524 
N9505 X30.315 Y72.673 
N9510 X221.478 Y300.492 
N9515 ; DEPOSITION OFF 
N9520 G181 D0.25 U0.75 
N9525 G0 X55.309 Y107.66 
N9530 ; DEPOSITION ON 
N9535 G180 D0.25 U0.75 
N9540 G1 X27.754 Y74.821 F508 
N9545 X25.194 Y76.97 
N9550 X52.748 Y109.808 
N9555 G181 D0.25 U0.75 
N9560 V.P.layer_num = 14 
N9565 P12011=0 
N9570 #PCALL decking.nc P1 = V.P.layer_num 
N9575 P12012= 14 
N9580 P12011=1 
N9585 ; LAYER 14 END 
N9590 ; DEPOSITION OFF 
N9595 G181 D0.25 U0.75 
N9600 G0 Z30 
N9605 X91.339 Y20.338 
N9610 ; LAYER 15 START 
N9615 ; DEPOSITION ON 
N9620 G180 D0.25 U0.75 
N9625 G1 X119.45 Y53.839 F508 
N9630 X116.879 Y55.996 
N9635 X88.769 Y22.495 
N9640 X86.199 Y24.652 
N9645 X114.309 Y58.153 
N9650 X111.739 Y60.309 
N9655 X83.628 Y26.809 
N9660 X81.058 Y28.965 
N9665 X109.168 Y62.466 
N9670 X106.598 Y64.623 
N9675 X78.487 Y31.122 
N9680 X75.917 Y33.279 
N9685 X104.027 Y66.78 
N9690 ; DEPOSITION OFF 
N9695 G181 D0.25 U0.75 
N9700 G0 X265.277 Y264.17 
N9705 ; DEPOSITION ON 
N9710 G180 D0.25 U0.75 
N9715 G1 X73.347 Y35.436 F508 
N9720 X70.776 Y37.593 
N9725 X262.707 Y266.327 
N9730 X260.137 Y268.484 
N9735 X68.206 Y39.749 
N9740 X65.635 Y41.906 
N9745 X93.746 Y75.407 
N9750 ; DEPOSITION OFF 
N9755 G181 D0.25 U0.75 
N9760 G0 X237.894 Y247.196 
N9765 ; DEPOSITION ON 
N9770 G180 D0.25 U0.75 
N9775 G1 X257.566 Y270.641 F508 
N9780 X254.996 Y272.797 
N9785 X235.324 Y249.353 
N9790 ; DEPOSITION OFF 
N9795 G181 D0.25 U0.75 
N9800 G0 X91.176 Y77.564 
N9805 ; DEPOSITION ON 
N9810 G180 D0.25 U0.75 
N9815 G1 X63.065 Y44.063 F508 
N9820 X60.495 Y46.22 
N9825 X88.605 Y79.721 
N9830 ; DEPOSITION OFF 
N9835 G181 D0.25 U0.75 
N9840 G0 X232.754 Y251.51 
N9845 ; DEPOSITION ON 
N9850 G180 D0.25 U0.75 
N9855 G1 X252.426 Y274.954 F508 
N9860 X249.855 Y277.111 
N9865 X230.183 Y253.667 
N9870 ; DEPOSITION OFF 
N9875 G181 D0.25 U0.75 
N9880 G0 X86.035 Y81.877 
N9885 ; DEPOSITION ON 
N9890 G180 D0.25 U0.75 
N9895 G1 X57.924 Y48.377 F508 
N9900 X55.354 Y50.533 
N9905 X83.464 Y84.034 
N9910 ; DEPOSITION OFF 
N9915 G181 D0.25 U0.75 
N9920 G0 X227.613 Y255.824 
N9925 ; DEPOSITION ON 
N9930 G180 D0.25 U0.75 
N9935 G1 X247.285 Y279.268 F508 
N9940 X244.714 Y281.425 
N9945 X225.042 Y257.98 
N9950 ; DEPOSITION OFF 
N9955 G181 D0.25 U0.75 
N9960 G0 X80.894 Y86.191 
N9965 ; DEPOSITION ON 
N9970 G180 D0.25 U0.75 
N9975 G1 X52.784 Y52.69 F508 
N9980 X50.213 Y54.847 
N9985 X78.324 Y88.348 
N9990 ; DEPOSITION OFF 
N9995 G181 D0.25 U0.75 
N10000 G0 X222.472 Y260.137 
N10005 ; DEPOSITION ON 
N10010 G180 D0.25 U0.75 
N10015 G1 X242.144 Y283.581 F508 
N10020 X239.574 Y285.738 
N10025 X219.902 Y262.294 
N10030 ; DEPOSITION OFF 
N10035 G181 D0.25 U0.75 
N10040 G0 X75.753 Y90.505 
N10045 ; DEPOSITION ON 
N10050 G180 D0.25 U0.75 
N10055 G1 X47.643 Y57.004 F508 
N10060 X45.072 Y59.161 
N10065 X73.183 Y92.661 
N10070 ; DEPOSITION OFF 
N10075 G181 D0.25 U0.75 
N10080 G0 X217.331 Y264.451 
N10085 ; DEPOSITION ON 
N10090 G180 D0.25 U0.75 
N10095 G1 X237.003 Y287.895 F508 
N10100 X234.433 Y290.052 
N10105 X214.761 Y266.608 
N10110 ; DEPOSITION OFF 
N10115 G181 D0.25 U0.75 
N10120 G0 X70.612 Y94.818 
N10125 ; DEPOSITION ON 
N10130 G180 D0.25 U0.75 
N10135 G1 X42.502 Y61.317 F508 
N10140 X39.932 Y63.474 
N10145 X231.862 Y292.209 
N10150 X229.292 Y294.365 
N10155 X37.361 Y65.631 
N10160 X34.791 Y67.788 
N10165 X226.722 Y296.522 
N10170 X224.151 Y298.679 
N10175 X32.22 Y69.945 
N10180 X29.65 Y72.102 
N10185 X221.581 Y300.836 
N10190 ; DEPOSITION OFF 
N10195 G181 D0.25 U0.75 
N10200 G0 X55.19 Y107.759 
N10205 ; DEPOSITION ON 
N10210 G180 D0.25 U0.75 
N10215 G1 X27.08 Y74.258 F508 
N10220 X24.509 Y76.415 
N10225 X52.62 Y109.916 
N10230 G181 D0.25 U0.75 
N10235 V.P.layer_num = 15 
N10240 P12011=0 
N10245 #PCALL decking.nc P1 = V.P.layer_num 
N10250 P12012= 15 
N10255 P12011=1 
N10260 ; LAYER 15 END 
N10265 ; DEPOSITION OFF 
N10270 G181 D0.25 U0.75 
N10275 G0 Z32 
N10280 X90.911 Y19.569 
N10285 ; LAYER 16 START 
N10290 ; DEPOSITION ON 
N10295 G180 D0.25 U0.75 
N10300 G1 X119.577 Y53.732 F508 
N10305 X116.997 Y55.897 
N10310 X88.331 Y21.734 
N10315 X85.75 Y23.899 
N10320 X114.417 Y58.062 
N10325 X111.837 Y60.227 
N10330 X83.17 Y26.064 
N10335 X80.59 Y28.229 
N10340 X109.256 Y62.392 
N10345 X106.676 Y64.557 
N10350 X78.01 Y30.394 
N10355 X75.43 Y32.559 
N10360 X104.096 Y66.722 
N10365 ; DEPOSITION OFF 
N10370 G181 D0.25 U0.75 
N10375 G0 X265.539 Y264.363 
N10380 ; DEPOSITION ON 
N10385 G180 D0.25 U0.75 
N10390 G1 X72.85 Y34.724 F508 
N10395 X70.269 Y36.889 
N10400 X262.959 Y266.528 
N10405 X260.379 Y268.693 
N10410 X67.689 Y39.054 
N10415 X65.109 Y41.219 
N10420 X93.775 Y75.382 
N10425 ; DEPOSITION OFF 
N10430 G181 D0.25 U0.75 
N10435 G0 X237.924 Y247.172 
N10440 ; DEPOSITION ON 
N10445 G180 D0.25 U0.75 
N10450 G1 X257.799 Y270.858 F508 
N10455 X255.219 Y273.023 
N10460 X235.344 Y249.337 
N10465 ; DEPOSITION OFF 
N10470 G181 D0.25 U0.75 
N10475 G0 X91.195 Y77.547 
N10480 ; DEPOSITION ON 
N10485 G180 D0.25 U0.75 
N10490 G1 X62.529 Y43.384 F508 
N10495 X59.949 Y45.549 
N10500 X88.615 Y79.712 
N10505 ; DEPOSITION OFF 
N10510 G181 D0.25 U0.75 
N10515 G0 X232.763 Y251.502 
N10520 ; DEPOSITION ON 
N10525 G180 D0.25 U0.75 
N10530 G1 X252.638 Y275.188 F508 
N10535 X250.058 Y277.353 
N10540 X230.183 Y253.667 
N10545 ; DEPOSITION OFF 
N10550 G181 D0.25 U0.75 
N10555 G0 X86.035 Y81.877 
N10560 ; DEPOSITION ON 
N10565 G180 D0.25 U0.75 
N10570 G1 X57.368 Y47.714 F508 
N10575 X54.788 Y49.879 
N10580 X83.455 Y84.042 
N10585 ; DEPOSITION OFF 
N10590 G181 D0.25 U0.75 
N10595 G0 X227.603 Y255.832 
N10600 ; DEPOSITION ON 
N10605 G180 D0.25 U0.75 
N10610 G1 X247.478 Y279.518 F508 
N10615 X244.898 Y281.683 
N10620 X225.023 Y257.997 
N10625 ; DEPOSITION OFF 
N10630 G181 D0.25 U0.75 
N10635 G0 X80.874 Y86.207 
N10640 ; DEPOSITION ON 
N10645 G180 D0.25 U0.75 
N10650 G1 X52.208 Y52.044 F508 
N10655 X49.628 Y54.209 
N10660 X78.294 Y88.373 
N10665 ; DEPOSITION OFF 
N10670 G181 D0.25 U0.75 
N10675 G0 X222.443 Y260.162 
N10680 ; DEPOSITION ON 
N10685 G180 D0.25 U0.75 
N10690 G1 X242.318 Y283.848 F508 
N10695 X239.738 Y286.013 
N10700 X219.863 Y262.327 
N10705 ; DEPOSITION OFF 
N10710 G181 D0.25 U0.75 
N10715 G0 X75.714 Y90.538 
N10720 ; DEPOSITION ON 
N10725 G180 D0.25 U0.75 
N10730 G1 X47.048 Y56.374 F508 
N10735 X44.468 Y58.539 
N10740 X73.134 Y92.703 
N10745 ; DEPOSITION OFF 
N10750 G181 D0.25 U0.75 
N10755 G0 X217.282 Y264.492 
N10760 ; DEPOSITION ON 
N10765 G180 D0.25 U0.75 
N10770 G1 X237.157 Y288.178 F508 
N10775 X234.577 Y290.343 
N10780 X214.702 Y266.657 
N10785 ; DEPOSITION OFF 
N10790 G181 D0.25 U0.75 
N10795 G0 X70.554 Y94.868 
N10800 ; DEPOSITION ON 
N10805 G180 D0.25 U0.75 
N10810 G1 X41.887 Y60.704 F508 
N10815 X39.307 Y62.869 
N10820 X231.997 Y292.508 
N10825 X229.417 Y294.673 
N10830 X36.727 Y65.034 
N10835 X34.147 Y67.199 
N10840 X226.837 Y296.838 
N10845 X224.256 Y299.003 
N10850 X31.567 Y69.364 
N10855 X28.987 Y71.529 
N10860 X221.676 Y301.168 
N10865 ; DEPOSITION OFF 
N10870 G181 D0.25 U0.75 
N10875 G0 X55.073 Y107.858 
N10880 ; DEPOSITION ON 
N10885 G180 D0.25 U0.75 
N10890 G1 X26.406 Y73.694 F508 
N10895 X23.826 Y75.86 
N10900 X52.493 Y110.023 
N10905 G181 D0.25 U0.75 
N10910 V.P.layer_num = 16 
N10915 P12011=0 
N10920 #PCALL decking.nc P1 = V.P.layer_num 
N10925 P12012= 16 
N10930 P12011=1 
N10935 ; LAYER 16 END 
N10940 ; DEPOSITION OFF 
N10945 G181 D0.25 U0.75 
N10950 G0 Z34 
N10955 X75.22 Y31.606 
N10960 ; LAYER 17 START 
N10965 ; DEPOSITION ON 
N10970 G180 D0.25 U0.75 
N10975 G1 X104.442 Y66.432 F508 
N10980 ; DEPOSITION OFF 
N10985 G181 D0.25 U0.75 
N10990 G0 X266.098 Y264.289 
N10995 ; DEPOSITION ON 
N11000 G180 D0.25 U0.75 
N11005 G1 X72.658 Y33.756 F508 
N11010 X70.096 Y35.905 
N11015 X263.537 Y266.438 
N11020 X260.975 Y268.588 
N11025 X67.535 Y38.055 
N11030 X64.973 Y40.204 
N11035 X94.195 Y75.03 
N11040 ; DEPOSITION OFF 
N11045 G181 D0.25 U0.75 
N11050 G0 X238.344 Y246.819 
N11055 ; DEPOSITION ON 
N11060 G180 D0.25 U0.75 
N11065 G1 X258.413 Y270.737 F508 
N11070 X255.852 Y272.887 
N11075 X235.782 Y248.969 
N11080 ; DEPOSITION OFF 
N11085 G181 D0.25 U0.75 
N11090 G0 X91.634 Y77.18 
N11095 ; DEPOSITION ON 
N11100 G180 D0.25 U0.75 
N11105 G1 X62.411 Y42.354 F508 
N11110 X59.85 Y44.503 
N11115 X89.072 Y79.329 
N11120 ; DEPOSITION OFF 
N11125 G181 D0.25 U0.75 
N11130 G0 X233.22 Y251.119 
N11135 ; DEPOSITION ON 
N11140 G180 D0.25 U0.75 
N11145 G1 X253.29 Y275.036 F508 
N11150 X250.728 Y277.186 
N11155 X230.659 Y253.268 
N11160 ; DEPOSITION OFF 
N11165 G181 D0.25 U0.75 
N11170 G0 X86.51 Y81.479 
N11175 ; DEPOSITION ON 
N11180 G180 D0.25 U0.75 
N11185 G1 X57.288 Y46.653 F508 
N11190 X54.726 Y48.803 
N11195 X83.948 Y83.628 
N11200 ; DEPOSITION OFF 
N11205 G181 D0.25 U0.75 
N11210 G0 X228.097 Y255.418 
N11215 ; DEPOSITION ON 
N11220 G180 D0.25 U0.75 
N11225 G1 X248.166 Y279.335 F508 
N11230 X243.043 Y283.635 
N11235 X222.973 Y259.717 
N11240 ; DEPOSITION OFF 
N11245 G181 D0.25 U0.75 
N11250 G0 X245.605 Y281.485 
N11255 ; DEPOSITION ON 
N11260 G180 D0.25 U0.75 
N11265 G1 X225.535 Y257.567 F508 
N11270 ; DEPOSITION OFF 
N11275 G181 D0.25 U0.75 
N11280 G0 X81.387 Y85.778 
N11285 ; DEPOSITION ON 
N11290 G180 D0.25 U0.75 
N11295 G1 X52.165 Y50.952 F508 
N11300 ; DEPOSITION OFF 
N11305 G181 D0.25 U0.75 
N11310 G0 X220.412 Y261.866 
N11315 ; DEPOSITION ON 
N11320 G180 D0.25 U0.75 
N11325 G1 X240.481 Y285.784 F508 
N11330 X237.92 Y287.934 
N11335 X217.85 Y264.016 
N11340 ; DEPOSITION OFF 
N11345 G181 D0.25 U0.75 
N11350 G0 X73.702 Y92.226 
N11355 ; DEPOSITION ON 
N11360 G180 D0.25 U0.75 
N11365 G1 X44.479 Y57.401 F508 
N11370 X41.918 Y59.55 
N11375 X71.14 Y94.376 
N11380 ; DEPOSITION OFF 
N11385 G181 D0.25 U0.75 
N11390 G0 X215.288 Y266.165 
N11395 ; DEPOSITION ON 
N11400 G180 D0.25 U0.75 
N11405 G1 X235.358 Y290.083 F508 
N11410 X232.796 Y292.233 
N11415 X39.356 Y61.7 
N11420 X36.794 Y63.849 
N11425 X230.235 Y294.382 
N11430 X227.673 Y296.532 
N11435 X34.233 Y65.999 
N11440 X31.671 Y68.148 
N11445 X225.111 Y298.681 
N11450 X222.549 Y300.831 
N11455 X29.109 Y70.298 
N11460 X26.548 Y72.447 
N11465 X55.77 Y107.273 
N11470 X53.208 Y109.422 
N11475 X23.986 Y74.597 
N11480 ; DEPOSITION OFF 
N11485 G181 D0.25 U0.75 
N11490 G0 X90.462 Y18.817 
N11495 ; DEPOSITION ON 
N11500 G180 D0.25 U0.75 
N11505 G1 X119.684 Y53.643 F508 
N11510 G181 D0.25 U0.75 
N11515 V.P.layer_num = 17 
N11520 P12011=0 
N11525 #PCALL decking.nc P1 = V.P.layer_num 
N11530 P12012= 17 
N11535 P12011=1 
N11540 ; LAYER 17 END 
N11545 ; DEPOSITION OFF 
N11550 G181 D0.25 U0.75 
N11555 G0 Z36 
N11560 X73.985 Y31.514 
N11565 ; LAYER 18 START 
N11570 ; DEPOSITION ON 
N11575 G180 D0.25 U0.75 
N11580 G1 X103.763 Y67.002 F508 
N11585 ; DEPOSITION OFF 
N11590 G181 D0.25 U0.75 
N11595 G0 X265.596 Y265.089 
N11600 ; DEPOSITION ON 
N11605 G180 D0.25 U0.75 
N11610 G1 X71.414 Y33.671 F508 
N11615 X68.843 Y35.829 
N11620 X263.025 Y267.246 
N11625 X260.453 Y269.404 
N11630 X66.271 Y37.986 
N11635 X63.7 Y40.144 
N11640 X93.478 Y75.632 
N11645 ; DEPOSITION OFF 
N11650 G181 D0.25 U0.75 
N11655 G0 X237.627 Y247.421 
N11660 ; DEPOSITION ON 
N11665 G180 D0.25 U0.75 
N11670 G1 X257.882 Y271.561 F508 
N11675 X255.311 Y273.718 
N11680 X235.055 Y249.579 
N11685 ; DEPOSITION OFF 
N11690 G181 D0.25 U0.75 
N11695 G0 X90.907 Y77.789 
N11700 ; DEPOSITION ON 
N11705 G180 D0.25 U0.75 
N11710 G1 X61.129 Y42.301 F508 
N11715 X58.558 Y44.459 
N11720 X88.336 Y79.947 
N11725 ; DEPOSITION OFF 
N11730 G181 D0.25 U0.75 
N11735 G0 X232.484 Y251.736 
N11740 ; DEPOSITION ON 
N11745 G180 D0.25 U0.75 
N11750 G1 X252.74 Y275.876 F508 
N11755 X250.169 Y278.033 
N11760 X229.913 Y253.894 
N11765 ; DEPOSITION OFF 
N11770 G181 D0.25 U0.75 
N11775 G0 X85.765 Y82.104 
N11780 ; DEPOSITION ON 
N11785 G180 D0.25 U0.75 
N11790 G1 X55.987 Y46.616 F508 
N11795 X53.416 Y48.774 
N11800 X83.193 Y84.262 
N11805 ; DEPOSITION OFF 
N11810 G181 D0.25 U0.75 
N11815 G0 X227.342 Y256.051 
N11820 ; DEPOSITION ON 
N11825 G180 D0.25 U0.75 
N11830 G1 X247.598 Y280.191 F508 
N11835 ; DEPOSITION OFF 
N11840 G181 D0.25 U0.75 
N11845 G0 X224.771 Y258.209 
N11850 ; DEPOSITION ON 
N11855 G180 D0.25 U0.75 
N11860 G1 X245.026 Y282.348 F508 
N11865 X242.455 Y284.506 
N11870 X222.2 Y260.366 
N11875 X219.628 Y262.523 
N11880 X239.884 Y286.663 
N11885 X237.313 Y288.821 
N11890 X217.057 Y264.681 
N11895 ; DEPOSITION OFF 
N11900 G181 D0.25 U0.75 
N11905 G0 X40.56 Y59.561 
N11910 ; DEPOSITION ON 
N11915 G180 D0.25 U0.75 
N11920 G1 X70.338 Y95.049 F508 
N11925 ; DEPOSITION OFF 
N11930 G181 D0.25 U0.75 
N11935 G0 X214.486 Y266.838 
N11940 ; DEPOSITION ON 
N11945 G180 D0.25 U0.75 
N11950 G1 X234.742 Y290.978 F508 
N11955 X232.171 Y293.136 
N11960 X37.989 Y61.718 
N11965 X35.417 Y63.876 
N11970 X229.599 Y295.293 
N11975 X227.028 Y297.451 
N11980 X32.846 Y66.033 
N11985 X30.275 Y68.191 
N11990 X224.457 Y299.608 
N11995 X221.886 Y301.765 
N12000 X27.704 Y70.348 
N12005 X25.133 Y72.506 
N12010 X54.911 Y107.994 
N12015 X52.339 Y110.151 
N12020 X22.562 Y74.663 
N12025 G181 D0.25 U0.75 
N12030 V.P.layer_num = 18 
N12035 P12011=0 
N12040 #PCALL decking.nc P1 = V.P.layer_num 
N12045 P12012= 18 
N12050 P12011=1 
N12055 ; LAYER 18 END 
N12060 ; DEPOSITION OFF 
N12065 G181 D0.25 U0.75 
N12070 G0 Z38 
N12075 X73.888 Y30.466 
N12080 ; LAYER 19 START 
N12085 ; DEPOSITION ON 
N12090 G180 D0.25 U0.75 
N12095 G1 X104.222 Y66.617 F508 
N12100 ; DEPOSITION OFF 
N12105 G181 D0.25 U0.75 
N12110 G0 X266.251 Y264.9 
N12115 ; DEPOSITION ON 
N12120 G180 D0.25 U0.75 
N12125 G1 X71.335 Y32.609 F508 
N12130 X68.782 Y34.751 
N12135 X263.698 Y267.042 
N12140 X261.145 Y269.184 
N12145 X66.23 Y36.893 
N12150 X63.677 Y39.035 
N12155 X94.011 Y75.185 
N12160 ; DEPOSITION OFF 
N12165 G181 D0.25 U0.75 
N12170 G0 X238.159 Y246.974 
N12175 ; DEPOSITION ON 
N12180 G180 D0.25 U0.75 
N12185 G1 X258.592 Y271.326 F508 
N12190 X256.04 Y273.468 
N12195 X235.606 Y249.116 
N12200 ; DEPOSITION OFF 
N12205 G181 D0.25 U0.75 
N12210 G0 X91.458 Y77.327 
N12215 ; DEPOSITION ON 
N12220 G180 D0.25 U0.75 
N12225 G1 X61.124 Y41.177 F508 
N12230 X58.571 Y43.319 
N12235 X88.905 Y79.469 
N12240 ; DEPOSITION OFF 
N12245 G181 D0.25 U0.75 
N12250 G0 X233.053 Y251.258 
N12255 ; DEPOSITION ON 
N12260 G180 D0.25 U0.75 
N12265 G1 X253.487 Y275.61 F508 
N12270 X250.934 Y277.752 
N12275 X230.501 Y253.401 
N12280 ; DEPOSITION OFF 
N12285 G181 D0.25 U0.75 
N12290 G0 X86.352 Y81.611 
N12295 ; DEPOSITION ON 
N12300 G180 D0.25 U0.75 
N12305 G1 X56.018 Y45.461 F508 
N12310 X53.466 Y47.603 
N12315 X83.799 Y83.753 
N12320 ; DEPOSITION OFF 
N12325 G181 D0.25 U0.75 
N12330 G0 X227.948 Y255.543 
N12335 ; DEPOSITION ON 
N12340 G180 D0.25 U0.75 
N12345 G1 X248.381 Y279.894 F508 
N12350 ; DEPOSITION OFF 
N12355 G181 D0.25 U0.75 
N12360 G0 X225.395 Y257.685 
N12365 ; DEPOSITION ON 
N12370 G180 D0.25 U0.75 
N12375 G1 X245.829 Y282.036 F508 
N12380 X243.276 Y284.178 
N12385 X222.842 Y259.827 
N12390 X220.29 Y261.969 
N12395 X240.723 Y286.32 
N12400 X238.17 Y288.462 
N12405 X217.737 Y264.111 
N12410 X215.184 Y266.253 
N12415 X235.617 Y290.604 
N12420 X233.065 Y292.746 
N12425 X38.149 Y60.455 
N12430 X35.596 Y62.597 
N12435 X230.512 Y294.888 
N12440 X227.959 Y297.03 
N12445 X33.044 Y64.739 
N12450 X30.491 Y66.881 
N12455 X225.406 Y299.172 
N12460 X222.854 Y301.314 
N12465 X27.938 Y69.023 
N12470 X25.385 Y71.165 
N12475 X55.719 Y107.315 
N12480 X53.166 Y109.457 
N12485 X22.832 Y73.307 
N12490 G181 D0.25 U0.75 
N12495 V.P.layer_num = 19 
N12500 P12011=0 
N12505 #PCALL decking.nc P1 = V.P.layer_num 
N12510 P12012= 19 
N12515 P12011=1 
N12520 ; LAYER 19 END 
N12525 ; DEPOSITION OFF 
N12530 G181 D0.25 U0.75 
N12535 G0 Z40 
N12540 X75.347 Y28.113 
N12545 ; LAYER 20 START 
N12550 ; DEPOSITION ON 
N12555 G180 D0.25 U0.75 
N12560 G1 X106.237 Y64.926 F508 
N12565 X103.675 Y67.076 
N12570 X72.785 Y30.263 
N12575 X70.224 Y32.413 
N12580 X265.864 Y265.568 
N12585 X263.302 Y267.718 
N12590 X67.662 Y34.562 
N12595 X65.1 Y36.712 
N12600 X260.74 Y269.867 
N12605 X258.178 Y272.017 
N12610 X237.576 Y247.464 
N12615 ; DEPOSITION OFF 
N12620 G181 D0.25 U0.75 
N12625 G0 X93.427 Y75.674 
N12630 ; DEPOSITION ON 
N12635 G180 D0.25 U0.75 
N12640 G1 X62.538 Y38.862 F508 
N12645 X59.976 Y41.011 
N12650 X90.865 Y77.824 
N12655 ; DEPOSITION OFF 
N12660 G181 D0.25 U0.75 
N12665 G0 X235.014 Y249.614 
N12670 ; DEPOSITION ON 
N12675 G180 D0.25 U0.75 
N12680 G1 X255.617 Y274.167 F508 
N12685 X253.055 Y276.317 
N12690 X232.452 Y251.763 
N12695 ; DEPOSITION OFF 
N12700 G181 D0.25 U0.75 
N12705 G0 X88.303 Y79.974 
N12710 ; DEPOSITION ON 
N12715 G180 D0.25 U0.75 
N12720 G1 X57.414 Y43.161 F508 
N12725 X54.852 Y45.311 
N12730 X85.742 Y82.124 
N12735 ; DEPOSITION OFF 
N12740 G181 D0.25 U0.75 
N12745 G0 X229.89 Y253.913 
N12750 ; DEPOSITION ON 
N12755 G180 D0.25 U0.75 
N12760 G1 X250.493 Y278.466 F508 
N12765 ; DEPOSITION OFF 
N12770 G181 D0.25 U0.75 
N12775 G0 X227.328 Y256.063 
N12780 ; DEPOSITION ON 
N12785 G180 D0.25 U0.75 
N12790 G1 X247.931 Y280.616 F508 
N12795 X245.369 Y282.766 
N12800 X224.766 Y258.212 
N12805 X222.204 Y260.362 
N12810 X242.807 Y284.915 
N12815 X240.245 Y287.065 
N12820 X219.642 Y262.512 
N12825 X217.08 Y264.662 
N12830 X237.683 Y289.215 
N12835 X235.121 Y291.365 
N12840 X214.518 Y266.811 
N12845 ; DEPOSITION OFF 
N12850 G181 D0.25 U0.75 
N12855 G0 X36.918 Y60.359 
N12860 ; DEPOSITION ON 
N12865 G180 D0.25 U0.75 
N12870 G1 X232.559 Y293.514 F508 
N12875 X229.997 Y295.664 
N12880 X34.357 Y62.508 
N12885 X31.795 Y64.658 
N12890 X227.435 Y297.814 
N12895 X224.873 Y299.963 
N12900 X29.233 Y66.808 
N12905 X26.671 Y68.958 
N12910 X222.312 Y302.113 
N12915 ; DEPOSITION OFF 
N12920 G181 D0.25 U0.75 
N12925 G0 X54.998 Y107.92 
N12930 ; DEPOSITION ON 
N12935 G180 D0.25 U0.75 
N12940 G1 X24.109 Y71.107 F508 
N12945 X21.547 Y73.257 
N12950 X52.436 Y110.07 
N12955 G181 D0.25 U0.75 
N12960 V.P.layer_num = 20 
N12965 P12011=0 
N12970 #PCALL decking.nc P1 = V.P.layer_num 
N12975 P12012= 20 
N12980 P12011=1 
N12985 ; LAYER 20 END 
N12990 ; DEPOSITION OFF 
N12995 G181 D0.25 U0.75 
N13000 G0 Z42 
N13005 X75.529 Y26.832 
N13010 ; LAYER 21 START 
N13015 ; DEPOSITION ON 
N13020 G180 D0.25 U0.75 
N13025 G1 X106.975 Y64.307 F508 
N13030 X104.404 Y66.464 
N13035 X72.958 Y28.989 
N13040 X70.387 Y31.146 
N13045 X266.745 Y265.156 
N13050 X264.174 Y267.313 
N13055 X67.816 Y33.304 
N13060 X65.245 Y35.461 
N13065 X261.603 Y269.471 
N13070 X259.032 Y271.628 
N13075 X238.268 Y246.883 
N13080 ; DEPOSITION OFF 
N13085 G181 D0.25 U0.75 
N13090 G0 X94.12 Y75.093 
N13095 ; DEPOSITION ON 
N13100 G180 D0.25 U0.75 
N13105 G1 X62.674 Y37.618 F508 
N13110 X60.103 Y39.775 
N13115 X91.549 Y77.251 
N13120 ; DEPOSITION OFF 
N13125 G181 D0.25 U0.75 
N13130 G0 X235.697 Y249.04 
N13135 ; DEPOSITION ON 
N13140 G180 D0.25 U0.75 
N13145 G1 X256.461 Y273.785 F508 
N13150 X253.89 Y275.943 
N13155 X233.126 Y251.197 
N13160 ; DEPOSITION OFF 
N13165 G181 D0.25 U0.75 
N13170 G0 X88.978 Y79.408 
N13175 ; DEPOSITION ON 
N13180 G180 D0.25 U0.75 
N13185 G1 X57.533 Y41.933 F508 
N13190 X54.962 Y44.09 
N13195 X86.407 Y81.565 
N13200 ; DEPOSITION OFF 
N13205 G181 D0.25 U0.75 
N13210 G0 X230.555 Y253.355 
N13215 ; DEPOSITION ON 
N13220 G180 D0.25 U0.75 
N13225 G1 X251.319 Y278.1 F508 
N13230 ; DEPOSITION OFF 
N13235 G181 D0.25 U0.75 
N13240 G0 X227.984 Y255.512 
N13245 ; DEPOSITION ON 
N13250 G180 D0.25 U0.75 
N13255 G1 X248.748 Y280.257 F508 
N13260 X246.177 Y282.414 
N13265 X225.413 Y257.669 
N13270 X222.842 Y259.827 
N13275 X243.606 Y284.572 
N13280 X241.035 Y286.729 
N13285 X220.271 Y261.984 
N13290 X217.701 Y264.141 
N13295 X238.464 Y288.886 
N13300 X235.893 Y291.044 
N13305 X215.13 Y266.298 
N13310 ; DEPOSITION OFF 
N13315 G181 D0.25 U0.75 
N13320 G0 X36.965 Y59.191 
N13325 ; DEPOSITION ON 
N13330 G180 D0.25 U0.75 
N13335 G1 X233.322 Y293.201 F508 
N13340 X230.751 Y295.358 
N13345 X34.394 Y61.348 
N13350 X31.823 Y63.506 
N13355 X228.18 Y297.516 
N13360 X225.609 Y299.673 
N13365 X29.252 Y65.663 
N13370 X26.681 Y67.82 
N13375 X223.038 Y301.83 
N13380 ; DEPOSITION OFF 
N13385 G181 D0.25 U0.75 
N13390 G0 X55.555 Y107.453 
N13395 ; DEPOSITION ON 
N13400 G180 D0.25 U0.75 
N13405 G1 X24.11 Y69.978 F508 
N13410 X21.539 Y72.135 
N13415 X52.984 Y109.61 
N13420 G181 D0.25 U0.75 
N13425 V.P.layer_num = 21 
N13430 P12011=0 
N13435 #PCALL decking.nc P1 = V.P.layer_num 
N13440 P12012= 21 
N13445 P12011=1 
N13450 ; LAYER 21 END 
N13455 ; DEPOSITION OFF 
N13460 G181 D0.25 U0.75 
N13465 G0 Z44 
N13470 X77 Y24.469 
N13475 ; LAYER 22 START 
N13480 ; DEPOSITION ON 
N13485 G180 D0.25 U0.75 
N13490 G1 X109.001 Y62.606 F508 
N13495 X106.421 Y64.771 
N13500 X74.42 Y26.634 
N13505 X71.84 Y28.798 
N13510 X103.841 Y66.936 
N13515 ; DEPOSITION OFF 
N13520 G181 D0.25 U0.75 
N13525 G0 X266.326 Y265.817 
N13530 ; DEPOSITION ON 
N13535 G180 D0.25 U0.75 
N13540 G1 X69.26 Y30.963 F508 
N13545 X66.68 Y33.128 
N13550 X263.746 Y267.982 
N13555 X261.167 Y270.147 
N13560 X64.101 Y35.293 
N13565 X61.521 Y37.458 
N13570 X93.522 Y75.595 
N13575 ; DEPOSITION OFF 
N13580 G181 D0.25 U0.75 
N13585 G0 X237.67 Y247.385 
N13590 ; DEPOSITION ON 
N13595 G180 D0.25 U0.75 
N13600 G1 X258.587 Y272.312 F508 
N13605 X256.007 Y274.476 
N13610 X235.09 Y249.549 
N13615 ; DEPOSITION OFF 
N13620 G181 D0.25 U0.75 
N13625 G0 X90.942 Y77.76 
N13630 ; DEPOSITION ON 
N13635 G180 D0.25 U0.75 
N13640 G1 X58.941 Y39.622 F508 
N13645 X56.361 Y41.787 
N13650 X88.362 Y79.925 
N13655 ; DEPOSITION OFF 
N13660 G181 D0.25 U0.75 
N13665 G0 X232.51 Y251.714 
N13670 ; DEPOSITION ON 
N13675 G180 D0.25 U0.75 
N13680 G1 X253.427 Y276.641 F508 
N13685 ; DEPOSITION OFF 
N13690 G181 D0.25 U0.75 
N13695 G0 X248.267 Y280.971 
N13700 ; DEPOSITION ON 
N13705 G180 D0.25 U0.75 
N13710 G1 X227.351 Y256.044 F508 
N13715 ; DEPOSITION OFF 
N13720 G181 D0.25 U0.75 
N13725 G0 X250.847 Y278.806 
N13730 ; DEPOSITION ON 
N13735 G180 D0.25 U0.75 
N13740 G1 X229.931 Y253.879 F508 
N13745 ; DEPOSITION OFF 
N13750 G181 D0.25 U0.75 
N13755 G0 X85.782 Y82.089 
N13760 ; DEPOSITION ON 
N13765 G180 D0.25 U0.75 
N13770 G1 X53.781 Y43.952 F508 
N13775 ; DEPOSITION OFF 
N13780 G181 D0.25 U0.75 
N13785 G0 X224.771 Y258.209 
N13790 ; DEPOSITION ON 
N13795 G180 D0.25 U0.75 
N13800 G1 X245.687 Y283.136 F508 
N13805 X243.107 Y285.3 
N13810 X222.191 Y260.373 
N13815 X219.611 Y262.538 
N13820 X240.527 Y287.465 
N13825 X237.947 Y289.63 
N13830 X217.031 Y264.703 
N13835 X214.451 Y266.868 
N13840 X235.367 Y291.795 
N13845 X232.787 Y293.96 
N13850 X35.722 Y59.106 
N13855 X33.142 Y61.27 
N13860 X230.208 Y296.124 
N13865 X227.628 Y298.289 
N13870 X30.562 Y63.435 
N13875 X27.982 Y65.6 
N13880 X225.048 Y300.454 
N13885 X222.468 Y302.619 
N13890 X25.402 Y67.765 
N13895 X22.822 Y69.93 
N13900 X54.823 Y108.067 
N13905 X52.243 Y110.232 
N13910 X20.242 Y72.094 
N13915 G181 D0.25 U0.75 
N13920 V.P.layer_num = 22 
N13925 P12011=0 
N13930 #PCALL decking.nc P1 = V.P.layer_num 
N13935 P12012= 22 
N13940 P12011=1 
N13945 ; LAYER 22 END 
N13950 ; DEPOSITION OFF 
N13955 G181 D0.25 U0.75 
N13960 G0 Z46 
N13965 X76.881 Y23.44 
N13970 ; LAYER 23 START 
N13975 ; DEPOSITION ON 
N13980 G180 D0.25 U0.75 
N13985 G1 X109.438 Y62.24 F508 
N13990 X106.877 Y64.389 
N13995 X74.32 Y25.589 
N14000 X71.759 Y27.738 
N14005 X104.316 Y66.538 
N14010 ; DEPOSITION OFF 
N14015 G181 D0.25 U0.75 
N14020 G0 X266.964 Y265.575 
N14025 ; DEPOSITION ON 
N14030 G180 D0.25 U0.75 
N14035 G1 X69.198 Y29.887 F508 
N14040 X66.637 Y32.036 
N14045 X264.403 Y267.724 
N14050 X261.841 Y269.874 
N14055 X64.075 Y34.185 
N14060 X61.514 Y36.334 
N14065 X94.071 Y75.134 
N14070 ; DEPOSITION OFF 
N14075 G181 D0.25 U0.75 
N14080 G0 X238.22 Y246.924 
N14085 ; DEPOSITION ON 
N14090 G180 D0.25 U0.75 
N14095 G1 X259.28 Y272.023 F508 
N14100 X256.719 Y274.172 
N14105 X235.658 Y249.073 
N14110 ; DEPOSITION OFF 
N14115 G181 D0.25 U0.75 
N14120 G0 X91.51 Y77.283 
N14125 ; DEPOSITION ON 
N14130 G180 D0.25 U0.75 
N14135 G1 X58.953 Y38.483 F508 
N14140 X56.392 Y40.632 
N14145 X88.949 Y79.432 
N14150 ; DEPOSITION OFF 
N14155 G181 D0.25 U0.75 
N14160 G0 X233.097 Y251.222 
N14165 ; DEPOSITION ON 
N14170 G180 D0.25 U0.75 
N14175 G1 X254.158 Y276.321 F508 
N14180 X249.035 Y280.619 
N14185 X227.975 Y255.52 
N14190 ; DEPOSITION OFF 
N14195 G181 D0.25 U0.75 
N14200 G0 X251.596 Y278.47 
N14205 ; DEPOSITION ON 
N14210 G180 D0.25 U0.75 
N14215 G1 X230.536 Y253.371 F508 
N14220 ; DEPOSITION OFF 
N14225 G181 D0.25 U0.75 
N14230 G0 X86.387 Y81.581 
N14235 ; DEPOSITION ON 
N14240 G180 D0.25 U0.75 
N14245 G1 X53.83 Y42.782 F508 
N14250 ; DEPOSITION OFF 
N14255 G181 D0.25 U0.75 
N14260 G0 X225.414 Y257.669 
N14265 ; DEPOSITION ON 
N14270 G180 D0.25 U0.75 
N14275 G1 X246.474 Y282.768 F508 
N14280 X243.913 Y284.917 
N14285 X222.852 Y259.818 
N14290 X220.291 Y261.967 
N14295 X241.352 Y287.066 
N14300 X238.79 Y289.215 
N14305 X217.73 Y264.116 
N14310 X215.169 Y266.266 
N14315 X236.229 Y291.365 
N14320 X233.668 Y293.514 
N14325 X35.902 Y57.825 
N14330 X33.341 Y59.974 
N14335 X231.107 Y295.663 
N14340 X228.546 Y297.812 
N14345 X30.78 Y62.124 
N14350 X28.218 Y64.273 
N14355 X225.984 Y299.961 
N14360 X223.423 Y302.11 
N14365 X25.657 Y66.422 
N14370 X23.096 Y68.571 
N14375 X55.653 Y107.371 
N14380 X53.092 Y109.52 
N14385 X20.535 Y70.72 
N14390 G181 D0.25 U0.75 
N14395 V.P.layer_num = 23 
N14400 P12011=0 
N14405 #PCALL decking.nc P1 = V.P.layer_num 
N14410 P12012= 23 
N14415 P12011=1 
N14420 ; LAYER 23 END 
N14425 ; DEPOSITION OFF 
N14430 G181 D0.25 U0.75 
N14435 G0 Z48 
N14440 X78.348 Y21.08 
N14445 ; LAYER 24 START 
N14450 ; DEPOSITION ON 
N14455 G180 D0.25 U0.75 
N14460 G1 X111.461 Y60.542 F508 
N14465 X108.891 Y62.699 
N14470 X75.778 Y23.236 
N14475 X73.209 Y25.393 
N14480 X106.321 Y64.855 
N14485 X103.752 Y67.011 
N14490 X70.639 Y27.549 
N14495 X68.069 Y29.705 
N14500 X266.527 Y266.218 
N14505 X263.957 Y268.375 
N14510 X65.499 Y31.862 
N14515 X62.929 Y34.018 
N14520 X261.387 Y270.531 
N14525 X258.817 Y272.687 
N14530 X237.621 Y247.426 
N14535 ; DEPOSITION OFF 
N14540 G181 D0.25 U0.75 
N14545 G0 X93.472 Y75.637 
N14550 ; DEPOSITION ON 
N14555 G180 D0.25 U0.75 
N14560 G1 X60.359 Y36.174 F508 
N14565 X57.79 Y38.331 
N14570 X90.902 Y77.793 
N14575 ; DEPOSITION OFF 
N14580 G181 D0.25 U0.75 
N14585 G0 X235.051 Y249.583 
N14590 ; DEPOSITION ON 
N14595 G180 D0.25 U0.75 
N14600 G1 X256.247 Y274.844 F508 
N14605 X253.677 Y277 
N14610 X232.481 Y251.739 
N14615 ; DEPOSITION OFF 
N14620 G181 D0.25 U0.75 
N14625 G0 X88.332 Y79.949 
N14630 ; DEPOSITION ON 
N14635 G180 D0.25 U0.75 
N14640 G1 X55.22 Y40.487 F508 
N14645 X52.65 Y42.644 
N14650 X85.763 Y82.106 
N14655 ; DEPOSITION OFF 
N14660 G181 D0.25 U0.75 
N14665 G0 X229.911 Y253.895 
N14670 ; DEPOSITION ON 
N14675 G180 D0.25 U0.75 
N14680 G1 X251.108 Y279.156 F508 
N14685 ; DEPOSITION OFF 
N14690 G181 D0.25 U0.75 
N14695 G0 X227.341 Y256.052 
N14700 ; DEPOSITION ON 
N14705 G180 D0.25 U0.75 
N14710 G1 X248.538 Y281.313 F508 
N14715 X245.968 Y283.469 
N14720 X224.771 Y258.208 
N14725 X222.202 Y260.364 
N14730 X243.398 Y285.625 
N14735 X240.828 Y287.782 
N14740 X219.632 Y262.521 
N14745 X217.062 Y264.677 
N14750 X238.258 Y289.938 
N14755 X235.689 Y292.094 
N14760 X214.492 Y266.833 
N14765 ; DEPOSITION OFF 
N14770 G181 D0.25 U0.75 
N14775 G0 X70.344 Y95.044 
N14780 ; DEPOSITION ON 
N14785 G180 D0.25 U0.75 
N14790 G1 X37.231 Y55.582 F508 
N14795 X34.661 Y57.738 
N14800 X233.119 Y294.251 
N14805 X230.549 Y296.407 
N14810 X32.091 Y59.894 
N14815 X29.521 Y62.051 
N14820 X227.979 Y298.563 
N14825 X225.409 Y300.72 
N14830 X26.951 Y64.207 
N14835 X24.382 Y66.363 
N14840 X222.839 Y302.876 
N14845 ; DEPOSITION OFF 
N14850 G181 D0.25 U0.75 
N14855 G0 X54.924 Y107.982 
N14860 ; DEPOSITION ON 
N14865 G180 D0.25 U0.75 
N14870 G1 X21.812 Y68.52 F508 
N14875 X19.242 Y70.676 
N14880 X52.355 Y110.138 
N14885 G181 D0.25 U0.75 
N14890 V.P.layer_num = 24 
N14895 P12011=0 
N14900 #PCALL decking.nc P1 = V.P.layer_num 
N14905 P12012= 24 
N14910 P12011=1 
N14915 ; LAYER 24 END 
N14920 ; DEPOSITION OFF 
N14925 G181 D0.25 U0.75 
N14930 G0 Z50 
N14935 X78.533 Y19.796 
N14940 ; LAYER 25 START 
N14945 ; DEPOSITION ON 
N14950 G180 D0.25 U0.75 
N14955 G1 X112.202 Y59.921 F508 
N14960 X109.624 Y62.084 
N14965 X75.955 Y21.959 
N14970 X73.377 Y24.123 
N14975 X107.045 Y64.248 
N14980 X104.467 Y66.411 
N14985 X70.798 Y26.286 
N14990 X68.22 Y28.45 
N14995 X267.361 Y265.777 
N15000 X264.783 Y267.941 
N15005 X65.641 Y30.613 
N15010 X63.063 Y32.777 
N15015 X262.204 Y270.104 
N15020 X259.626 Y272.268 
N15025 X238.302 Y246.855 
N15030 ; DEPOSITION OFF 
N15035 G181 D0.25 U0.75 
N15040 G0 X94.153 Y75.065 
N15045 ; DEPOSITION ON 
N15050 G180 D0.25 U0.75 
N15055 G1 X60.485 Y34.94 F508 
N15060 X57.906 Y37.104 
N15065 X91.575 Y77.229 
N15070 ; DEPOSITION OFF 
N15075 G181 D0.25 U0.75 
N15080 G0 X235.723 Y249.018 
N15085 ; DEPOSITION ON 
N15090 G180 D0.25 U0.75 
N15095 G1 X257.048 Y274.431 F508 
N15100 X254.469 Y276.595 
N15105 X233.145 Y251.182 
N15110 ; DEPOSITION OFF 
N15115 G181 D0.25 U0.75 
N15120 G0 X88.997 Y79.392 
N15125 ; DEPOSITION ON 
N15130 G180 D0.25 U0.75 
N15135 G1 X55.328 Y39.268 F508 
N15140 X52.75 Y41.431 
N15145 X86.418 Y81.556 
N15150 ; DEPOSITION OFF 
N15155 G181 D0.25 U0.75 
N15160 G0 X230.567 Y253.345 
N15165 ; DEPOSITION ON 
N15170 G180 D0.25 U0.75 
N15175 G1 X251.891 Y278.758 F508 
N15180 ; DEPOSITION OFF 
N15185 G181 D0.25 U0.75 
N15190 G0 X246.734 Y283.085 
N15195 ; DEPOSITION ON 
N15200 G180 D0.25 U0.75 
N15205 G1 X225.41 Y257.672 F508 
N15210 ; DEPOSITION OFF 
N15215 G181 D0.25 U0.75 
N15220 G0 X249.312 Y280.922 
N15225 ; DEPOSITION ON 
N15230 G180 D0.25 U0.75 
N15235 G1 X227.988 Y255.509 F508 
N15240 ; DEPOSITION OFF 
N15245 G181 D0.25 U0.75 
N15250 G0 X83.84 Y83.719 
N15255 ; DEPOSITION ON 
N15260 G180 D0.25 U0.75 
N15265 G1 X50.171 Y43.595 F508 
N15270 ; DEPOSITION OFF 
N15275 G181 D0.25 U0.75 
N15280 G0 X222.832 Y259.836 
N15285 ; DEPOSITION ON 
N15290 G180 D0.25 U0.75 
N15295 G1 X244.156 Y285.249 F508 
N15300 X241.577 Y287.412 
N15305 X220.253 Y261.999 
N15310 X217.675 Y264.163 
N15315 X238.999 Y289.576 
N15320 X236.421 Y291.739 
N15325 X215.096 Y266.326 
N15330 ; DEPOSITION OFF 
N15335 G181 D0.25 U0.75 
N15340 G0 X70.948 Y94.537 
N15345 ; DEPOSITION ON 
N15350 G180 D0.25 U0.75 
N15355 G1 X37.279 Y54.412 F508 
N15360 X34.701 Y56.576 
N15365 X233.842 Y293.903 
N15370 X231.264 Y296.066 
N15375 X32.123 Y58.739 
N15380 X29.544 Y60.903 
N15385 X228.685 Y298.23 
N15390 X226.107 Y300.393 
N15395 X26.966 Y63.066 
N15400 X24.387 Y65.23 
N15405 X223.529 Y302.557 
N15410 ; DEPOSITION OFF 
N15415 G181 D0.25 U0.75 
N15420 G0 X55.478 Y107.518 
N15425 ; DEPOSITION ON 
N15430 G180 D0.25 U0.75 
N15435 G1 X21.809 Y67.393 F508 
N15440 X19.231 Y69.557 
N15445 X52.899 Y109.681 
N15450 G181 D0.25 U0.75 
N15455 V.P.layer_num = 25 
N15460 P12011=0 
N15465 #PCALL decking.nc P1 = V.P.layer_num 
N15470 P12012= 25 
N15475 P12011=1 
N15480 ; LAYER 25 END 
N15485 ; DEPOSITION OFF 
N15490 G181 D0.25 U0.75 
N15495 G0 Z52 
N15500 X79.684 Y17.702 
N15505 ; LAYER 26 START 
N15510 ; DEPOSITION ON 
N15515 G180 D0.25 U0.75 
N15520 G1 X113.908 Y58.489 F508 
N15525 X111.349 Y60.636 
N15530 X77.124 Y19.849 
N15535 X74.565 Y21.997 
N15540 X108.789 Y62.784 
N15545 X106.23 Y64.932 
N15550 X72.005 Y24.145 
N15555 X69.446 Y26.293 
N15560 X103.67 Y67.08 
N15565 ; DEPOSITION OFF 
N15570 G181 D0.25 U0.75 
N15575 G0 X266.702 Y266.572 
N15580 ; DEPOSITION ON 
N15585 G180 D0.25 U0.75 
N15590 G1 X66.886 Y28.44 F508 
N15595 X64.326 Y30.588 
N15600 X264.143 Y268.72 
N15605 X261.583 Y270.868 
N15610 X61.767 Y32.736 
N15615 X59.207 Y34.884 
N15620 X93.432 Y75.671 
N15625 ; DEPOSITION OFF 
N15630 G181 D0.25 U0.75 
N15635 G0 X237.58 Y247.46 
N15640 ; DEPOSITION ON 
N15645 G180 D0.25 U0.75 
N15650 G1 X259.024 Y273.016 F508 
N15655 X256.464 Y275.163 
N15660 X235.021 Y249.608 
N15665 ; DEPOSITION OFF 
N15670 G181 D0.25 U0.75 
N15675 G0 X90.872 Y77.818 
N15680 ; DEPOSITION ON 
N15685 G180 D0.25 U0.75 
N15690 G1 X56.648 Y37.031 F508 
N15695 X54.088 Y39.179 
N15700 X88.313 Y79.966 
N15705 ; DEPOSITION OFF 
N15710 G181 D0.25 U0.75 
N15715 G0 X232.461 Y251.756 
N15720 ; DEPOSITION ON 
N15725 G180 D0.25 U0.75 
N15730 G1 X253.905 Y277.311 F508 
N15735 X251.345 Y279.459 
N15740 X229.901 Y253.903 
N15745 ; DEPOSITION OFF 
N15750 G181 D0.25 U0.75 
N15755 G0 X85.753 Y82.114 
N15760 ; DEPOSITION ON 
N15765 G180 D0.25 U0.75 
N15770 G1 X51.529 Y41.327 F508 
N15775 X48.969 Y43.475 
N15780 X83.193 Y84.262 
N15785 ; DEPOSITION OFF 
N15790 G181 D0.25 U0.75 
N15795 G0 X227.342 Y256.051 
N15800 ; DEPOSITION ON 
N15805 G180 D0.25 U0.75 
N15810 G1 X248.785 Y281.606 F508 
N15815 ; DEPOSITION OFF 
N15820 G181 D0.25 U0.75 
N15825 G0 X224.782 Y258.199 
N15830 ; DEPOSITION ON 
N15835 G180 D0.25 U0.75 
N15840 G1 X246.226 Y283.754 F508 
N15845 X243.666 Y285.902 
N15850 X222.223 Y260.347 
N15855 X219.663 Y262.494 
N15860 X241.107 Y288.05 
N15865 X238.547 Y290.197 
N15870 X217.104 Y264.642 
N15875 ; DEPOSITION OFF 
N15880 G181 D0.25 U0.75 
N15885 G0 X36.171 Y54.213 
N15890 ; DEPOSITION ON 
N15895 G180 D0.25 U0.75 
N15900 G1 X70.396 Y95 F508 
N15905 ; DEPOSITION OFF 
N15910 G181 D0.25 U0.75 
N15915 G0 X214.544 Y266.79 
N15920 ; DEPOSITION ON 
N15925 G180 D0.25 U0.75 
N15930 G1 X235.988 Y292.345 F508 
N15935 X233.428 Y294.493 
N15940 X33.612 Y56.361 
N15945 X31.052 Y58.509 
N15950 X230.868 Y296.641 
N15955 X228.309 Y298.788 
N15960 X28.492 Y60.656 
N15965 X25.933 Y62.804 
N15970 X225.749 Y300.936 
N15975 X223.19 Y303.084 
N15980 X23.373 Y64.952 
N15985 X20.814 Y67.1 
N15990 X55.038 Y107.887 
N15995 X52.479 Y110.035 
N16000 X18.254 Y69.247 
N16005 G181 D0.25 U0.75 
N16010 V.P.layer_num = 26 
N16015 P12011=0 
N16020 #PCALL decking.nc P1 = V.P.layer_num 
N16025 P12012= 26 
N16030 P12011=1 
N16035 ; LAYER 26 END 
N16040 ; DEPOSITION OFF 
N16045 G181 D0.25 U0.75 
N16050 G0 Z54 
N16055 X79.87 Y16.417 
N16060 ; LAYER 27 START 
N16065 ; DEPOSITION ON 
N16070 G180 D0.25 U0.75 
N16075 G1 X114.65 Y57.866 F508 
N16080 X112.082 Y60.021 
N16085 X77.302 Y18.572 
N16090 X74.734 Y20.726 
N16095 X109.514 Y62.176 
N16100 X106.947 Y64.33 
N16105 X72.166 Y22.881 
N16110 X69.599 Y25.036 
N16115 X104.379 Y66.485 
N16120 ; DEPOSITION OFF 
N16125 G181 D0.25 U0.75 
N16130 G0 X267.514 Y266.117 
N16135 ; DEPOSITION ON 
N16140 G180 D0.25 U0.75 
N16145 G1 X67.031 Y27.19 F508 
N16150 X64.463 Y29.345 
N16155 X264.946 Y268.272 
N16160 X262.378 Y270.426 
N16165 X61.895 Y31.5 
N16170 X59.327 Y33.654 
N16175 X94.107 Y75.104 
N16180 ; DEPOSITION OFF 
N16185 G181 D0.25 U0.75 
N16190 G0 X238.256 Y246.893 
N16195 ; DEPOSITION ON 
N16200 G180 D0.25 U0.75 
N16205 G1 X259.811 Y272.581 F508 
N16210 X257.243 Y274.736 
N16215 X235.688 Y249.048 
N16220 ; DEPOSITION OFF 
N16225 G181 D0.25 U0.75 
N16230 G0 X91.54 Y77.258 
N16235 ; DEPOSITION ON 
N16240 G180 D0.25 U0.75 
N16245 G1 X56.759 Y35.809 F508 
N16250 X54.192 Y37.963 
N16255 X88.972 Y79.413 
N16260 ; DEPOSITION OFF 
N16265 G181 D0.25 U0.75 
N16270 G0 X233.12 Y251.202 
N16275 ; DEPOSITION ON 
N16280 G180 D0.25 U0.75 
N16285 G1 X254.675 Y276.89 F508 
N16290 X252.107 Y279.045 
N16295 X230.553 Y253.357 
N16300 ; DEPOSITION OFF 
N16305 G181 D0.25 U0.75 
N16310 G0 X86.404 Y81.568 
N16315 ; DEPOSITION ON 
N16320 G180 D0.25 U0.75 
N16325 G1 X51.624 Y40.118 F508 
N16330 X49.056 Y42.273 
N16335 X83.836 Y83.722 
N16340 ; DEPOSITION OFF 
N16345 G181 D0.25 U0.75 
N16350 G0 X227.985 Y255.512 
N16355 ; DEPOSITION ON 
N16360 G180 D0.25 U0.75 
N16365 G1 X249.539 Y281.2 F508 
N16370 ; DEPOSITION OFF 
N16375 G181 D0.25 U0.75 
N16380 G0 X244.404 Y285.509 
N16385 ; DEPOSITION ON 
N16390 G180 D0.25 U0.75 
N16395 G1 X222.849 Y259.821 F508 
N16400 ; DEPOSITION OFF 
N16405 G181 D0.25 U0.75 
N16410 G0 X246.972 Y283.354 
N16415 ; DEPOSITION ON 
N16420 G180 D0.25 U0.75 
N16425 G1 X225.417 Y257.666 F508 
N16430 ; DEPOSITION OFF 
N16435 G181 D0.25 U0.75 
N16440 G0 X81.268 Y85.877 
N16445 ; DEPOSITION ON 
N16450 G180 D0.25 U0.75 
N16455 G1 X46.488 Y44.427 F508 
N16460 ; DEPOSITION OFF 
N16465 G181 D0.25 U0.75 
N16470 G0 X220.281 Y261.976 
N16475 ; DEPOSITION ON 
N16480 G180 D0.25 U0.75 
N16485 G1 X241.836 Y287.664 F508 
N16490 X239.268 Y289.818 
N16495 X217.713 Y264.13 
N16500 ; DEPOSITION OFF 
N16505 G181 D0.25 U0.75 
N16510 G0 X36.217 Y53.046 
N16515 ; DEPOSITION ON 
N16520 G180 D0.25 U0.75 
N16525 G1 X70.997 Y94.496 F508 
N16530 ; DEPOSITION OFF 
N16535 G181 D0.25 U0.75 
N16540 G0 X215.146 Y266.285 
N16545 ; DEPOSITION ON 
N16550 G180 D0.25 U0.75 
N16555 G1 X236.7 Y291.973 F508 
N16560 X234.132 Y294.127 
N16565 X33.649 Y55.201 
N16570 X31.081 Y57.355 
N16575 X231.565 Y296.282 
N16580 X228.997 Y298.437 
N16585 X28.513 Y59.51 
N16590 X25.946 Y61.665 
N16595 X226.429 Y300.591 
N16600 X223.861 Y302.746 
N16605 X23.378 Y63.819 
N16610 X20.81 Y65.974 
N16615 X55.59 Y107.423 
N16620 X53.022 Y109.578 
N16625 X18.242 Y68.129 
N16630 G181 D0.25 U0.75 
N16635 V.P.layer_num = 27 
N16640 P12011=0 
N16645 #PCALL decking.nc P1 = V.P.layer_num 
N16650 P12012= 27 
N16655 P12011=1 
N16660 ; LAYER 27 END 
N16665 ; DEPOSITION OFF 
N16670 G181 D0.25 U0.75 
N16675 G0 Z56 
N16680 X81.342 Y14.053 
N16685 ; LAYER 28 START 
N16690 ; DEPOSITION ON 
N16695 G180 D0.25 U0.75 
N16700 G1 X116.678 Y56.164 F508 
N16705 X114.102 Y58.326 
N16710 X78.766 Y16.214 
N16715 X76.19 Y18.375 
N16720 X111.527 Y60.487 
N16725 X108.951 Y62.649 
N16730 X73.615 Y20.537 
N16735 X71.039 Y22.698 
N16740 X106.375 Y64.81 
N16745 X103.799 Y66.972 
N16750 X68.463 Y24.86 
N16755 X65.887 Y27.021 
N16760 X267.029 Y266.733 
N16765 X264.453 Y268.895 
N16770 X63.311 Y29.183 
N16775 X60.735 Y31.344 
N16780 X261.877 Y271.056 
N16785 X259.301 Y273.218 
N16790 X237.643 Y247.407 
N16795 ; DEPOSITION OFF 
N16800 G181 D0.25 U0.75 
N16805 G0 X93.495 Y75.618 
N16810 ; DEPOSITION ON 
N16815 G180 D0.25 U0.75 
N16820 G1 X58.159 Y33.506 F508 
N16825 X55.583 Y35.667 
N16830 X90.919 Y77.779 
N16835 ; DEPOSITION OFF 
N16840 G181 D0.25 U0.75 
N16845 G0 X235.067 Y249.569 
N16850 ; DEPOSITION ON 
N16855 G180 D0.25 U0.75 
N16860 G1 X256.725 Y275.379 F508 
N16865 X254.149 Y277.541 
N16870 X232.491 Y251.73 
N16875 ; DEPOSITION OFF 
N16880 G181 D0.25 U0.75 
N16885 G0 X88.343 Y79.941 
N16890 ; DEPOSITION ON 
N16895 G180 D0.25 U0.75 
N16900 G1 X53.007 Y37.829 F508 
N16905 X50.431 Y39.99 
N16910 X85.767 Y82.102 
N16915 ; DEPOSITION OFF 
N16920 G181 D0.25 U0.75 
N16925 G0 X229.915 Y253.892 
N16930 ; DEPOSITION ON 
N16935 G180 D0.25 U0.75 
N16940 G1 X251.573 Y279.702 F508 
N16945 X248.997 Y281.863 
N16950 X227.339 Y256.053 
N16955 ; DEPOSITION OFF 
N16960 G181 D0.25 U0.75 
N16965 G0 X83.191 Y84.264 
N16970 ; DEPOSITION ON 
N16975 G180 D0.25 U0.75 
N16980 G1 X47.855 Y42.152 F508 
N16985 X45.279 Y44.313 
N16990 X80.615 Y86.425 
N16995 ; DEPOSITION OFF 
N17000 G181 D0.25 U0.75 
N17005 G0 X224.764 Y258.215 
N17010 ; DEPOSITION ON 
N17015 G180 D0.25 U0.75 
N17020 G1 X246.421 Y284.025 F508 
N17025 ; DEPOSITION OFF 
N17030 G181 D0.25 U0.75 
N17035 G0 X222.188 Y260.376 
N17040 ; DEPOSITION ON 
N17045 G180 D0.25 U0.75 
N17050 G1 X243.845 Y286.186 F508 
N17055 X241.269 Y288.348 
N17060 X219.612 Y262.538 
N17065 ; DEPOSITION OFF 
N17070 G181 D0.25 U0.75 
N17075 G0 X37.551 Y50.798 
N17080 ; DEPOSITION ON 
N17085 G180 D0.25 U0.75 
N17090 G1 X72.887 Y92.91 F508 
N17095 ; DEPOSITION OFF 
N17100 G181 D0.25 U0.75 
N17105 G0 X217.036 Y264.699 
N17110 ; DEPOSITION ON 
N17115 G180 D0.25 U0.75 
N17120 G1 X238.693 Y290.509 F508 
N17125 X236.117 Y292.671 
N17130 X214.46 Y266.861 
N17135 ; DEPOSITION OFF 
N17140 G181 D0.25 U0.75 
N17145 G0 X70.311 Y95.071 
N17150 ; DEPOSITION ON 
N17155 G180 D0.25 U0.75 
N17160 G1 X34.975 Y52.959 F508 
N17165 X32.399 Y55.121 
N17170 X233.541 Y294.832 
N17175 X230.965 Y296.994 
N17180 X29.823 Y57.282 
N17185 X27.247 Y59.444 
N17190 X228.389 Y299.155 
N17195 X225.813 Y301.317 
N17200 X24.671 Y61.605 
N17205 X22.095 Y63.767 
N17210 X223.237 Y303.478 
N17215 ; DEPOSITION OFF 
N17220 G181 D0.25 U0.75 
N17225 G0 X54.856 Y108.04 
N17230 ; DEPOSITION ON 
N17235 G180 D0.25 U0.75 
N17240 G1 X19.52 Y65.928 F508 
N17245 X16.944 Y68.09 
N17250 X52.28 Y110.201 
N17255 G181 D0.25 U0.75 
N17260 V.P.layer_num = 28 
N17265 P12011=0 
N17270 #PCALL decking.nc P1 = V.P.layer_num 
N17275 P12012= 28 
N17280 P12011=1 
N17285 ; LAYER 28 END 
N17290 ; DEPOSITION OFF 
N17295 G181 D0.25 U0.75 
N17300 G0 Z58 
N17305 X81.193 Y13.049 
N17310 ; LAYER 29 START 
N17315 ; DEPOSITION ON 
N17320 G180 D0.25 U0.75 
N17325 G1 X117.085 Y55.823 F508 
N17330 X114.528 Y57.969 
N17335 X78.636 Y15.194 
N17340 X76.079 Y17.34 
N17345 X111.971 Y60.114 
N17350 X109.414 Y62.26 
N17355 X73.522 Y19.486 
N17360 X70.965 Y21.631 
N17365 X106.857 Y64.406 
N17370 X104.3 Y66.551 
N17375 X68.408 Y23.777 
N17380 X65.851 Y25.923 
N17385 X267.643 Y266.409 
N17390 X265.086 Y268.555 
N17395 X63.294 Y28.068 
N17400 X60.737 Y30.214 
N17405 X262.529 Y270.701 
N17410 X259.972 Y272.846 
N17415 X238.22 Y246.923 
N17420 ; DEPOSITION OFF 
N17425 G181 D0.25 U0.75 
N17430 G0 X94.072 Y75.134 
N17435 ; DEPOSITION ON 
N17440 G180 D0.25 U0.75 
N17445 G1 X58.18 Y32.36 F508 
N17450 X55.623 Y34.505 
N17455 X91.514 Y77.279 
N17460 ; DEPOSITION OFF 
N17465 G181 D0.25 U0.75 
N17470 G0 X235.663 Y249.069 
N17475 ; DEPOSITION ON 
N17480 G180 D0.25 U0.75 
N17485 G1 X257.415 Y274.992 F508 
N17490 X254.858 Y277.138 
N17495 X233.106 Y251.215 
N17500 ; DEPOSITION OFF 
N17505 G181 D0.25 U0.75 
N17510 G0 X88.957 Y79.425 
N17515 ; DEPOSITION ON 
N17520 G180 D0.25 U0.75 
N17525 G1 X53.066 Y36.651 F508 
N17530 X50.508 Y38.796 
N17535 X86.4 Y81.571 
N17540 ; DEPOSITION OFF 
N17545 G181 D0.25 U0.75 
N17550 G0 X230.549 Y253.36 
N17555 ; DEPOSITION ON 
N17560 G180 D0.25 U0.75 
N17565 G1 X252.301 Y279.283 F508 
N17570 X249.744 Y281.429 
N17575 X227.992 Y255.506 
N17580 ; DEPOSITION OFF 
N17585 G181 D0.25 U0.75 
N17590 G0 X83.843 Y83.716 
N17595 ; DEPOSITION ON 
N17600 G180 D0.25 U0.75 
N17605 G1 X47.951 Y40.942 F508 
N17610 X45.394 Y43.088 
N17615 X81.286 Y85.862 
N17620 ; DEPOSITION OFF 
N17625 G181 D0.25 U0.75 
N17630 G0 X225.435 Y257.651 
N17635 ; DEPOSITION ON 
N17640 G180 D0.25 U0.75 
N17645 G1 X247.187 Y283.575 F508 
N17650 X242.073 Y287.866 
N17655 X220.321 Y261.943 
N17660 ; DEPOSITION OFF 
N17665 G181 D0.25 U0.75 
N17670 G0 X244.63 Y285.72 
N17675 ; DEPOSITION ON 
N17680 G180 D0.25 U0.75 
N17685 G1 X222.878 Y259.797 F508 
N17690 ; DEPOSITION OFF 
N17695 G181 D0.25 U0.75 
N17700 G0 X78.729 Y88.008 
N17705 ; DEPOSITION ON 
N17710 G180 D0.25 U0.75 
N17715 G1 X42.837 Y45.233 F508 
N17720 X37.723 Y49.525 
N17725 X73.615 Y92.299 
N17730 ; DEPOSITION OFF 
N17735 G181 D0.25 U0.75 
N17740 G0 X217.763 Y264.088 
N17745 ; DEPOSITION ON 
N17750 G180 D0.25 U0.75 
N17755 G1 X239.516 Y290.012 F508 
N17760 X236.958 Y292.157 
N17765 X215.206 Y266.234 
N17770 ; DEPOSITION OFF 
N17775 G181 D0.25 U0.75 
N17780 G0 X71.058 Y94.445 
N17785 ; DEPOSITION ON 
N17790 G180 D0.25 U0.75 
N17795 G1 X35.166 Y51.67 F508 
N17800 X32.609 Y53.816 
N17805 X234.401 Y294.303 
N17810 X231.844 Y296.448 
N17815 X30.052 Y55.962 
N17820 X27.495 Y58.107 
N17825 X229.287 Y298.594 
N17830 X226.73 Y300.74 
N17835 X24.938 Y60.253 
N17840 X22.381 Y62.399 
N17845 X224.173 Y302.885 
N17850 ; DEPOSITION OFF 
N17855 G181 D0.25 U0.75 
N17860 G0 X55.715 Y107.318 
N17865 ; DEPOSITION ON 
N17870 G180 D0.25 U0.75 
N17875 G1 X19.824 Y64.544 F508 
N17880 X17.267 Y66.69 
N17885 X53.158 Y109.464 
N17890 G181 D0.25 U0.75 
N17895 V.P.layer_num = 29 
N17900 P12011=0 
N17905 #PCALL decking.nc P1 = V.P.layer_num 
N17910 P12012= 29 
N17915 P12011=1 
N17920 ; LAYER 29 END 
N17925 ; DEPOSITION OFF 
N17930 G181 D0.25 U0.75 
N17935 G0 Z60 
N17940 X82.661 Y10.689 
N17945 ; LAYER 30 START 
N17950 ; DEPOSITION ON 
N17955 G180 D0.25 U0.75 
N17960 G1 X119.109 Y54.125 F508 
N17965 X116.544 Y56.277 
N17970 X80.096 Y12.841 
N17975 X77.531 Y14.993 
N17980 X113.979 Y58.43 
N17985 X111.414 Y60.582 
N17990 X74.966 Y17.145 
N17995 X72.401 Y19.298 
N18000 X108.849 Y62.734 
N18005 X106.284 Y64.886 
N18010 X69.836 Y21.45 
N18015 X67.271 Y23.602 
N18020 X103.719 Y67.039 
N18025 ; DEPOSITION OFF 
N18030 G181 D0.25 U0.75 
N18035 G0 X267.141 Y267.006 
N18040 ; DEPOSITION ON 
N18045 G180 D0.25 U0.75 
N18050 G1 X64.706 Y25.754 F508 
N18055 X62.142 Y27.906 
N18060 X264.576 Y269.159 
N18065 X262.011 Y271.311 
N18070 X59.577 Y30.059 
N18075 X57.012 Y32.211 
N18080 X93.459 Y75.647 
N18085 ; DEPOSITION OFF 
N18090 G181 D0.25 U0.75 
N18095 G0 X237.608 Y247.437 
N18100 ; DEPOSITION ON 
N18105 G180 D0.25 U0.75 
N18110 G1 X259.446 Y273.463 F508 
N18115 X256.881 Y275.615 
N18120 X235.043 Y249.589 
N18125 ; DEPOSITION OFF 
N18130 G181 D0.25 U0.75 
N18135 G0 X90.894 Y77.8 
N18140 ; DEPOSITION ON 
N18145 G180 D0.25 U0.75 
N18150 G1 X54.447 Y34.363 F508 
N18155 X51.882 Y36.515 
N18160 X88.33 Y79.952 
N18165 ; DEPOSITION OFF 
N18170 G181 D0.25 U0.75 
N18175 G0 X232.478 Y251.741 
N18180 ; DEPOSITION ON 
N18185 G180 D0.25 U0.75 
N18190 G1 X254.316 Y277.767 F508 
N18195 X251.752 Y279.92 
N18200 X229.913 Y253.894 
N18205 ; DEPOSITION OFF 
N18210 G181 D0.25 U0.75 
N18215 G0 X85.765 Y82.104 
N18220 ; DEPOSITION ON 
N18225 G180 D0.25 U0.75 
N18230 G1 X49.317 Y38.668 F508 
N18235 X46.752 Y40.82 
N18240 X83.2 Y84.256 
N18245 ; DEPOSITION OFF 
N18250 G181 D0.25 U0.75 
N18255 G0 X227.348 Y256.046 
N18260 ; DEPOSITION ON 
N18265 G180 D0.25 U0.75 
N18270 G1 X249.187 Y282.072 F508 
N18275 X246.622 Y284.224 
N18280 X224.783 Y258.198 
N18285 ; DEPOSITION OFF 
N18290 G181 D0.25 U0.75 
N18295 G0 X80.635 Y86.409 
N18300 ; DEPOSITION ON 
N18305 G180 D0.25 U0.75 
N18310 G1 X44.187 Y42.972 F508 
N18315 X41.622 Y45.124 
N18320 X78.07 Y88.561 
N18325 ; DEPOSITION OFF 
N18330 G181 D0.25 U0.75 
N18335 G0 X222.218 Y260.35 
N18340 ; DEPOSITION ON 
N18345 G180 D0.25 U0.75 
N18350 G1 X244.057 Y286.376 F508 
N18355 X241.492 Y288.529 
N18360 X219.653 Y262.503 
N18365 ; DEPOSITION OFF 
N18370 G181 D0.25 U0.75 
N18375 G0 X75.505 Y90.713 
N18380 ; DEPOSITION ON 
N18385 G180 D0.25 U0.75 
N18390 G1 X39.057 Y47.276 F508 
N18395 X36.492 Y49.429 
N18400 X72.94 Y92.865 
N18405 ; DEPOSITION OFF 
N18410 G181 D0.25 U0.75 
N18415 G0 X217.088 Y264.655 
N18420 ; DEPOSITION ON 
N18425 G180 D0.25 U0.75 
N18430 G1 X238.927 Y290.681 F508 
N18435 X236.362 Y292.833 
N18440 X214.523 Y266.807 
N18445 ; DEPOSITION OFF 
N18450 G181 D0.25 U0.75 
N18455 G0 X70.375 Y95.018 
N18460 ; DEPOSITION ON 
N18465 G180 D0.25 U0.75 
N18470 G1 X33.927 Y51.581 F508 
N18475 X31.362 Y53.733 
N18480 X233.797 Y294.985 
N18485 X231.232 Y297.138 
N18490 X28.798 Y55.885 
N18495 X26.233 Y58.038 
N18500 X228.667 Y299.29 
N18505 X226.102 Y301.442 
N18510 X23.668 Y60.19 
N18515 X21.103 Y62.342 
N18520 X223.537 Y303.594 
N18525 ; DEPOSITION OFF 
N18530 G181 D0.25 U0.75 
N18535 G0 X54.985 Y107.931 
N18540 ; DEPOSITION ON 
N18545 G180 D0.25 U0.75 
N18550 G1 X18.538 Y64.494 F508 
N18555 X15.973 Y66.646 
N18560 X52.421 Y110.083 
N18565 G181 D0.25 U0.75 
N18570 V.P.layer_num = 30 
N18575 P12011=0 
N18580 #PCALL decking.nc P1 = V.P.layer_num 
N18585 P12012= 30 
N18590 P12011=1 
N18595 ; LAYER 30 END 
N18600 ; DEPOSITION OFF 
N18605 G181 D0.25 U0.75 
N18610 G0 Z62 
N18615 X82.476 Y9.715 
N18620 ; LAYER 31 START 
N18625 ; DEPOSITION ON 
N18630 G180 D0.25 U0.75 
N18635 G1 X119.48 Y53.814 F508 
N18640 X116.907 Y55.973 
N18645 X79.903 Y11.874 
N18650 X77.331 Y14.032 
N18655 X114.334 Y58.131 
N18660 X111.762 Y60.29 
N18665 X74.758 Y16.191 
N18670 X72.185 Y18.35 
N18675 X109.189 Y62.449 
N18680 X106.616 Y64.608 
N18685 X69.613 Y20.509 
N18690 X67.04 Y22.667 
N18695 X104.044 Y66.766 
N18700 ; DEPOSITION OFF 
N18705 G181 D0.25 U0.75 
N18710 G0 X267.536 Y266.834 
N18715 ; DEPOSITION ON 
N18720 G180 D0.25 U0.75 
N18725 G1 X64.467 Y24.826 F508 
N18730 X61.895 Y26.985 
N18735 X264.963 Y268.992 
N18740 X262.391 Y271.151 
N18745 X59.322 Y29.144 
N18750 X56.749 Y31.302 
N18755 X93.753 Y75.401 
N18760 ; DEPOSITION OFF 
N18765 G181 D0.25 U0.75 
N18770 G0 X237.901 Y247.191 
N18775 ; DEPOSITION ON 
N18780 G180 D0.25 U0.75 
N18785 G1 X259.818 Y273.31 F508 
N18790 X257.245 Y275.469 
N18795 X235.329 Y249.349 
N18800 ; DEPOSITION OFF 
N18805 G181 D0.25 U0.75 
N18810 G0 X91.18 Y77.56 
N18815 ; DEPOSITION ON 
N18820 G180 D0.25 U0.75 
N18825 G1 X54.177 Y33.461 F508 
N18830 X51.604 Y35.62 
N18835 X88.607 Y79.719 
N18840 ; DEPOSITION OFF 
N18845 G181 D0.25 U0.75 
N18850 G0 X232.756 Y251.508 
N18855 ; DEPOSITION ON 
N18860 G180 D0.25 U0.75 
N18865 G1 X254.673 Y277.627 F508 
N18870 X252.1 Y279.786 
N18875 X230.183 Y253.667 
N18880 ; DEPOSITION OFF 
N18885 G181 D0.25 U0.75 
N18890 G0 X86.035 Y81.877 
N18895 ; DEPOSITION ON 
N18900 G180 D0.25 U0.75 
N18905 G1 X49.031 Y37.778 F508 
N18910 X46.459 Y39.937 
N18915 X83.462 Y84.036 
N18920 ; DEPOSITION OFF 
N18925 G181 D0.25 U0.75 
N18930 G0 X227.611 Y255.826 
N18935 ; DEPOSITION ON 
N18940 G180 D0.25 U0.75 
N18945 G1 X249.527 Y281.945 F508 
N18950 X246.955 Y284.104 
N18955 X225.038 Y257.984 
N18960 ; DEPOSITION OFF 
N18965 G181 D0.25 U0.75 
N18970 G0 X80.889 Y86.195 
N18975 ; DEPOSITION ON 
N18980 G180 D0.25 U0.75 
N18985 G1 X43.886 Y42.096 F508 
N18990 X41.313 Y44.255 
N18995 X78.317 Y88.354 
N19000 ; DEPOSITION OFF 
N19005 G181 D0.25 U0.75 
N19010 G0 X222.465 Y260.143 
N19015 ; DEPOSITION ON 
N19020 G180 D0.25 U0.75 
N19025 G1 X244.382 Y286.262 F508 
N19030 X241.809 Y288.421 
N19035 X219.893 Y262.302 
N19040 ; DEPOSITION OFF 
N19045 G181 D0.25 U0.75 
N19050 G0 X75.744 Y90.512 
N19055 ; DEPOSITION ON 
N19060 G180 D0.25 U0.75 
N19065 G1 X38.741 Y46.413 F508 
N19070 X36.168 Y48.572 
N19075 X73.171 Y92.671 
N19080 ; DEPOSITION OFF 
N19085 G181 D0.25 U0.75 
N19090 G0 X217.32 Y264.461 
N19095 ; DEPOSITION ON 
N19100 G180 D0.25 U0.75 
N19105 G1 X239.237 Y290.58 F508 
N19110 X236.664 Y292.739 
N19115 X214.747 Y266.619 
N19120 ; DEPOSITION OFF 
N19125 G181 D0.25 U0.75 
N19130 G0 X70.599 Y94.83 
N19135 ; DEPOSITION ON 
N19140 G180 D0.25 U0.75 
N19145 G1 X33.595 Y50.731 F508 
N19150 X31.023 Y52.89 
N19155 X234.091 Y294.897 
N19160 X231.519 Y297.056 
N19165 X28.45 Y55.048 
N19170 X25.877 Y57.207 
N19175 X228.946 Y299.215 
N19180 X226.373 Y301.373 
N19185 X23.305 Y59.366 
N19190 X20.732 Y61.524 
N19195 X223.8 Y303.532 
N19200 ; DEPOSITION OFF 
N19205 G181 D0.25 U0.75 
N19210 G0 X55.163 Y107.782 
N19215 ; DEPOSITION ON 
N19220 G180 D0.25 U0.75 
N19225 G1 X18.159 Y63.683 F508 
N19230 X15.587 Y65.842 
N19235 X52.59 Y109.941 
N19240 G181 D0.25 U0.75 
N19245 V.P.layer_num = 31 
N19250 P12011=0 
N19255 #PCALL decking.nc P1 = V.P.layer_num 
N19260 P12012= 31 
N19265 P12011=1 
N19270 ; LAYER 31 END 
N19275 ; DEPOSITION OFF 
N19280 G181 D0.25 U0.75 
N19285 G0 Z64 
N19290 X81.674 Y9.259 
N19295 ; LAYER 32 START 
N19300 ; DEPOSITION ON 
N19305 G180 D0.25 U0.75 
N19310 G1 X119.233 Y54.021 F508 
N19315 X116.679 Y56.163 
N19320 X79.12 Y11.402 
N19325 X76.566 Y13.545 
N19330 X114.126 Y58.306 
N19335 X111.572 Y60.449 
N19340 X74.013 Y15.688 
N19345 X71.459 Y17.831 
N19350 X109.018 Y62.592 
N19355 X106.465 Y64.735 
N19360 X68.905 Y19.973 
N19365 X66.352 Y22.116 
N19370 X103.911 Y66.878 
N19375 ; DEPOSITION OFF 
N19380 G181 D0.25 U0.75 
N19385 G0 X267.492 Y267.013 
N19390 ; DEPOSITION ON 
N19395 G180 D0.25 U0.75 
N19400 G1 X63.798 Y24.259 F508 
N19405 X61.244 Y26.402 
N19410 X264.938 Y269.155 
N19415 X262.385 Y271.298 
N19420 X58.69 Y28.545 
N19425 X56.137 Y30.688 
N19430 X93.696 Y75.449 
N19435 ; DEPOSITION OFF 
N19440 G181 D0.25 U0.75 
N19445 G0 X237.844 Y247.238 
N19450 ; DEPOSITION ON 
N19455 G180 D0.25 U0.75 
N19460 G1 X259.831 Y273.441 F508 
N19465 X257.277 Y275.584 
N19470 X235.291 Y249.381 
N19475 ; DEPOSITION OFF 
N19480 G181 D0.25 U0.75 
N19485 G0 X91.142 Y77.592 
N19490 ; DEPOSITION ON 
N19495 G180 D0.25 U0.75 
N19500 G1 X53.583 Y32.83 F508 
N19505 X51.029 Y34.973 
N19510 X88.589 Y79.735 
N19515 ; DEPOSITION OFF 
N19520 G181 D0.25 U0.75 
N19525 G0 X232.737 Y251.524 
N19530 ; DEPOSITION ON 
N19535 G180 D0.25 U0.75 
N19540 G1 X254.724 Y277.727 F508 
N19545 X252.17 Y279.87 
N19550 X230.183 Y253.667 
N19555 ; DEPOSITION OFF 
N19560 G181 D0.25 U0.75 
N19565 G0 X86.035 Y81.877 
N19570 ; DEPOSITION ON 
N19575 G180 D0.25 U0.75 
N19580 G1 X48.476 Y37.116 F508 
N19585 X45.922 Y39.259 
N19590 X83.481 Y84.02 
N19595 ; DEPOSITION OFF 
N19600 G181 D0.25 U0.75 
N19605 G0 X227.63 Y255.81 
N19610 ; DEPOSITION ON 
N19615 G180 D0.25 U0.75 
N19620 G1 X249.616 Y282.012 F508 
N19625 X247.062 Y284.155 
N19630 X225.076 Y257.953 
N19635 ; DEPOSITION OFF 
N19640 G181 D0.25 U0.75 
N19645 G0 X80.927 Y86.163 
N19650 ; DEPOSITION ON 
N19655 G180 D0.25 U0.75 
N19660 G1 X43.368 Y41.402 F508 
N19665 X40.814 Y43.545 
N19670 X78.374 Y88.306 
N19675 ; DEPOSITION OFF 
N19680 G181 D0.25 U0.75 
N19685 G0 X222.522 Y260.095 
N19690 ; DEPOSITION ON 
N19695 G180 D0.25 U0.75 
N19700 G1 X244.509 Y286.298 F508 
N19705 X241.955 Y288.441 
N19710 X219.968 Y262.238 
N19715 ; DEPOSITION OFF 
N19720 G181 D0.25 U0.75 
N19725 G0 X75.82 Y90.449 
N19730 ; DEPOSITION ON 
N19735 G180 D0.25 U0.75 
N19740 G1 X38.261 Y45.687 F508 
N19745 X35.707 Y47.83 
N19750 X73.266 Y92.592 
N19755 ; DEPOSITION OFF 
N19760 G181 D0.25 U0.75 
N19765 G0 X217.415 Y264.381 
N19770 ; DEPOSITION ON 
N19775 G180 D0.25 U0.75 
N19780 G1 X239.401 Y290.584 F508 
N19785 X236.848 Y292.726 
N19790 X214.861 Y266.524 
N19795 ; DEPOSITION OFF 
N19800 G181 D0.25 U0.75 
N19805 G0 X70.712 Y94.734 
N19810 ; DEPOSITION ON 
N19815 G180 D0.25 U0.75 
N19820 G1 X33.153 Y49.973 F508 
N19825 X30.599 Y52.116 
N19830 X234.294 Y294.869 
N19835 X231.74 Y297.012 
N19840 X28.046 Y54.259 
N19845 X25.492 Y56.401 
N19850 X229.186 Y299.155 
N19855 X226.633 Y301.298 
N19860 X22.938 Y58.544 
N19865 X20.385 Y60.687 
N19870 X224.079 Y303.441 
N19875 ; DEPOSITION OFF 
N19880 G181 D0.25 U0.75 
N19885 G0 X55.39 Y107.591 
N19890 ; DEPOSITION ON 
N19895 G180 D0.25 U0.75 
N19900 G1 X17.831 Y62.83 F508 
N19905 X15.277 Y64.973 
N19910 X52.836 Y109.734 
N19915 G181 D0.25 U0.75 
N19920 V.P.layer_num = 32 
N19925 P12011=0 
N19930 #PCALL decking.nc P1 = V.P.layer_num 
N19935 P12012= 32 
N19940 P12011=1 
