depomodel234
N10 ; MACHINE
N15 ;   VENDOR AUTODESK
N20 ;   MODEL GENERIC DED
N25 ;   DESCRIPTION GENERIC DIRECT ENERGY DEPOSITION MACHINE WITH EXPORT TO SIMULATION AND POWERMILL
N30 ; T1  D=0 CR=0 - ZMIN=2 - ELECTRIC ARC WIRE
N35 #MCS OFF
N40 #CS OFF
N45 G71 G80 G90
N50 G17 G40
N55 G53
N60 ; PROCESS ON
N65 ; PROCESS OFF
N70 ; PROCESS ON
N75 ; PROCESS OFF
N80 G0 G53 Z609.6
N85 X0 Y0
N90 G53 A0. C0.
N95 ; FEATURE CONSTRUCTION2
N100 T1 M6
N105 S0
N110 M3
N115 G4 K3
N120 G0
N125 G54
;(ORGX58=0,ORGY58=0,ORGZ58=0)
N130 G58
N135 D1
N140 G0 X98.098 Y28.212
N145 G43 Z313.058
N150 G0 Z2
N155 ; LAYER 1 START
N160 ; DEPOSITION ON
N165 G180 D0.25 U0.75
N170 G94 G1 X119.539 Y53.764 F508
N175 X116.962 Y55.926
N180 X95.521 Y30.374
N185 X92.944 Y32.537
N190 X114.385 Y58.089
N195 X111.807 Y60.252
N200 X90.367 Y34.699
N205 X87.789 Y36.862
N210 X109.23 Y62.414
N215 X106.653 Y64.577
N220 X85.212 Y39.025
N225 X82.635 Y41.187
N230 X104.076 Y66.739
N235 ; DEPOSITION OFF
N240 G181 D0.25 U0.75
N245 G0 X263.738 Y262.252
N250 ; DEPOSITION ON
N255 G180 D0.25 U0.75
N260 G1 X80.058 Y43.35 F508
N265 X77.48 Y45.512
N270 X261.161 Y264.414
N275 X258.583 Y266.577
N280 X74.903 Y47.675
N285 X72.326 Y49.838
N290 X93.767 Y75.39
N295 ; DEPOSITION OFF
N300 G181 D0.25 U0.75
N305 G0 X237.915 Y247.179
N310 ; DEPOSITION ON
N315 G180 D0.25 U0.75
N320 G1 X256.006 Y268.739 F508
N325 X253.429 Y270.902
N330 X235.338 Y249.342
N335 ; DEPOSITION OFF
N340 G181 D0.25 U0.75
N345 G0 X91.189 Y77.552
N350 ; DEPOSITION ON
N355 G180 D0.25 U0.75
N360 G1 X69.749 Y52 F508
N365 X67.171 Y54.163
N370 X88.612 Y79.715
N375 ; DEPOSITION OFF
N380 G181 D0.25 U0.75
N385 G0 X232.761 Y251.504
N390 ; DEPOSITION ON
N395 G180 D0.25 U0.75
N400 G1 X250.852 Y273.064 F508
N405 X248.274 Y275.227
N410 X230.183 Y253.667
N415 ; DEPOSITION OFF
N420 G181 D0.25 U0.75
N425 G0 X86.035 Y81.877
N430 ; DEPOSITION ON
N435 G180 D0.25 U0.75
N440 G1 X64.594 Y56.325 F508
N445 X62.017 Y58.488
N450 X83.458 Y84.04
N455 ; DEPOSITION OFF
N460 G181 D0.25 U0.75
N465 G0 X227.606 Y255.829
N470 ; DEPOSITION ON
N475 G180 D0.25 U0.75
N480 G1 X245.697 Y277.39 F508
N485 X243.12 Y279.552
N490 X225.029 Y257.992
N495 ; DEPOSITION OFF
N500 G181 D0.25 U0.75
N505 G0 X80.88 Y86.203
N510 ; DEPOSITION ON
N515 G180 D0.25 U0.75
N520 G1 X59.439 Y60.65 F508
N525 X56.862 Y62.813
N530 X78.303 Y88.365
N535 ; DEPOSITION OFF
N540 G181 D0.25 U0.75
N545 G0 X222.451 Y260.155
N550 ; DEPOSITION ON
N555 G180 D0.25 U0.75
N560 G1 X240.543 Y281.715 F508
N565 X237.965 Y283.877
N570 X219.874 Y262.317
N575 ; DEPOSITION OFF
N580 G181 D0.25 U0.75
N585 G0 X75.726 Y90.528
N590 ; DEPOSITION ON
N595 G180 D0.25 U0.75
N600 G1 X54.285 Y64.976 F508
N605 X51.708 Y67.138
N610 X73.148 Y92.69
N615 ; DEPOSITION OFF
N620 G181 D0.25 U0.75
N625 G0 X217.297 Y264.48
N630 ; DEPOSITION ON
N635 G180 D0.25 U0.75
N640 G1 X235.388 Y286.04 F508
N645 X232.811 Y288.203
N650 X214.72 Y266.642
N655 ; DEPOSITION OFF
N660 G181 D0.25 U0.75
N665 G0 X70.571 Y94.853
N670 ; DEPOSITION ON
N675 G180 D0.25 U0.75
N680 G1 X49.13 Y69.301 F508
N685 X46.553 Y71.463
N690 X230.234 Y290.365
N695 X227.656 Y292.528
N700 X43.976 Y73.626
N705 X41.399 Y75.788
N710 X225.079 Y294.69
N715 X222.502 Y296.853
N720 X38.821 Y77.951
N725 X36.244 Y80.114
N730 X219.924 Y299.015
N735 ; DEPOSITION OFF
N740 G181 D0.25 U0.75
N745 G0 X55.108 Y107.828
N750 ; DEPOSITION ON
N755 G180 D0.25 U0.75
N760 G1 X33.667 Y82.276 F508
N765 X31.09 Y84.439
N770 X52.53 Y109.991
N775 G181 D0.25 U0.75
N780 V.P.layer_num = 1
N785 P12011=0
N790 #PCALL decking.nc P1 = V.P.layer_num
N795 P12012= 1
N800 P12011=1
N805 ; LAYER 1  END
N810 ; DEPOSITION OFF
N815 G181 D0.25 U0.75
N820 G0 Z4
N825 X98.098 Y28.212
N830 ; LAYER 2 START
N835 ; DEPOSITION ON
N840 G180 D0.25 U0.75
N845 G1 X119.539 Y53.764 F508
N850 X116.962 Y55.926
N855 X95.521 Y30.374
N860 X92.944 Y32.537
N865 X114.385 Y58.089
N870 X111.807 Y60.252
N875 X90.367 Y34.699
N880 X87.789 Y36.862
N885 X109.23 Y62.414
N890 X106.653 Y64.577
N895 X85.212 Y39.025
N900 X82.635 Y41.187
N905 X104.076 Y66.739
N910 ; DEPOSITION OFF
N915 G181 D0.25 U0.75
N920 G0 X263.738 Y262.252
N925 ; DEPOSITION ON
N930 G180 D0.25 U0.75
N935 G1 X80.058 Y43.35 F508
N940 X77.48 Y45.512
N945 X261.161 Y264.414
N950 X258.583 Y266.577
N955 X74.903 Y47.675
N960 X72.326 Y49.838
N965 X93.767 Y75.39
N970 ; DEPOSITION OFF
N975 G181 D0.25 U0.75
N980 G0 X237.915 Y247.179
N985 ; DEPOSITION ON
N990 G180 D0.25 U0.75
N995 G1 X256.006 Y268.739 F508
N1000 X253.429 Y270.902
N1005 X235.338 Y249.342
N1010 ; DEPOSITION OFF
N1015 G181 D0.25 U0.75
N1020 G0 X91.189 Y77.552
N1025 ; DEPOSITION ON
N1030 G180 D0.25 U0.75
N1035 G1 X69.749 Y52 F508
N1040 X67.171 Y54.163
N1045 X88.612 Y79.715
N1050 ; DEPOSITION OFF
N1055 G181 D0.25 U0.75
N1060 G0 X232.761 Y251.504
N1065 ; DEPOSITION ON
N1070 G180 D0.25 U0.75
N1075 G1 X250.852 Y273.064 F508
N1080 X248.274 Y275.227
N1085 X230.183 Y253.667
N1090 ; DEPOSITION OFF
N1095 G181 D0.25 U0.75
N1100 G0 X86.035 Y81.877
N1105 ; DEPOSITION ON
N1110 G180 D0.25 U0.75
N1115 G1 X64.594 Y56.325 F508
N1120 X62.017 Y58.488
N1125 X83.458 Y84.04
N1130 ; DEPOSITION OFF
N1135 G181 D0.25 U0.75
N1140 G0 X227.606 Y255.829
N1145 ; DEPOSITION ON
N1150 G180 D0.25 U0.75
N1155 G1 X245.697 Y277.39 F508
N1160 X243.12 Y279.552
N1165 X225.029 Y257.992
N1170 ; DEPOSITION OFF
N1175 G181 D0.25 U0.75
N1180 G0 X80.88 Y86.203
N1185 ; DEPOSITION ON
N1190 G180 D0.25 U0.75
N1195 G1 X59.439 Y60.65 F508
N1200 X56.862 Y62.813
N1205 X78.303 Y88.365
N1210 ; DEPOSITION OFF
N1215 G181 D0.25 U0.75
N1220 G0 X222.451 Y260.155
N1225 ; DEPOSITION ON
N1230 G180 D0.25 U0.75
N1235 G1 X240.543 Y281.715 F508
N1240 X237.965 Y283.877
N1245 X219.874 Y262.317
N1250 ; DEPOSITION OFF
N1255 G181 D0.25 U0.75
N1260 G0 X75.726 Y90.528
N1265 ; DEPOSITION ON
N1270 G180 D0.25 U0.75
N1275 G1 X54.285 Y64.976 F508
N1280 X51.708 Y67.138
N1285 X73.148 Y92.69
N1290 ; DEPOSITION OFF
N1295 G181 D0.25 U0.75
N1300 G0 X217.297 Y264.48
N1305 ; DEPOSITION ON
N1310 G180 D0.25 U0.75
N1315 G1 X235.388 Y286.04 F508
N1320 X232.811 Y288.203
N1325 X214.72 Y266.642
N1330 ; DEPOSITION OFF
N1335 G181 D0.25 U0.75
N1340 G0 X70.571 Y94.853
N1345 ; DEPOSITION ON
N1350 G180 D0.25 U0.75
N1355 G1 X49.13 Y69.301 F508
N1360 X46.553 Y71.463
N1365 X230.234 Y290.365
N1370 X227.656 Y292.528
N1375 X43.976 Y73.626
N1380 X41.399 Y75.788
N1385 X225.079 Y294.69
N1390 X222.502 Y296.853
N1395 X38.821 Y77.951
N1400 X36.244 Y80.114
N1405 X219.924 Y299.015
N1410 ; DEPOSITION OFF
N1415 G181 D0.25 U0.75
N1420 G0 X55.108 Y107.828
N1425 ; DEPOSITION ON
N1430 G180 D0.25 U0.75
N1435 G1 X33.667 Y82.276 F508
N1440 X31.09 Y84.439
N1445 X52.53 Y109.991
N1450 G181 D0.25 U0.75
N1455 V.P.layer_num = 2
N1460 P12011=0
N1465 #PCALL decking.nc P1 = V.P.layer_num
N1470 P12012= 2
N1475 P12011=1
N1480 ; LAYER 2  END
N1485 ; DEPOSITION OFF
N1490 G181 D0.25 U0.75
N1495 G0 Z6
N1500 X98.098 Y28.212
N1505 ; LAYER 3 START
N1510 ; DEPOSITION ON
N1515 G180 D0.25 U0.75
N1520 G1 X119.539 Y53.764 F508
N1525 X116.962 Y55.926
N1530 X95.521 Y30.374
N1535 X92.944 Y32.537
N1540 X114.385 Y58.089
N1545 X111.807 Y60.252
N1550 X90.367 Y34.7
N1555 X87.789 Y36.862
N1560 X109.23 Y62.414
N1565 X106.653 Y64.577
N1570 X85.212 Y39.025
N1575 X82.635 Y41.187
N1580 X104.076 Y66.739
N1585 ; DEPOSITION OFF
N1590 G181 D0.25 U0.75
N1595 G0 X263.738 Y262.252
N1600 ; DEPOSITION ON
N1605 G180 D0.25 U0.75
N1610 G1 X80.058 Y43.35 F508
N1615 X77.48 Y45.512
N1620 X261.161 Y264.414
N1625 X258.583 Y266.577
N1630 X74.903 Y47.675
N1635 X72.326 Y49.838
N1640 X93.767 Y75.39
N1645 ; DEPOSITION OFF
N1650 G181 D0.25 U0.75
N1655 G0 X237.915 Y247.179
N1660 ; DEPOSITION ON
N1665 G180 D0.25 U0.75
N1670 G1 X256.006 Y268.739 F508
N1675 X253.429 Y270.902
N1680 X235.338 Y249.342
N1685 ; DEPOSITION OFF
N1690 G181 D0.25 U0.75
N1695 G0 X91.189 Y77.552
N1700 ; DEPOSITION ON
N1705 G180 D0.25 U0.75
N1710 G1 X69.749 Y52 F508
N1715 X67.171 Y54.163
N1720 X88.612 Y79.715
N1725 ; DEPOSITION OFF
N1730 G181 D0.25 U0.75
N1735 G0 X232.761 Y251.504
N1740 ; DEPOSITION ON
N1745 G180 D0.25 U0.75
N1750 G1 X250.852 Y273.064 F508
N1755 X248.274 Y275.227
N1760 X230.183 Y253.667
N1765 ; DEPOSITION OFF
N1770 G181 D0.25 U0.75
N1775 G0 X86.035 Y81.877
N1780 ; DEPOSITION ON
N1785 G180 D0.25 U0.75
N1790 G1 X64.594 Y56.325 F508
N1795 X62.017 Y58.488
N1800 X83.458 Y84.04
N1805 ; DEPOSITION OFF
N1810 G181 D0.25 U0.75
N1815 G0 X227.606 Y255.829
N1820 ; DEPOSITION ON
N1825 G180 D0.25 U0.75
N1830 G1 X245.697 Y277.39 F508
N1835 X243.12 Y279.552
N1840 X225.029 Y257.992
N1845 ; DEPOSITION OFF
N1850 G181 D0.25 U0.75
N1855 G0 X80.88 Y86.203
N1860 ; DEPOSITION ON
N1865 G180 D0.25 U0.75
N1870 G1 X59.439 Y60.65 F508
N1875 X56.862 Y62.813
N1880 X78.303 Y88.365
N1885 ; DEPOSITION OFF
N1890 G181 D0.25 U0.75
N1895 G0 X222.451 Y260.155
N1900 ; DEPOSITION ON
N1905 G180 D0.25 U0.75
N1910 G1 X240.543 Y281.715 F508
N1915 X237.965 Y283.877
N1920 X219.874 Y262.317
N1925 ; DEPOSITION OFF
N1930 G181 D0.25 U0.75
N1935 G0 X75.726 Y90.528
N1940 ; DEPOSITION ON
N1945 G180 D0.25 U0.75
N1950 G1 X54.285 Y64.976 F508
N1955 X51.708 Y67.138
N1960 X73.148 Y92.69
N1965 ; DEPOSITION OFF
N1970 G181 D0.25 U0.75
N1975 G0 X217.297 Y264.48
N1980 ; DEPOSITION ON
N1985 G180 D0.25 U0.75
N1990 G1 X235.388 Y286.04 F508
N1995 X232.811 Y288.203
N2000 X214.72 Y266.642
N2005 ; DEPOSITION OFF
N2010 G181 D0.25 U0.75
N2015 G0 X70.571 Y94.853
N2020 ; DEPOSITION ON
N2025 G180 D0.25 U0.75
N2030 G1 X49.13 Y69.301 F508
N2035 X46.553 Y71.463
N2040 X230.234 Y290.365
N2045 X227.656 Y292.528
N2050 X43.976 Y73.626
N2055 X41.399 Y75.788
N2060 X225.079 Y294.69
N2065 X222.502 Y296.853
N2070 X38.821 Y77.951
N2075 X36.244 Y80.114
N2080 X219.924 Y299.015
N2085 ; DEPOSITION OFF
N2090 G181 D0.25 U0.75
N2095 G0 X55.108 Y107.828
N2100 ; DEPOSITION ON
N2105 G180 D0.25 U0.75
N2110 G1 X33.667 Y82.276 F508
N2115 X31.09 Y84.439
N2120 X52.53 Y109.991
N2125 G181 D0.25 U0.75
N2130 V.P.layer_num = 3
N2135 P12011=0
N2140 #PCALL decking.nc P1 = V.P.layer_num
N2145 P12012= 3
N2150 P12011=1
N2155 ; LAYER 3  END
N2160 ; DEPOSITION OFF
N2165 G181 D0.25 U0.75
N2170 G0 Z8
N2175 X97.258 Y27.788
N2180 ; LAYER 4 START
N2185 ; DEPOSITION ON
N2190 G180 D0.25 U0.75
N2195 G1 X119.255 Y54.002 F508
N2200 X116.699 Y56.147
N2205 X94.703 Y29.932
N2210 X92.147 Y32.076
N2215 X114.144 Y58.291
N2220 X111.589 Y60.435
N2225 X89.592 Y34.221
N2230 X87.037 Y36.365
N2235 X109.033 Y62.579
N2240 X106.478 Y64.724
N2245 X84.481 Y38.509
N2250 X81.926 Y40.653
N2255 X103.923 Y66.868
N2260 ; DEPOSITION OFF
N2265 G181 D0.25 U0.75
N2270 G0 X263.607 Y262.362
N2275 ; DEPOSITION ON
N2280 G180 D0.25 U0.75
N2285 G1 X79.371 Y42.798 F508
N2290 X76.815 Y44.942
N2295 X261.051 Y264.506
N2300 X258.496 Y266.65
N2305 X74.26 Y47.086
N2310 X71.704 Y49.23
N2315 X93.701 Y75.445
N2320 ; DEPOSITION OFF
N2325 G181 D0.25 U0.75
N2330 G0 X237.849 Y247.234
N2335 ; DEPOSITION ON
N2340 G180 D0.25 U0.75
N2345 G1 X255.941 Y268.794 F508
N2350 X253.385 Y270.939
N2355 X235.294 Y249.378
N2360 ; DEPOSITION OFF
N2365 G181 D0.25 U0.75
N2370 G0 X91.146 Y77.589
N2375 ; DEPOSITION ON
N2380 G180 D0.25 U0.75
N2385 G1 X69.149 Y51.374 F508
N2390 X66.594 Y53.519
N2395 X88.59 Y79.733
N2400 ; DEPOSITION OFF
N2405 G181 D0.25 U0.75
N2410 G0 X232.739 Y251.523
N2415 ; DEPOSITION ON
N2420 G180 D0.25 U0.75
N2425 G1 X250.83 Y273.083 F508
N2430 X248.274 Y275.227
N2435 X230.183 Y253.667
N2440 ; DEPOSITION OFF
N2445 G181 D0.25 U0.75
N2450 G0 X86.035 Y81.877
N2455 ; DEPOSITION ON
N2460 G180 D0.25 U0.75
N2465 G1 X64.038 Y55.663 F508
N2470 X61.483 Y57.807
N2475 X83.479 Y84.022
N2480 ; DEPOSITION OFF
N2485 G181 D0.25 U0.75
N2490 G0 X227.628 Y255.811
N2495 ; DEPOSITION ON
N2500 G180 D0.25 U0.75
N2505 G1 X245.719 Y277.371 F508
N2510 X243.164 Y279.516
N2515 X225.072 Y257.955
N2520 ; DEPOSITION OFF
N2525 G181 D0.25 U0.75
N2530 G0 X80.924 Y86.166
N2535 ; DEPOSITION ON
N2540 G180 D0.25 U0.75
N2545 G1 X58.927 Y59.951 F508
N2550 X56.372 Y62.096
N2555 X78.369 Y88.31
N2560 ; DEPOSITION OFF
N2565 G181 D0.25 U0.75
N2570 G0 X222.517 Y260.1
N2575 ; DEPOSITION ON
N2580 G180 D0.25 U0.75
N2585 G1 X240.608 Y281.66 F508
N2590 X238.053 Y283.804
N2595 X219.962 Y262.244
N2600 ; DEPOSITION OFF
N2605 G181 D0.25 U0.75
N2610 G0 X75.813 Y90.454
N2615 ; DEPOSITION ON
N2620 G180 D0.25 U0.75
N2625 G1 X53.817 Y64.24 F508
N2630 X51.261 Y66.384
N2635 X73.258 Y92.599
N2640 ; DEPOSITION OFF
N2645 G181 D0.25 U0.75
N2650 G0 X217.406 Y264.388
N2655 ; DEPOSITION ON
N2660 G180 D0.25 U0.75
N2665 G1 X235.497 Y285.948 F508
N2670 X232.942 Y288.092
N2675 X214.851 Y266.532
N2680 ; DEPOSITION OFF
N2685 G181 D0.25 U0.75
N2690 G0 X70.702 Y94.743
N2695 ; DEPOSITION ON
N2700 G180 D0.25 U0.75
N2705 G1 X48.706 Y68.528 F508
N2710 X46.15 Y70.672
N2715 X230.387 Y290.237
N2720 X227.831 Y292.381
N2725 X43.595 Y72.817
N2730 X41.04 Y74.961
N2735 X225.276 Y294.525
N2740 X222.72 Y296.669
N2745 X38.484 Y77.105
N2750 X35.929 Y79.249
N2755 X220.165 Y298.814
N2760 ; DEPOSITION OFF
N2765 G181 D0.25 U0.75
N2770 G0 X55.37 Y107.608
N2775 ; DEPOSITION ON
N2780 G180 D0.25 U0.75
N2785 G1 X33.374 Y81.394 F508
N2790 X30.818 Y83.538
N2795 X52.815 Y109.752
N2800 G181 D0.25 U0.75
N2805 V.P.layer_num = 4
N2810 P12011=0
N2815 #PCALL decking.nc P1 = V.P.layer_num
N2820 P12012= 4
N2825 P12011=1
N2830 ; LAYER 4  END
N2835 ; DEPOSITION OFF
N2840 G181 D0.25 U0.75
N2845 G0 Z10
N2850 X96.799 Y27.045
N2855 ; LAYER 5 START
N2860 ; DEPOSITION ON
N2865 G180 D0.25 U0.75
N2870 G1 X119.351 Y53.921 F508
N2875 X116.788 Y56.072
N2880 X94.236 Y29.195
N2885 X91.673 Y31.346
N2890 X114.226 Y58.222
N2895 X111.663 Y60.373
N2900 X89.11 Y33.496
N2905 X86.548 Y35.647
N2910 X109.1 Y62.523
N2915 X106.537 Y64.674
N2920 X83.985 Y37.797
N2925 X81.422 Y39.947
N2930 X103.974 Y66.824
N2935 ; DEPOSITION OFF
N2940 G181 D0.25 U0.75
N2945 G0 X263.651 Y262.324
N2950 ; DEPOSITION ON
N2955 G180 D0.25 U0.75
N2960 G1 X78.859 Y42.098 F508
N2965 X76.296 Y44.248
N2970 X261.088 Y264.475
N2975 X258.526 Y266.625
N2980 X73.734 Y46.399
N2985 X71.171 Y48.549
N2990 X93.723 Y75.426
N2995 ; DEPOSITION OFF
N3000 G181 D0.25 U0.75
N3005 G0 X237.872 Y247.216
N3010 ; DEPOSITION ON
N3015 G180 D0.25 U0.75
N3020 G1 X255.963 Y268.776 F508
N3025 X253.4 Y270.926
N3030 X235.309 Y249.366
N3035 ; DEPOSITION OFF
N3040 G181 D0.25 U0.75
N3045 G0 X91.16 Y77.577
N3050 ; DEPOSITION ON
N3055 G180 D0.25 U0.75
N3060 G1 X68.608 Y50.7 F508
N3065 X66.045 Y52.85
N3070 X88.598 Y79.727
N3075 ; DEPOSITION OFF
N3080 G181 D0.25 U0.75
N3085 G0 X232.746 Y251.516
N3090 ; DEPOSITION ON
N3095 G180 D0.25 U0.75
N3100 G1 X250.837 Y273.077 F508
N3105 X248.274 Y275.227
N3110 X230.183 Y253.667
N3115 ; DEPOSITION OFF
N3120 G181 D0.25 U0.75
N3125 G0 X86.035 Y81.877
N3130 ; DEPOSITION ON
N3135 G180 D0.25 U0.75
N3140 G1 X63.482 Y55 F508
N3145 X60.92 Y57.151
N3150 X83.472 Y84.028
N3155 ; DEPOSITION OFF
N3160 G181 D0.25 U0.75
N3165 G0 X227.62 Y255.817
N3170 ; DEPOSITION ON
N3175 G180 D0.25 U0.75
N3180 G1 X245.712 Y277.378 F508
N3185 X243.149 Y279.528
N3190 X225.058 Y257.968
N3195 ; DEPOSITION OFF
N3200 G181 D0.25 U0.75
N3205 G0 X80.909 Y86.178
N3210 ; DEPOSITION ON
N3215 G180 D0.25 U0.75
N3220 G1 X58.357 Y59.301 F508
N3225 X55.794 Y61.452
N3230 X78.346 Y88.329
N3235 ; DEPOSITION OFF
N3240 G181 D0.25 U0.75
N3245 G0 X222.495 Y260.118
N3250 ; DEPOSITION ON
N3255 G180 D0.25 U0.75
N3260 G1 X240.586 Y281.678 F508
N3265 X238.023 Y283.829
N3270 X219.932 Y262.269
N3275 ; DEPOSITION OFF
N3280 G181 D0.25 U0.75
N3285 G0 X75.784 Y90.479
N3290 ; DEPOSITION ON
N3295 G180 D0.25 U0.75
N3300 G1 X53.231 Y63.602 F508
N3305 X50.668 Y65.753
N3310 X73.221 Y92.63
N3315 ; DEPOSITION OFF
N3320 G181 D0.25 U0.75
N3325 G0 X217.369 Y264.419
N3330 ; DEPOSITION ON
N3335 G180 D0.25 U0.75
N3340 G1 X235.46 Y285.979 F508
N3345 X232.898 Y288.13
N3350 X214.806 Y266.57
N3355 ; DEPOSITION OFF
N3360 G181 D0.25 U0.75
N3365 G0 X70.658 Y94.78
N3370 ; DEPOSITION ON
N3375 G180 D0.25 U0.75
N3380 G1 X48.106 Y67.903 F508
N3385 X45.543 Y70.054
N3390 X230.335 Y290.28
N3395 X227.772 Y292.431
N3400 X42.98 Y72.204
N3405 X40.417 Y74.355
N3410 X225.209 Y294.581
N3415 X222.646 Y296.732
N3420 X37.854 Y76.505
N3425 X35.292 Y78.655
N3430 X220.084 Y298.882
N3435 ; DEPOSITION OFF
N3440 G181 D0.25 U0.75
N3445 G0 X55.281 Y107.683
N3450 ; DEPOSITION ON
N3455 G180 D0.25 U0.75
N3460 G1 X32.729 Y80.806 F508
N3465 X30.166 Y82.956
N3470 X52.718 Y109.833
N3475 G181 D0.25 U0.75
N3480 V.P.layer_num = 5
N3485 P12011=0
N3490 #PCALL decking.nc P1 = V.P.layer_num
N3495 P12012= 5
N3500 P12011=1
N3505 ; LAYER 5  END
N3510 ; DEPOSITION OFF
N3515 G181 D0.25 U0.75
N3520 G0 Z12
N3525 X96.339 Y26.302
N3530 ; LAYER 6 START
N3535 ; DEPOSITION ON
N3540 G180 D0.25 U0.75
N3545 G1 X119.447 Y53.841 F508
N3550 X116.877 Y55.997
N3555 X93.769 Y28.458
N3560 X91.199 Y30.615
N3565 X114.307 Y58.154
N3570 X111.737 Y60.311
N3575 X88.629 Y32.772
N3580 X86.059 Y34.928
N3585 X109.167 Y62.467
N3590 X106.596 Y64.624
N3595 X83.488 Y37.085
N3600 X80.918 Y39.241
N3605 X104.026 Y66.781
N3610 ; DEPOSITION OFF
N3615 G181 D0.25 U0.75
N3620 G0 X263.696 Y262.287
N3625 ; DEPOSITION ON
N3630 G180 D0.25 U0.75
N3635 G1 X78.348 Y41.398 F508
N3640 X75.778 Y43.555
N3645 X261.125 Y264.444
N3650 X258.555 Y266.6
N3655 X73.207 Y45.711
N3660 X70.637 Y47.868
N3665 X93.745 Y75.407
N3670 ; DEPOSITION OFF
N3675 G181 D0.25 U0.75
N3680 G0 X237.894 Y247.197
N3685 ; DEPOSITION ON
N3690 G180 D0.25 U0.75
N3695 G1 X255.985 Y268.757 F508
N3700 X253.415 Y270.914
N3705 X235.324 Y249.354
N3710 ; DEPOSITION OFF
N3715 G181 D0.25 U0.75
N3720 G0 X91.175 Y77.564
N3725 ; DEPOSITION ON
N3730 G180 D0.25 U0.75
N3735 G1 X68.067 Y50.025 F508
N3740 X65.497 Y52.181
N3745 X88.605 Y79.721
N3750 ; DEPOSITION OFF
N3755 G181 D0.25 U0.75
N3760 G0 X232.753 Y251.51
N3765 ; DEPOSITION ON
N3770 G180 D0.25 U0.75
N3775 G1 X250.845 Y273.07 F508
N3780 X248.274 Y275.227
N3785 X230.183 Y253.667
N3790 ; DEPOSITION OFF
N3795 G181 D0.25 U0.75
N3800 G0 X86.035 Y81.877
N3805 ; DEPOSITION ON
N3810 G180 D0.25 U0.75
N3815 G1 X62.927 Y54.338 F508
N3820 X60.356 Y56.495
N3825 X83.465 Y84.034
N3830 ; DEPOSITION OFF
N3835 G181 D0.25 U0.75
N3840 G0 X227.613 Y255.824
N3845 ; DEPOSITION ON
N3850 G180 D0.25 U0.75
N3855 G1 X245.704 Y277.384 F508
N3860 X243.134 Y279.54
N3865 X225.043 Y257.98
N3870 ; DEPOSITION OFF
N3875 G181 D0.25 U0.75
N3880 G0 X80.894 Y86.191
N3885 ; DEPOSITION ON
N3890 G180 D0.25 U0.75
N3895 G1 X57.786 Y58.651 F508
N3900 X55.216 Y60.808
N3905 X78.324 Y88.347
N3910 ; DEPOSITION OFF
N3915 G181 D0.25 U0.75
N3920 G0 X222.473 Y260.137
N3925 ; DEPOSITION ON
N3930 G180 D0.25 U0.75
N3935 G1 X240.564 Y281.697 F508
N3940 X237.994 Y283.854
N3945 X219.902 Y262.294
N3950 ; DEPOSITION OFF
N3955 G181 D0.25 U0.75
N3960 G0 X75.754 Y90.504
N3965 ; DEPOSITION ON
N3970 G180 D0.25 U0.75
N3975 G1 X52.646 Y62.965 F508
N3980 X50.075 Y65.121
N3985 X73.184 Y92.661
N3990 ; DEPOSITION OFF
N3995 G181 D0.25 U0.75
N4000 G0 X217.332 Y264.45
N4005 ; DEPOSITION ON
N4010 G180 D0.25 U0.75
N4015 G1 X235.423 Y286.01 F508
N4020 X232.853 Y288.167
N4025 X214.762 Y266.607
N4030 ; DEPOSITION OFF
N4035 G181 D0.25 U0.75
N4040 G0 X70.614 Y94.817
N4045 ; DEPOSITION ON
N4050 G180 D0.25 U0.75
N4055 G1 X47.505 Y67.278 F508
N4060 X44.935 Y69.435
N4065 X230.283 Y290.324
N4070 X227.713 Y292.48
N4075 X42.365 Y71.591
N4080 X39.795 Y73.748
N4085 X225.142 Y294.637
N4090 X222.572 Y296.794
N4095 X37.224 Y75.905
N4100 X34.654 Y78.061
N4105 X220.002 Y298.95
N4110 ; DEPOSITION OFF
N4115 G181 D0.25 U0.75
N4120 G0 X55.192 Y107.757
N4125 ; DEPOSITION ON
N4130 G180 D0.25 U0.75
N4135 G1 X32.084 Y80.218 F508
N4140 X29.514 Y82.375
N4145 X52.622 Y109.914
N4150 G181 D0.25 U0.75
N4155 V.P.layer_num = 6
N4160 P12011=0
N4165 #PCALL decking.nc P1 = V.P.layer_num
N4170 P12012= 6
N4175 P12011=1
N4180 ; LAYER 6  END
N4185 ; DEPOSITION OFF
N4190 G181 D0.25 U0.75
N4195 G0 Z14
N4200 X95.88 Y25.558
N4205 ; LAYER 7 START
N4210 ; DEPOSITION ON
N4215 G180 D0.25 U0.75
N4220 G1 X119.544 Y53.76 F508
N4225 X116.966 Y55.923
N4230 X93.302 Y27.721
N4235 X90.725 Y29.884
N4240 X114.389 Y58.086
N4245 X111.811 Y60.248
N4250 X88.147 Y32.047
N4255 X85.569 Y34.21
N4260 X109.233 Y62.411
N4265 X106.656 Y64.574
N4270 X82.992 Y36.373
N4275 X80.414 Y38.536
N4280 X104.078 Y66.737
N4285 ; DEPOSITION OFF
N4290 G181 D0.25 U0.75
N4295 G0 X263.74 Y262.25
N4300 ; DEPOSITION ON
N4305 G180 D0.25 U0.75
N4310 G1 X77.837 Y40.698 F508
N4315 X75.259 Y42.861
N4320 X261.163 Y264.413
N4325 X258.585 Y266.576
N4330 X72.681 Y45.024
N4335 X70.104 Y47.187
N4340 X93.768 Y75.389
N4345 ; DEPOSITION OFF
N4350 G181 D0.25 U0.75
N4355 G0 X237.916 Y247.178
N4360 ; DEPOSITION ON
N4365 G180 D0.25 U0.75
N4370 G1 X256.007 Y268.738 F508
N4375 X253.43 Y270.901
N4380 X235.339 Y249.341
N4385 ; DEPOSITION OFF
N4390 G181 D0.25 U0.75
N4395 G0 X91.19 Y77.552
N4400 ; DEPOSITION ON
N4405 G180 D0.25 U0.75
N4410 G1 X67.526 Y49.35 F508
N4415 X64.948 Y51.513
N4420 X88.612 Y79.715
N4425 ; DEPOSITION OFF
N4430 G181 D0.25 U0.75
N4435 G0 X232.761 Y251.504
N4440 ; DEPOSITION ON
N4445 G180 D0.25 U0.75
N4450 G1 X250.852 Y273.064 F508
N4455 X248.274 Y275.227
N4460 X230.183 Y253.667
N4465 ; DEPOSITION OFF
N4470 G181 D0.25 U0.75
N4475 G0 X86.035 Y81.877
N4480 ; DEPOSITION ON
N4485 G180 D0.25 U0.75
N4490 G1 X62.371 Y53.676 F508
N4495 X59.793 Y55.839
N4500 X83.457 Y84.04
N4505 ; DEPOSITION OFF
N4510 G181 D0.25 U0.75
N4515 G0 X227.606 Y255.83
N4520 ; DEPOSITION ON
N4525 G180 D0.25 U0.75
N4530 G1 X245.697 Y277.39 F508
N4535 X243.119 Y279.553
N4540 X225.028 Y257.993
N4545 ; DEPOSITION OFF
N4550 G181 D0.25 U0.75
N4555 G0 X80.88 Y86.203
N4560 ; DEPOSITION ON
N4565 G180 D0.25 U0.75
N4570 G1 X57.215 Y58.001 F508
N4575 X54.638 Y60.164
N4580 X78.302 Y88.366
N4585 ; DEPOSITION OFF
N4590 G181 D0.25 U0.75
N4595 G0 X222.45 Y260.156
N4600 ; DEPOSITION ON
N4605 G180 D0.25 U0.75
N4610 G1 X240.542 Y281.716 F508
N4615 X237.964 Y283.879
N4620 X219.873 Y262.318
N4625 ; DEPOSITION OFF
N4630 G181 D0.25 U0.75
N4635 G0 X75.724 Y90.529
N4640 ; DEPOSITION ON
N4645 G180 D0.25 U0.75
N4650 G1 X52.06 Y62.327 F508
N4655 X49.483 Y64.49
N4660 X73.147 Y92.692
N4665 ; DEPOSITION OFF
N4670 G181 D0.25 U0.75
N4675 G0 X217.295 Y264.481
N4680 ; DEPOSITION ON
N4685 G180 D0.25 U0.75
N4690 G1 X235.386 Y286.041 F508
N4695 X232.809 Y288.204
N4700 X214.717 Y266.644
N4705 ; DEPOSITION OFF
N4710 G181 D0.25 U0.75
N4715 G0 X70.569 Y94.855
N4720 ; DEPOSITION ON
N4725 G180 D0.25 U0.75
N4730 G1 X46.905 Y66.653 F508
N4735 X44.327 Y68.816
N4740 X230.231 Y290.367
N4745 X227.653 Y292.53
N4750 X41.75 Y70.979
N4755 X39.172 Y73.142
N4760 X225.076 Y294.693
N4765 X222.498 Y296.856
N4770 X36.594 Y75.305
N4775 X34.017 Y77.467
N4780 X219.92 Y299.019
N4785 ; DEPOSITION OFF
N4790 G181 D0.25 U0.75
N4795 G0 X55.103 Y107.832
N4800 ; DEPOSITION ON
N4805 G180 D0.25 U0.75
N4810 G1 X31.439 Y79.63 F508
N4815 X28.862 Y81.793
N4820 X52.526 Y109.995
N4825 G181 D0.25 U0.75
N4830 V.P.layer_num = 7
N4835 P12011=0
N4840 #PCALL decking.nc P1 = V.P.layer_num
N4845 P12012= 7
N4850 P12011=1
N4855 ; LAYER 7  END
N4860 ; DEPOSITION OFF
N4865 G181 D0.25 U0.75
N4870 G0 Z16
N4875 X95.043 Y25.132
N4880 ; LAYER 8 START
N4885 ; DEPOSITION ON
N4890 G180 D0.25 U0.75
N4895 G1 X119.263 Y53.996 F508
N4900 X116.707 Y56.14
N4905 X92.487 Y27.277
N4910 X89.931 Y29.421
N4915 X114.151 Y58.285
N4920 X111.595 Y60.43
N4925 X87.375 Y31.566
N4930 X84.819 Y33.711
N4935 X109.039 Y62.575
N4940 X106.483 Y64.72
N4945 X82.263 Y35.856
N4950 X79.707 Y38
N4955 X103.927 Y66.864
N4960 ; DEPOSITION OFF
N4965 G181 D0.25 U0.75
N4970 G0 X263.61 Y262.359
N4975 ; DEPOSITION ON
N4980 G180 D0.25 U0.75
N4985 G1 X77.151 Y40.145 F508
N4990 X74.595 Y42.29
N4995 X261.054 Y264.503
N5000 X258.498 Y266.648
N5005 X72.039 Y44.434
N5010 X69.483 Y46.579
N5015 X93.703 Y75.443
N5020 ; DEPOSITION OFF
N5025 G181 D0.25 U0.75
N5030 G0 X237.851 Y247.233
N5035 ; DEPOSITION ON
N5040 G180 D0.25 U0.75
N5045 G1 X255.942 Y268.793 F508
N5050 X253.386 Y270.938
N5055 X235.295 Y249.377
N5060 ; DEPOSITION OFF
N5065 G181 D0.25 U0.75
N5070 G0 X91.147 Y77.588
N5075 ; DEPOSITION ON
N5080 G180 D0.25 U0.75
N5085 G1 X66.927 Y48.724 F508
N5090 X64.371 Y50.869
N5095 X88.591 Y79.733
N5100 ; DEPOSITION OFF
N5105 G181 D0.25 U0.75
N5110 G0 X232.739 Y251.522
N5115 ; DEPOSITION ON
N5120 G180 D0.25 U0.75
N5125 G1 X250.83 Y273.082 F508
N5130 X248.274 Y275.227
N5135 X230.183 Y253.667
N5140 ; DEPOSITION OFF
N5145 G181 D0.25 U0.75
N5150 G0 X86.035 Y81.877
N5155 ; DEPOSITION ON
N5160 G180 D0.25 U0.75
N5165 G1 X61.815 Y53.013 F508
N5170 X59.259 Y55.158
N5175 X83.479 Y84.022
N5180 ; DEPOSITION OFF
N5185 G181 D0.25 U0.75
N5190 G0 X227.627 Y255.812
N5195 ; DEPOSITION ON
N5200 G180 D0.25 U0.75
N5205 G1 X245.718 Y277.372 F508
N5210 X243.162 Y279.517
N5215 X225.071 Y257.956
N5220 ; DEPOSITION OFF
N5225 G181 D0.25 U0.75
N5230 G0 X80.923 Y86.167
N5235 ; DEPOSITION ON
N5240 G180 D0.25 U0.75
N5245 G1 X56.703 Y57.303 F508
N5250 X54.147 Y59.448
N5255 X78.367 Y88.312
N5260 ; DEPOSITION OFF
N5265 G181 D0.25 U0.75
N5270 G0 X222.515 Y260.101
N5275 ; DEPOSITION ON
N5280 G180 D0.25 U0.75
N5285 G1 X240.606 Y281.661 F508
N5290 X238.05 Y283.806
N5295 X219.959 Y262.246
N5300 ; DEPOSITION OFF
N5305 G181 D0.25 U0.75
N5310 G0 X75.811 Y90.456
N5315 ; DEPOSITION ON
N5320 G180 D0.25 U0.75
N5325 G1 X51.591 Y61.592 F508
N5330 X49.035 Y63.737
N5335 X73.255 Y92.601
N5340 ; DEPOSITION OFF
N5345 G181 D0.25 U0.75
N5350 G0 X217.403 Y264.391
N5355 ; DEPOSITION ON
N5360 G180 D0.25 U0.75
N5365 G1 X235.494 Y285.951 F508
N5370 X232.938 Y288.095
N5375 X214.847 Y266.535
N5380 ; DEPOSITION OFF
N5385 G181 D0.25 U0.75
N5390 G0 X70.699 Y94.746
N5395 ; DEPOSITION ON
N5400 G180 D0.25 U0.75
N5405 G1 X46.479 Y65.882 F508
N5410 X43.923 Y68.026
N5415 X230.382 Y290.24
N5420 X227.826 Y292.385
N5425 X41.367 Y70.171
N5430 X38.811 Y72.316
N5435 X225.27 Y294.53
N5440 X222.714 Y296.674
N5445 X36.255 Y74.461
N5450 X33.699 Y76.605
N5455 X220.158 Y298.819
N5460 ; DEPOSITION OFF
N5465 G181 D0.25 U0.75
N5470 G0 X55.363 Y107.614
N5475 ; DEPOSITION ON
N5480 G180 D0.25 U0.75
N5485 G1 X31.143 Y78.75 F508
N5490 X28.587 Y80.895
N5495 X52.807 Y109.759
N5500 G181 D0.25 U0.75
N5505 V.P.layer_num = 8
N5510 P12011=0
N5515 #PCALL decking.nc P1 = V.P.layer_num
N5520 P12012= 8
N5525 P12011=1
N5530 ; LAYER 8  END
N5535 ; DEPOSITION OFF
N5540 G181 D0.25 U0.75
N5545 G0 Z18
N5550 X94.614 Y24.363
N5555 ; LAYER 9 START
N5560 ; DEPOSITION ON
N5565 G180 D0.25 U0.75
N5570 G1 X119.389 Y53.89 F508
N5575 X116.824 Y56.042
N5580 X92.048 Y26.516
N5585 X89.482 Y28.669
N5590 X114.258 Y58.195
N5595 X111.692 Y60.348
N5600 X86.917 Y30.822
N5605 X84.351 Y32.975
N5610 X109.126 Y62.501
N5615 X106.561 Y64.654
N5620 X81.785 Y35.128
N5625 X79.219 Y37.281
N5630 X103.995 Y66.807
N5635 ; DEPOSITION OFF
N5640 G181 D0.25 U0.75
N5645 G0 X263.852 Y262.528
N5650 ; DEPOSITION ON
N5655 G180 D0.25 U0.75
N5660 G1 X76.654 Y39.433 F508
N5665 X74.088 Y41.586
N5670 X261.286 Y264.681
N5675 X258.721 Y266.834
N5680 X71.522 Y43.739
N5685 X68.956 Y45.892
N5690 X93.732 Y75.419
N5695 ; DEPOSITION OFF
N5700 G181 D0.25 U0.75
N5705 G0 X237.88 Y247.208
N5710 ; DEPOSITION ON
N5715 G180 D0.25 U0.75
N5720 G1 X256.155 Y268.987 F508
N5725 X253.589 Y271.14
N5730 X235.315 Y249.361
N5735 ; DEPOSITION OFF
N5740 G181 D0.25 U0.75
N5745 G0 X91.166 Y77.572
N5750 ; DEPOSITION ON
N5755 G180 D0.25 U0.75
N5760 G1 X66.391 Y48.045 F508
N5765 X63.825 Y50.198
N5770 X88.601 Y79.725
N5775 ; DEPOSITION OFF
N5780 G181 D0.25 U0.75
N5785 G0 X232.749 Y251.514
N5790 ; DEPOSITION ON
N5795 G180 D0.25 U0.75
N5800 G1 X251.023 Y273.293 F508
N5805 X248.458 Y275.445
N5810 X230.183 Y253.667
N5815 ; DEPOSITION OFF
N5820 G181 D0.25 U0.75
N5825 G0 X86.035 Y81.877
N5830 ; DEPOSITION ON
N5835 G180 D0.25 U0.75
N5840 G1 X61.259 Y52.351 F508
N5845 X58.693 Y54.504
N5850 X83.469 Y84.03
N5855 ; DEPOSITION OFF
N5860 G181 D0.25 U0.75
N5865 G0 X227.618 Y255.82
N5870 ; DEPOSITION ON
N5875 G180 D0.25 U0.75
N5880 G1 X245.892 Y277.598 F508
N5885 X243.326 Y279.751
N5890 X225.052 Y257.973
N5895 ; DEPOSITION OFF
N5900 G181 D0.25 U0.75
N5905 G0 X80.903 Y86.183
N5910 ; DEPOSITION ON
N5915 G180 D0.25 U0.75
N5920 G1 X56.128 Y56.657 F508
N5925 X53.562 Y58.81
N5930 X78.338 Y88.336
N5935 ; DEPOSITION OFF
N5940 G181 D0.25 U0.75
N5945 G0 X222.486 Y260.126
N5950 ; DEPOSITION ON
N5955 G180 D0.25 U0.75
N5960 G1 X240.76 Y281.904 F508
N5965 X238.195 Y284.057
N5970 X219.92 Y262.279
N5975 ; DEPOSITION OFF
N5980 G181 D0.25 U0.75
N5985 G0 X75.772 Y90.489
N5990 ; DEPOSITION ON
N5995 G180 D0.25 U0.75
N6000 G1 X50.996 Y60.963 F508
N6005 X48.43 Y63.116
N6010 X73.206 Y92.642
N6015 ; DEPOSITION OFF
N6020 G181 D0.25 U0.75
N6025 G0 X217.355 Y264.431
N6030 ; DEPOSITION ON
N6035 G180 D0.25 U0.75
N6040 G1 X235.629 Y286.21 F508
N6045 X233.063 Y288.363
N6050 X214.789 Y266.584
N6055 ; DEPOSITION OFF
N6060 G181 D0.25 U0.75
N6065 G0 X70.64 Y94.795
N6070 ; DEPOSITION ON
N6075 G180 D0.25 U0.75
N6080 G1 X45.865 Y65.268 F508
N6085 X43.299 Y67.421
N6090 X230.497 Y290.516
N6095 X227.932 Y292.669
N6100 X40.733 Y69.574
N6105 X38.167 Y71.727
N6110 X225.366 Y294.822
N6115 X222.8 Y296.975
N6120 X35.602 Y73.88
N6125 X33.036 Y76.033
N6130 X220.234 Y299.127
N6135 ; DEPOSITION OFF
N6140 G181 D0.25 U0.75
N6145 G0 X55.246 Y107.712
N6150 ; DEPOSITION ON
N6155 G180 D0.25 U0.75
N6160 G1 X30.47 Y78.186 F508
N6165 X27.905 Y80.339
N6170 X52.68 Y109.865
N6175 G181 D0.25 U0.75
N6180 V.P.layer_num = 9
N6185 P12011=0
N6190 #PCALL decking.nc P1 = V.P.layer_num
N6195 P12012= 9
N6200 P12011=1
N6205 ; LAYER 9  END
N6210 ; DEPOSITION OFF
N6215 G181 D0.25 U0.75
N6220 G0 Z20
N6225 X94.197 Y23.584
N6230 ; LAYER 10 START
N6235 ; DEPOSITION ON
N6240 G180 D0.25 U0.75
N6245 G1 X119.528 Y53.773 F508
N6250 X116.952 Y55.935
N6255 X91.62 Y25.746
N6260 X89.044 Y27.908
N6265 X114.375 Y58.097
N6270 X111.799 Y60.259
N6275 X86.468 Y30.07
N6280 X83.891 Y32.232
N6285 X109.223 Y62.421
N6290 X106.646 Y64.582
N6295 X81.315 Y34.394
N6300 X78.738 Y36.555
N6305 X104.07 Y66.744
N6310 ; DEPOSITION OFF
N6315 G181 D0.25 U0.75
N6320 G0 X264.171 Y262.777
N6325 ; DEPOSITION ON
N6330 G180 D0.25 U0.75
N6335 G1 X76.162 Y38.717 F508
N6340 X73.585 Y40.879
N6345 X261.594 Y264.939
N6350 X259.018 Y267.101
N6355 X71.009 Y43.041
N6360 X68.433 Y45.203
N6365 X93.764 Y75.392
N6370 ; DEPOSITION OFF
N6375 G181 D0.25 U0.75
N6380 G0 X237.913 Y247.181
N6385 ; DEPOSITION ON
N6390 G180 D0.25 U0.75
N6395 G1 X256.441 Y269.263 F508
N6400 X253.865 Y271.425
N6405 X235.336 Y249.343
N6410 ; DEPOSITION OFF
N6415 G181 D0.25 U0.75
N6420 G0 X91.188 Y77.554
N6425 ; DEPOSITION ON
N6430 G180 D0.25 U0.75
N6435 G1 X65.856 Y47.365 F508
N6440 X63.28 Y49.527
N6445 X88.611 Y79.716
N6450 ; DEPOSITION OFF
N6455 G181 D0.25 U0.75
N6460 G0 X232.76 Y251.505
N6465 ; DEPOSITION ON
N6470 G180 D0.25 U0.75
N6475 G1 X251.288 Y273.587 F508
N6480 X248.712 Y275.749
N6485 X230.183 Y253.667
N6490 ; DEPOSITION OFF
N6495 G181 D0.25 U0.75
N6500 G0 X86.035 Y81.877
N6505 ; DEPOSITION ON
N6510 G180 D0.25 U0.75
N6515 G1 X60.703 Y51.689 F508
N6520 X58.127 Y53.85
N6525 X83.458 Y84.039
N6530 ; DEPOSITION OFF
N6535 G181 D0.25 U0.75
N6540 G0 X227.607 Y255.829
N6545 ; DEPOSITION ON
N6550 G180 D0.25 U0.75
N6555 G1 X246.136 Y277.911 F508
N6560 X243.559 Y280.072
N6565 X225.03 Y257.991
N6570 ; DEPOSITION OFF
N6575 G181 D0.25 U0.75
N6580 G0 X80.882 Y86.201
N6585 ; DEPOSITION ON
N6590 G180 D0.25 U0.75
N6595 G1 X55.55 Y56.012 F508
N6600 X52.974 Y58.174
N6605 X78.306 Y88.363
N6610 ; DEPOSITION OFF
N6615 G181 D0.25 U0.75
N6620 G0 X222.454 Y260.153
N6625 ; DEPOSITION ON
N6630 G180 D0.25 U0.75
N6635 G1 X240.983 Y282.234 F508
N6640 X238.406 Y284.396
N6645 X219.878 Y262.314
N6650 ; DEPOSITION OFF
N6655 G181 D0.25 U0.75
N6660 G0 X75.729 Y90.525
N6665 ; DEPOSITION ON
N6670 G180 D0.25 U0.75
N6675 G1 X50.398 Y60.336 F508
N6680 X47.821 Y62.498
N6685 X73.153 Y92.687
N6690 ; DEPOSITION OFF
N6695 G181 D0.25 U0.75
N6700 G0 X217.301 Y264.476
N6705 ; DEPOSITION ON
N6710 G180 D0.25 U0.75
N6715 G1 X235.83 Y286.558 F508
N6720 X233.253 Y288.72
N6725 X214.725 Y266.638
N6730 ; DEPOSITION OFF
N6735 G181 D0.25 U0.75
N6740 G0 X70.576 Y94.849
N6745 ; DEPOSITION ON
N6750 G180 D0.25 U0.75
N6755 G1 X45.245 Y64.66 F508
N6760 X42.668 Y66.822
N6765 X230.677 Y290.882
N6770 X228.101 Y293.044
N6775 X40.092 Y68.984
N6780 X37.515 Y71.145
N6785 X225.524 Y295.206
N6790 X222.948 Y297.367
N6795 X34.939 Y73.307
N6800 X32.363 Y75.469
N6805 X220.371 Y299.529
N6810 ; DEPOSITION OFF
N6815 G181 D0.25 U0.75
N6820 G0 X55.118 Y107.82
N6825 ; DEPOSITION ON
N6830 G180 D0.25 U0.75
N6835 G1 X29.786 Y77.631 F508
N6840 X27.21 Y79.793
N6845 X52.541 Y109.982
N6850 G181 D0.25 U0.75
N6855 V.P.layer_num = 10
N6860 P12011=0
N6865 #PCALL decking.nc P1 = V.P.layer_num
N6870 P12012= 10
N6875 P12011=1
N6880 ; LAYER 10  END
N6885 ; DEPOSITION OFF
N6890 G181 D0.25 U0.75
N6895 G0 Z22
N6900 X93.405 Y23.12
N6905 ; LAYER 11 START
N6910 ; DEPOSITION ON
N6915 G180 D0.25 U0.75
N6920 G1 X119.292 Y53.971 F508
N6925 X116.734 Y56.118
N6930 X90.847 Y25.267
N6935 X88.288 Y27.413
N6940 X114.176 Y58.265
N6945 X111.617 Y60.411
N6950 X85.73 Y29.56
N6955 X83.172 Y31.707
N6960 X109.059 Y62.558
N6965 X106.501 Y64.704
N6970 X80.614 Y33.853
N6975 X78.055 Y36
N6980 X103.943 Y66.851
N6985 ; DEPOSITION OFF
N6990 G181 D0.25 U0.75
N6995 G0 X264.307 Y263.162
N7000 ; DEPOSITION ON
N7005 G180 D0.25 U0.75
N7010 G1 X75.497 Y38.146 F508
N7015 X72.939 Y40.293
N7020 X261.749 Y265.308
N7025 X259.191 Y267.455
N7030 X70.381 Y42.44
N7035 X67.822 Y44.586
N7040 X93.71 Y75.438
N7045 ; DEPOSITION OFF
N7050 G181 D0.25 U0.75
N7055 G0 X237.858 Y247.227
N7060 ; DEPOSITION ON
N7065 G180 D0.25 U0.75
N7070 G1 X256.633 Y269.602 F508
N7075 X254.074 Y271.748
N7080 X235.3 Y249.374
N7085 ; DEPOSITION OFF
N7090 G181 D0.25 U0.75
N7095 G0 X91.151 Y77.584
N7100 ; DEPOSITION ON
N7105 G180 D0.25 U0.75
N7110 G1 X65.264 Y46.733 F508
N7115 X62.706 Y48.88
N7120 X88.593 Y79.731
N7125 ; DEPOSITION OFF
N7130 G181 D0.25 U0.75
N7135 G0 X232.742 Y251.52
N7140 ; DEPOSITION ON
N7145 G180 D0.25 U0.75
N7150 G1 X251.516 Y273.895 F508
N7155 X248.958 Y276.042
N7160 X230.183 Y253.667
N7165 ; DEPOSITION OFF
N7170 G181 D0.25 U0.75
N7175 G0 X86.035 Y81.877
N7180 ; DEPOSITION ON
N7185 G180 D0.25 U0.75
N7190 G1 X60.148 Y51.026 F508
N7195 X57.589 Y53.173
N7200 X83.477 Y84.024
N7205 ; DEPOSITION OFF
N7210 G181 D0.25 U0.75
N7215 G0 X227.625 Y255.814
N7220 ; DEPOSITION ON
N7225 G180 D0.25 U0.75
N7230 G1 X246.4 Y278.188 F508
N7235 X243.841 Y280.335
N7240 X225.067 Y257.96
N7245 ; DEPOSITION OFF
N7250 G181 D0.25 U0.75
N7255 G0 X80.918 Y86.171
N7260 ; DEPOSITION ON
N7265 G180 D0.25 U0.75
N7270 G1 X55.031 Y55.319 F508
N7275 X52.473 Y57.466
N7280 X78.36 Y88.317
N7285 ; DEPOSITION OFF
N7290 G181 D0.25 U0.75
N7295 G0 X222.508 Y260.107
N7300 ; DEPOSITION ON
N7305 G180 D0.25 U0.75
N7310 G1 X241.283 Y282.481 F508
N7315 X238.725 Y284.628
N7320 X219.95 Y262.253
N7325 ; DEPOSITION OFF
N7330 G181 D0.25 U0.75
N7335 G0 X75.802 Y90.464
N7340 ; DEPOSITION ON
N7345 G180 D0.25 U0.75
N7350 G1 X49.915 Y59.613 F508
N7355 X47.356 Y61.759
N7360 X73.244 Y92.611
N7365 ; DEPOSITION OFF
N7370 G181 D0.25 U0.75
N7375 G0 X217.392 Y264.4
N7380 ; DEPOSITION ON
N7385 G180 D0.25 U0.75
N7390 G1 X236.167 Y286.775 F508
N7395 X233.608 Y288.921
N7400 X214.834 Y266.547
N7405 ; DEPOSITION OFF
N7410 G181 D0.25 U0.75
N7415 G0 X70.685 Y94.757
N7420 ; DEPOSITION ON
N7425 G180 D0.25 U0.75
N7430 G1 X44.798 Y63.906 F508
N7435 X42.24 Y66.053
N7440 X231.05 Y291.068
N7445 X228.492 Y293.215
N7450 X39.681 Y68.199
N7455 X37.123 Y70.346
N7460 X225.934 Y295.361
N7465 X223.375 Y297.508
N7470 X34.565 Y72.492
N7475 X32.007 Y74.639
N7480 X220.817 Y299.654
N7485 ; DEPOSITION OFF
N7490 G181 D0.25 U0.75
N7495 G0 X55.336 Y107.637
N7500 ; DEPOSITION ON
N7505 G180 D0.25 U0.75
N7510 G1 X29.448 Y76.786 F508
N7515 X26.89 Y78.932
N7520 X52.778 Y109.784
N7525 G181 D0.25 U0.75
N7530 V.P.layer_num = 11
N7535 P12011=0
N7540 #PCALL decking.nc P1 = V.P.layer_num
N7545 P12012= 11
N7550 P12011=1
N7555 ; LAYER 11  END
N7560 ; DEPOSITION OFF
N7565 G181 D0.25 U0.75
N7570 G0 Z24
N7575 X92.983 Y22.345
N7580 ; LAYER 12 START
N7585 ; DEPOSITION ON
N7590 G180 D0.25 U0.75
N7595 G1 X119.426 Y53.858 F508
N7600 X116.858 Y56.014
N7605 X90.415 Y24.5
N7610 X87.846 Y26.655
N7615 X114.289 Y58.169
N7620 X111.721 Y60.324
N7625 X85.278 Y28.811
N7630 X82.709 Y30.966
N7635 X109.152 Y62.48
N7640 X106.584 Y64.635
N7645 X80.14 Y33.121
N7650 X77.572 Y35.277
N7655 X104.015 Y66.79
N7660 ; DEPOSITION OFF
N7665 G181 D0.25 U0.75
N7670 G0 X264.607 Y263.392
N7675 ; DEPOSITION ON
N7680 G180 D0.25 U0.75
N7685 G1 X75.003 Y37.432 F508
N7690 X72.435 Y39.587
N7695 X262.038 Y265.548
N7700 X259.469 Y267.703
N7705 X69.866 Y41.743
N7710 X67.297 Y43.898
N7715 X93.741 Y75.412
N7720 ; DEPOSITION OFF
N7725 G181 D0.25 U0.75
N7730 G0 X237.889 Y247.201
N7735 ; DEPOSITION ON
N7740 G180 D0.25 U0.75
N7745 G1 X256.901 Y269.858 F508
N7750 X254.332 Y272.014
N7755 X235.32 Y249.356
N7760 ; DEPOSITION OFF
N7765 G181 D0.25 U0.75
N7770 G0 X91.172 Y77.567
N7775 ; DEPOSITION ON
N7780 G180 D0.25 U0.75
N7785 G1 X64.729 Y46.053 F508
N7790 X62.16 Y48.208
N7795 X88.603 Y79.722
N7800 ; DEPOSITION OFF
N7805 G181 D0.25 U0.75
N7810 G0 X232.752 Y251.512
N7815 ; DEPOSITION ON
N7820 G180 D0.25 U0.75
N7825 G1 X251.764 Y274.169 F508
N7830 X249.195 Y276.324
N7835 X230.183 Y253.667
N7840 ; DEPOSITION OFF
N7845 G181 D0.25 U0.75
N7850 G0 X86.035 Y81.877
N7855 ; DEPOSITION ON
N7860 G180 D0.25 U0.75
N7865 G1 X59.592 Y50.364 F508
N7870 X57.023 Y52.519
N7875 X83.466 Y84.033
N7880 ; DEPOSITION OFF
N7885 G181 D0.25 U0.75
N7890 G0 X227.615 Y255.822
N7895 ; DEPOSITION ON
N7900 G180 D0.25 U0.75
N7905 G1 X246.626 Y278.479 F508
N7910 X244.058 Y280.635
N7915 X225.046 Y257.978
N7920 ; DEPOSITION OFF
N7925 G181 D0.25 U0.75
N7930 G0 X80.898 Y86.188
N7935 ; DEPOSITION ON
N7940 G180 D0.25 U0.75
N7945 G1 X54.455 Y54.674 F508
N7950 X51.886 Y56.83
N7955 X78.329 Y88.343
N7960 ; DEPOSITION OFF
N7965 G181 D0.25 U0.75
N7970 G0 X222.477 Y260.133
N7975 ; DEPOSITION ON
N7980 G180 D0.25 U0.75
N7985 G1 X241.489 Y282.79 F508
N7990 X238.921 Y284.945
N7995 X219.909 Y262.288
N8000 ; DEPOSITION OFF
N8005 G181 D0.25 U0.75
N8010 G0 X75.76 Y90.499
N8015 ; DEPOSITION ON
N8020 G180 D0.25 U0.75
N8025 G1 X49.317 Y58.985 F508
N8030 X46.749 Y61.14
N8035 X73.192 Y92.654
N8040 ; DEPOSITION OFF
N8045 G181 D0.25 U0.75
N8050 G0 X217.34 Y264.443
N8055 ; DEPOSITION ON
N8060 G180 D0.25 U0.75
N8065 G1 X236.352 Y287.101 F508
N8070 X233.783 Y289.256
N8075 X214.772 Y266.599
N8080 ; DEPOSITION OFF
N8085 G181 D0.25 U0.75
N8090 G0 X70.623 Y94.809
N8095 ; DEPOSITION ON
N8100 G180 D0.25 U0.75
N8105 G1 X44.18 Y63.296 F508
N8110 X41.612 Y65.451
N8115 X231.215 Y291.411
N8120 X228.646 Y293.567
N8125 X39.043 Y67.606
N8130 X36.474 Y69.762
N8135 X226.078 Y295.722
N8140 X223.509 Y297.877
N8145 X33.906 Y71.917
N8150 X31.337 Y74.072
N8155 X220.94 Y300.033
N8160 ; DEPOSITION OFF
N8165 G181 D0.25 U0.75
N8170 G0 X55.212 Y107.741
N8175 ; DEPOSITION ON
N8180 G180 D0.25 U0.75
N8185 G1 X28.769 Y76.227 F508
N8190 X26.2 Y78.383
N8195 X52.643 Y109.896
N8200 G181 D0.25 U0.75
N8205 V.P.layer_num = 12
N8210 P12011=0
N8215 #PCALL decking.nc P1 = V.P.layer_num
N8220 P12012= 12
N8225 P12011=1
N8230 ; LAYER 12  END
N8235 ; DEPOSITION OFF
N8240 G181 D0.25 U0.75
N8245 G0 Z26
N8250 X92.561 Y21.571
N8255 ; LAYER 13 START
N8260 ; DEPOSITION ON
N8265 G180 D0.25 U0.75
N8270 G1 X119.559 Y53.747 F508
N8275 X116.981 Y55.911
N8280 X89.982 Y23.735
N8285 X87.403 Y25.899
N8290 X114.402 Y58.075
N8295 X111.823 Y60.239
N8300 X84.824 Y28.063
N8305 X82.245 Y30.226
N8310 X109.244 Y62.402
N8315 X106.665 Y64.566
N8320 X79.666 Y32.39
N8325 X77.088 Y34.554
N8330 X104.087 Y66.73
N8335 ; DEPOSITION OFF
N8340 G181 D0.25 U0.75
N8345 G0 X264.897 Y263.613
N8350 ; DEPOSITION ON
N8355 G180 D0.25 U0.75
N8360 G1 X74.509 Y36.718 F508
N8365 X71.93 Y38.882
N8370 X262.318 Y265.777
N8375 X259.739 Y267.941
N8380 X69.351 Y41.046
N8385 X66.772 Y43.21
N8390 X93.771 Y75.386
N8395 ; DEPOSITION OFF
N8400 G181 D0.25 U0.75
N8405 G0 X237.92 Y247.175
N8410 ; DEPOSITION ON
N8415 G180 D0.25 U0.75
N8420 G1 X257.16 Y270.105 F508
N8425 X254.581 Y272.269
N8430 X235.341 Y249.339
N8435 ; DEPOSITION OFF
N8440 G181 D0.25 U0.75
N8445 G0 X91.192 Y77.55
N8450 ; DEPOSITION ON
N8455 G180 D0.25 U0.75
N8460 G1 X64.194 Y45.374 F508
N8465 X61.615 Y47.538
N8470 X88.614 Y79.714
N8475 ; DEPOSITION OFF
N8480 G181 D0.25 U0.75
N8485 G0 X232.762 Y251.503
N8490 ; DEPOSITION ON
N8495 G180 D0.25 U0.75
N8500 G1 X252.002 Y274.433 F508
N8505 X249.424 Y276.597
N8510 X230.183 Y253.667
N8515 ; DEPOSITION OFF
N8520 G181 D0.25 U0.75
N8525 G0 X86.035 Y81.877
N8530 ; DEPOSITION ON
N8535 G180 D0.25 U0.75
N8540 G1 X59.036 Y49.701 F508
N8545 X56.457 Y51.865
N8550 X83.456 Y84.041
N8555 ; DEPOSITION OFF
N8560 G181 D0.25 U0.75
N8565 G0 X227.604 Y255.831
N8570 ; DEPOSITION ON
N8575 G180 D0.25 U0.75
N8580 G1 X246.845 Y278.76 F508
N8585 X244.266 Y280.924
N8590 X225.026 Y257.995
N8595 ; DEPOSITION OFF
N8600 G181 D0.25 U0.75
N8605 G0 X80.877 Y86.205
N8610 ; DEPOSITION ON
N8615 G180 D0.25 U0.75
N8620 G1 X53.878 Y54.029 F508
N8625 X51.299 Y56.193
N8630 X78.298 Y88.369
N8635 ; DEPOSITION OFF
N8640 G181 D0.25 U0.75
N8645 G0 X222.447 Y260.159
N8650 ; DEPOSITION ON
N8655 G180 D0.25 U0.75
N8660 G1 X241.687 Y283.088 F508
N8665 X239.108 Y285.252
N8670 X219.868 Y262.322
N8675 ; DEPOSITION OFF
N8680 G181 D0.25 U0.75
N8685 G0 X75.72 Y90.533
N8690 ; DEPOSITION ON
N8695 G180 D0.25 U0.75
N8700 G1 X48.721 Y58.357 F508
N8705 X46.142 Y60.521
N8710 X73.141 Y92.697
N8715 ; DEPOSITION OFF
N8720 G181 D0.25 U0.75
N8725 G0 X217.289 Y264.486
N8730 ; DEPOSITION ON
N8735 G180 D0.25 U0.75
N8740 G1 X236.529 Y287.416 F508
N8745 X233.951 Y289.58
N8750 X214.71 Y266.65
N8755 ; DEPOSITION OFF
N8760 G181 D0.25 U0.75
N8765 G0 X70.562 Y94.861
N8770 ; DEPOSITION ON
N8775 G180 D0.25 U0.75
N8780 G1 X43.563 Y62.685 F508
N8785 X40.984 Y64.849
N8790 X231.372 Y291.744
N8795 X228.793 Y293.908
N8800 X38.405 Y67.012
N8805 X35.827 Y69.176
N8810 X226.214 Y296.072
N8815 X223.635 Y298.235
N8820 X33.248 Y71.34
N8825 X30.669 Y73.504
N8830 X221.057 Y300.399
N8835 ; DEPOSITION OFF
N8840 G181 D0.25 U0.75
N8845 G0 X55.089 Y107.844
N8850 ; DEPOSITION ON
N8855 G180 D0.25 U0.75
N8860 G1 X28.09 Y75.668 F508
N8865 X25.511 Y77.832
N8870 X52.51 Y110.008
N8875 G181 D0.25 U0.75
N8880 V.P.layer_num = 13
N8885 P12011=0
N8890 #PCALL decking.nc P1 = V.P.layer_num
N8895 P12012= 13
N8900 P12011=1
N8905 ; LAYER 13  END
N8910 ; DEPOSITION OFF
N8915 G181 D0.25 U0.75
N8920 G0 Z28
N8925 X91.766 Y21.108
N8930 ; LAYER 14 START
N8935 ; DEPOSITION ON
N8940 G180 D0.25 U0.75
N8945 G1 X119.321 Y53.947 F508
N8950 X116.761 Y56.095
N8955 X89.206 Y23.257
N8960 X86.645 Y25.405
N8965 X114.2 Y58.244
N8970 X111.64 Y60.392
N8975 X84.085 Y27.554
N8980 X81.524 Y29.702
N8985 X109.079 Y62.541
N8990 X106.519 Y64.689
N8995 X78.964 Y31.851
N9000 X76.404 Y33.999
N9005 X103.958 Y66.838
N9010 ; DEPOSITION OFF
N9015 G181 D0.25 U0.75
N9020 G0 X265.007 Y263.968
N9025 ; DEPOSITION ON
N9030 G180 D0.25 U0.75
N9035 G1 X73.843 Y36.148 F508
N9040 X71.283 Y38.296
N9045 X262.446 Y266.116
N9050 X259.886 Y268.265
N9055 X68.722 Y40.445
N9060 X66.162 Y42.593
N9065 X93.716 Y75.432
N9070 ; DEPOSITION OFF
N9075 G181 D0.25 U0.75
N9080 G0 X237.865 Y247.221
N9085 ; DEPOSITION ON
N9090 G180 D0.25 U0.75
N9095 G1 X257.325 Y270.413 F508
N9100 X254.765 Y272.562
N9105 X235.304 Y249.37
N9110 ; DEPOSITION OFF
N9115 G181 D0.25 U0.75
N9120 G0 X91.156 Y77.58
N9125 ; DEPOSITION ON
N9130 G180 D0.25 U0.75
N9135 G1 X63.601 Y44.742 F508
N9140 X61.041 Y46.891
N9145 X88.595 Y79.729
N9150 ; DEPOSITION OFF
N9155 G181 D0.25 U0.75
N9160 G0 X232.744 Y251.518
N9165 ; DEPOSITION ON
N9170 G180 D0.25 U0.75
N9175 G1 X252.204 Y274.71 F508
N9180 X249.644 Y276.859
N9185 X230.183 Y253.667
N9190 ; DEPOSITION OFF
N9195 G181 D0.25 U0.75
N9200 G0 X86.035 Y81.877
N9205 ; DEPOSITION ON
N9210 G180 D0.25 U0.75
N9215 G1 X58.48 Y49.039 F508
N9220 X55.92 Y51.188
N9225 X83.474 Y84.026
N9230 ; DEPOSITION OFF
N9235 G181 D0.25 U0.75
N9240 G0 X227.623 Y255.815
N9245 ; DEPOSITION ON
N9250 G180 D0.25 U0.75
N9255 G1 X247.083 Y279.007 F508
N9260 X244.523 Y281.156
N9265 X225.062 Y257.964
N9270 ; DEPOSITION OFF
N9275 G181 D0.25 U0.75
N9280 G0 X80.914 Y86.174
N9285 ; DEPOSITION ON
N9290 G180 D0.25 U0.75
N9295 G1 X53.359 Y53.336 F508
N9300 X50.799 Y55.485
N9305 X78.353 Y88.323
N9310 ; DEPOSITION OFF
N9315 G181 D0.25 U0.75
N9320 G0 X222.502 Y260.112
N9325 ; DEPOSITION ON
N9330 G180 D0.25 U0.75
N9335 G1 X241.962 Y283.304 F508
N9340 X239.402 Y285.453
N9345 X219.941 Y262.261
N9350 ; DEPOSITION OFF
N9355 G181 D0.25 U0.75
N9360 G0 X75.793 Y90.471
N9365 ; DEPOSITION ON
N9370 G180 D0.25 U0.75
N9375 G1 X48.238 Y57.633 F508
N9380 X45.678 Y59.782
N9385 X73.232 Y92.62
N9390 ; DEPOSITION OFF
N9395 G181 D0.25 U0.75
N9400 G0 X217.381 Y264.409
N9405 ; DEPOSITION ON
N9410 G180 D0.25 U0.75
N9415 G1 X236.841 Y287.601 F508
N9420 X234.281 Y289.75
N9425 X214.82 Y266.558
N9430 ; DEPOSITION OFF
N9435 G181 D0.25 U0.75
N9440 G0 X70.672 Y94.768
N9445 ; DEPOSITION ON
N9450 G180 D0.25 U0.75
N9455 G1 X43.117 Y61.93 F508
N9460 X40.557 Y64.079
N9465 X231.72 Y291.898
N9470 X229.16 Y294.047
N9475 X37.996 Y66.227
N9480 X35.436 Y68.376
N9485 X226.599 Y296.195
N9490 X224.039 Y298.344
N9495 X32.875 Y70.524
N9500 X30.315 Y72.673
N9505 X221.478 Y300.492
N9510 ; DEPOSITION OFF
N9515 G181 D0.25 U0.75
N9520 G0 X55.309 Y107.66
N9525 ; DEPOSITION ON
N9530 G180 D0.25 U0.75
N9535 G1 X27.754 Y74.821 F508
N9540 X25.194 Y76.97
N9545 X52.748 Y109.808
N9550 G181 D0.25 U0.75
N9555 V.P.layer_num = 14
N9560 P12011=0
N9565 #PCALL decking.nc P1 = V.P.layer_num
N9570 P12012= 14
N9575 P12011=1
N9580 ; LAYER 14  END
N9585 ; DEPOSITION OFF
N9590 G181 D0.25 U0.75
N9595 G0 Z30
N9600 X91.339 Y20.338
N9605 ; LAYER 15 START
N9610 ; DEPOSITION ON
N9615 G180 D0.25 U0.75
N9620 G1 X119.45 Y53.839 F508
N9625 X116.879 Y55.996
N9630 X88.769 Y22.495
N9635 X86.199 Y24.652
N9640 X114.309 Y58.153
N9645 X111.739 Y60.309
N9650 X83.628 Y26.809
N9655 X81.058 Y28.965
N9660 X109.168 Y62.466
N9665 X106.598 Y64.623
N9670 X78.487 Y31.122
N9675 X75.917 Y33.279
N9680 X104.027 Y66.78
N9685 ; DEPOSITION OFF
N9690 G181 D0.25 U0.75
N9695 G0 X265.277 Y264.17
N9700 ; DEPOSITION ON
N9705 G180 D0.25 U0.75
N9710 G1 X73.347 Y35.436 F508
N9715 X70.776 Y37.593
N9720 X262.707 Y266.327
N9725 X260.137 Y268.484
N9730 X68.206 Y39.749
N9735 X65.635 Y41.906
N9740 X93.746 Y75.407
N9745 ; DEPOSITION OFF
N9750 G181 D0.25 U0.75
N9755 G0 X237.894 Y247.196
N9760 ; DEPOSITION ON
N9765 G180 D0.25 U0.75
N9770 G1 X257.566 Y270.641 F508
N9775 X254.996 Y272.797
N9780 X235.324 Y249.353
N9785 ; DEPOSITION OFF
N9790 G181 D0.25 U0.75
N9795 G0 X91.176 Y77.564
N9800 ; DEPOSITION ON
N9805 G180 D0.25 U0.75
N9810 G1 X63.065 Y44.063 F508
N9815 X60.495 Y46.22
N9820 X88.605 Y79.721
N9825 ; DEPOSITION OFF
N9830 G181 D0.25 U0.75
N9835 G0 X232.754 Y251.51
N9840 ; DEPOSITION ON
N9845 G180 D0.25 U0.75
N9850 G1 X252.426 Y274.954 F508
N9855 X249.855 Y277.111
N9860 X230.183 Y253.667
N9865 ; DEPOSITION OFF
N9870 G181 D0.25 U0.75
N9875 G0 X86.035 Y81.877
N9880 ; DEPOSITION ON
N9885 G180 D0.25 U0.75
N9890 G1 X57.924 Y48.377 F508
N9895 X55.354 Y50.533
N9900 X83.464 Y84.034
N9905 ; DEPOSITION OFF
N9910 G181 D0.25 U0.75
N9915 G0 X227.613 Y255.824
N9920 ; DEPOSITION ON
N9925 G180 D0.25 U0.75
N9930 G1 X247.285 Y279.268 F508
N9935 X244.714 Y281.425
N9940 X225.042 Y257.98
N9945 ; DEPOSITION OFF
N9950 G181 D0.25 U0.75
N9955 G0 X80.894 Y86.191
N9960 ; DEPOSITION ON
N9965 G180 D0.25 U0.75
N9970 G1 X52.784 Y52.69 F508
N9975 X50.213 Y54.847
N9980 X78.324 Y88.348
N9985 ; DEPOSITION OFF
N9990 G181 D0.25 U0.75
N9995 G0 X222.472 Y260.137
N10000 ; DEPOSITION ON
N10005 G180 D0.25 U0.75
N10010 G1 X242.144 Y283.581 F508
N10015 X239.574 Y285.738
N10020 X219.902 Y262.294
N10025 ; DEPOSITION OFF
N10030 G181 D0.25 U0.75
N10035 G0 X75.753 Y90.505
N10040 ; DEPOSITION ON
N10045 G180 D0.25 U0.75
N10050 G1 X47.643 Y57.004 F508
N10055 X45.072 Y59.161
N10060 X73.183 Y92.661
N10065 ; DEPOSITION OFF
N10070 G181 D0.25 U0.75
N10075 G0 X217.331 Y264.451
N10080 ; DEPOSITION ON
N10085 G180 D0.25 U0.75
N10090 G1 X237.003 Y287.895 F508
N10095 X234.433 Y290.052
N10100 X214.761 Y266.608
N10105 ; DEPOSITION OFF
N10110 G181 D0.25 U0.75
N10115 G0 X70.612 Y94.818
N10120 ; DEPOSITION ON
N10125 G180 D0.25 U0.75
N10130 G1 X42.502 Y61.317 F508
N10135 X39.932 Y63.474
N10140 X231.862 Y292.209
N10145 X229.292 Y294.365
N10150 X37.361 Y65.631
N10155 X34.791 Y67.788
N10160 X226.722 Y296.522
N10165 X224.151 Y298.679
N10170 X32.22 Y69.945
N10175 X29.65 Y72.102
N10180 X221.581 Y300.836
N10185 ; DEPOSITION OFF
N10190 G181 D0.25 U0.75
N10195 G0 X55.19 Y107.759
N10200 ; DEPOSITION ON
N10205 G180 D0.25 U0.75
N10210 G1 X27.08 Y74.258 F508
N10215 X24.509 Y76.415
N10220 X52.62 Y109.916
N10225 G181 D0.25 U0.75
N10230 V.P.layer_num = 15
N10235 P12011=0
N10240 #PCALL decking.nc P1 = V.P.layer_num
N10245 P12012= 15
N10250 P12011=1
N10255 ; LAYER 15  END
N10260 ; DEPOSITION OFF
N10265 G181 D0.25 U0.75
N10270 G0 Z32
N10275 X90.911 Y19.569
N10280 ; LAYER 16 START
N10285 ; DEPOSITION ON
N10290 G180 D0.25 U0.75
N10295 G1 X119.577 Y53.732 F508
N10300 X116.997 Y55.897
N10305 X88.331 Y21.734
N10310 X85.75 Y23.899
N10315 X114.417 Y58.062
N10320 X111.837 Y60.227
N10325 X83.17 Y26.064
N10330 X80.59 Y28.229
N10335 X109.256 Y62.392
N10340 X106.676 Y64.557
N10345 X78.01 Y30.394
N10350 X75.43 Y32.559
N10355 X104.096 Y66.722
N10360 ; DEPOSITION OFF
N10365 G181 D0.25 U0.75
N10370 G0 X265.539 Y264.363
N10375 ; DEPOSITION ON
N10380 G180 D0.25 U0.75
N10385 G1 X72.85 Y34.724 F508
N10390 X70.269 Y36.889
N10395 X262.959 Y266.528
N10400 X260.379 Y268.693
N10405 X67.689 Y39.054
N10410 X65.109 Y41.219
N10415 X93.775 Y75.382
N10420 ; DEPOSITION OFF
N10425 G181 D0.25 U0.75
N10430 G0 X237.924 Y247.172
N10435 ; DEPOSITION ON
N10440 G180 D0.25 U0.75
N10445 G1 X257.799 Y270.858 F508
N10450 X255.219 Y273.023
N10455 X235.344 Y249.337
N10460 ; DEPOSITION OFF
N10465 G181 D0.25 U0.75
N10470 G0 X91.195 Y77.547
N10475 ; DEPOSITION ON
N10480 G180 D0.25 U0.75
N10485 G1 X62.529 Y43.384 F508
N10490 X59.949 Y45.549
N10495 X88.615 Y79.712
N10500 ; DEPOSITION OFF
N10505 G181 D0.25 U0.75
N10510 G0 X232.763 Y251.502
N10515 ; DEPOSITION ON
N10520 G180 D0.25 U0.75
N10525 G1 X252.638 Y275.188 F508
N10530 X250.058 Y277.353
N10535 X230.183 Y253.667
N10540 ; DEPOSITION OFF
N10545 G181 D0.25 U0.75
N10550 G0 X86.035 Y81.877
N10555 ; DEPOSITION ON
N10560 G180 D0.25 U0.75
N10565 G1 X57.368 Y47.714 F508
N10570 X54.788 Y49.879
N10575 X83.455 Y84.042
N10580 ; DEPOSITION OFF
N10585 G181 D0.25 U0.75
N10590 G0 X227.603 Y255.832
N10595 ; DEPOSITION ON
N10600 G180 D0.25 U0.75
N10605 G1 X247.478 Y279.518 F508
N10610 X244.898 Y281.683
N10615 X225.023 Y257.997
N10620 ; DEPOSITION OFF
N10625 G181 D0.25 U0.75
N10630 G0 X80.874 Y86.207
N10635 ; DEPOSITION ON
N10640 G180 D0.25 U0.75
N10645 G1 X52.208 Y52.044 F508
N10650 X49.628 Y54.209
N10655 X78.294 Y88.373
N10660 ; DEPOSITION OFF
N10665 G181 D0.25 U0.75
N10670 G0 X222.443 Y260.162
N10675 ; DEPOSITION ON
N10680 G180 D0.25 U0.75
N10685 G1 X242.318 Y283.848 F508
N10690 X239.738 Y286.013
N10695 X219.863 Y262.327
N10700 ; DEPOSITION OFF
N10705 G181 D0.25 U0.75
N10710 G0 X75.714 Y90.538
N10715 ; DEPOSITION ON
N10720 G180 D0.25 U0.75
N10725 G1 X47.048 Y56.374 F508
N10730 X44.468 Y58.539
N10735 X73.134 Y92.703
N10740 ; DEPOSITION OFF
N10745 G181 D0.25 U0.75
N10750 G0 X217.282 Y264.492
N10755 ; DEPOSITION ON
N10760 G180 D0.25 U0.75
N10765 G1 X237.157 Y288.178 F508
N10770 X234.577 Y290.343
N10775 X214.702 Y266.657
N10780 ; DEPOSITION OFF
N10785 G181 D0.25 U0.75
N10790 G0 X70.554 Y94.868
N10795 ; DEPOSITION ON
N10800 G180 D0.25 U0.75
N10805 G1 X41.887 Y60.704 F508
N10810 X39.307 Y62.869
N10815 X231.997 Y292.508
N10820 X229.417 Y294.673
N10825 X36.727 Y65.034
N10830 X34.147 Y67.199
N10835 X226.837 Y296.838
N10840 X224.256 Y299.003
N10845 X31.567 Y69.364
N10850 X28.987 Y71.529
N10855 X221.676 Y301.168
N10860 ; DEPOSITION OFF
N10865 G181 D0.25 U0.75
N10870 G0 X55.073 Y107.858
N10875 ; DEPOSITION ON
N10880 G180 D0.25 U0.75
N10885 G1 X26.406 Y73.694 F508
N10890 X23.826 Y75.86
N10895 X52.493 Y110.023
N10900 G181 D0.25 U0.75
N10905 V.P.layer_num = 16
N10910 P12011=0
N10915 #PCALL decking.nc P1 = V.P.layer_num
N10920 P12012= 16
N10925 P12011=1
N10930 ; LAYER 16  END
N10935 ; DEPOSITION OFF
N10940 G181 D0.25 U0.75
N10945 G0 Z34
N10950 X75.22 Y31.606
N10955 ; LAYER 17 START
N10960 ; DEPOSITION ON
N10965 G180 D0.25 U0.75
N10970 G1 X104.442 Y66.432 F508
N10975 ; DEPOSITION OFF
N10980 G181 D0.25 U0.75
N10985 G0 X266.098 Y264.289
N10990 ; DEPOSITION ON
N10995 G180 D0.25 U0.75
N11000 G1 X72.658 Y33.756 F508
N11005 X70.096 Y35.905
N11010 X263.537 Y266.438
N11015 X260.975 Y268.588
N11020 X67.535 Y38.055
N11025 X64.973 Y40.204
N11030 X94.195 Y75.03
N11035 ; DEPOSITION OFF
N11040 G181 D0.25 U0.75
N11045 G0 X238.344 Y246.819
N11050 ; DEPOSITION ON
N11055 G180 D0.25 U0.75
N11060 G1 X258.413 Y270.737 F508
N11065 X255.852 Y272.887
N11070 X235.782 Y248.969
N11075 ; DEPOSITION OFF
N11080 G181 D0.25 U0.75
N11085 G0 X91.634 Y77.18
N11090 ; DEPOSITION ON
N11095 G180 D0.25 U0.75
N11100 G1 X62.411 Y42.354 F508
N11105 X59.85 Y44.503
N11110 X89.072 Y79.329
N11115 ; DEPOSITION OFF
N11120 G181 D0.25 U0.75
N11125 G0 X233.22 Y251.119
N11130 ; DEPOSITION ON
N11135 G180 D0.25 U0.75
N11140 G1 X253.29 Y275.036 F508
N11145 X250.728 Y277.186
N11150 X230.659 Y253.268
N11155 ; DEPOSITION OFF
N11160 G181 D0.25 U0.75
N11165 G0 X86.51 Y81.479
N11170 ; DEPOSITION ON
N11175 G180 D0.25 U0.75
N11180 G1 X57.288 Y46.653 F508
N11185 X54.726 Y48.803
N11190 X83.948 Y83.628
N11195 ; DEPOSITION OFF
N11200 G181 D0.25 U0.75
N11205 G0 X228.097 Y255.418
N11210 ; DEPOSITION ON
N11215 G180 D0.25 U0.75
N11220 G1 X248.166 Y279.335 F508
N11225 X243.043 Y283.635
N11230 X222.973 Y259.717
N11235 ; DEPOSITION OFF
N11240 G181 D0.25 U0.75
N11245 G0 X245.605 Y281.485
N11250 ; DEPOSITION ON
N11255 G180 D0.25 U0.75
N11260 G1 X225.535 Y257.567 F508
N11265 ; DEPOSITION OFF
N11270 G181 D0.25 U0.75
N11275 G0 X81.387 Y85.778
N11280 ; DEPOSITION ON
N11285 G180 D0.25 U0.75
N11290 G1 X52.165 Y50.952 F508
N11295 ; DEPOSITION OFF
N11300 G181 D0.25 U0.75
N11305 G0 X220.412 Y261.866
N11310 ; DEPOSITION ON
N11315 G180 D0.25 U0.75
N11320 G1 X240.481 Y285.784 F508
N11325 X237.92 Y287.934
N11330 X217.85 Y264.016
N11335 ; DEPOSITION OFF
N11340 G181 D0.25 U0.75
N11345 G0 X73.702 Y92.226
N11350 ; DEPOSITION ON
N11355 G180 D0.25 U0.75
N11360 G1 X44.479 Y57.401 F508
N11365 X41.918 Y59.55
N11370 X71.14 Y94.376
N11375 ; DEPOSITION OFF
N11380 G181 D0.25 U0.75
N11385 G0 X215.288 Y266.165
N11390 ; DEPOSITION ON
N11395 G180 D0.25 U0.75
N11400 G1 X235.358 Y290.083 F508
N11405 X232.796 Y292.233
N11410 X39.356 Y61.7
N11415 X36.794 Y63.849
N11420 X230.235 Y294.382
N11425 X227.673 Y296.532
N11430 X34.233 Y65.999
N11435 X31.671 Y68.148
N11440 X225.111 Y298.681
N11445 X222.549 Y300.831
N11450 X29.109 Y70.298
N11455 X26.548 Y72.447
N11460 X55.77 Y107.273
N11465 X53.208 Y109.422
N11470 X23.986 Y74.597
N11475 ; DEPOSITION OFF
N11480 G181 D0.25 U0.75
N11485 G0 X90.462 Y18.817
N11490 ; DEPOSITION ON
N11495 G180 D0.25 U0.75
N11500 G1 X119.684 Y53.643 F508
N11505 G181 D0.25 U0.75
N11510 V.P.layer_num = 17
N11515 P12011=0
N11520 #PCALL decking.nc P1 = V.P.layer_num
N11525 P12012= 17
N11530 P12011=1
N11535 ; LAYER 17  END
N11540 ; DEPOSITION OFF
N11545 G181 D0.25 U0.75
N11550 G0 Z36
N11555 X73.985 Y31.514
N11560 ; LAYER 18 START
N11565 ; DEPOSITION ON
N11570 G180 D0.25 U0.75
N11575 G1 X103.763 Y67.002 F508
N11580 ; DEPOSITION OFF
N11585 G181 D0.25 U0.75
N11590 G0 X265.596 Y265.089
N11595 ; DEPOSITION ON
N11600 G180 D0.25 U0.75
N11605 G1 X71.414 Y33.671 F508
N11610 X68.843 Y35.829
N11615 X263.025 Y267.246
N11620 X260.453 Y269.404
N11625 X66.271 Y37.986
N11630 X63.7 Y40.144
N11635 X93.478 Y75.632
N11640 ; DEPOSITION OFF
N11645 G181 D0.25 U0.75
N11650 G0 X237.627 Y247.421
N11655 ; DEPOSITION ON
N11660 G180 D0.25 U0.75
N11665 G1 X257.882 Y271.561 F508
N11670 X255.311 Y273.718
N11675 X235.055 Y249.579
N11680 ; DEPOSITION OFF
N11685 G181 D0.25 U0.75
N11690 G0 X90.907 Y77.789
N11695 ; DEPOSITION ON
N11700 G180 D0.25 U0.75
N11705 G1 X61.129 Y42.301 F508
N11710 X58.558 Y44.459
N11715 X88.336 Y79.947
N11720 ; DEPOSITION OFF
N11725 G181 D0.25 U0.75
N11730 G0 X232.484 Y251.736
N11735 ; DEPOSITION ON
N11740 G180 D0.25 U0.75
N11745 G1 X252.74 Y275.876 F508
N11750 X250.169 Y278.033
N11755 X229.913 Y253.894
N11760 ; DEPOSITION OFF
N11765 G181 D0.25 U0.75
N11770 G0 X85.765 Y82.104
N11775 ; DEPOSITION ON
N11780 G180 D0.25 U0.75
N11785 G1 X55.987 Y46.616 F508
N11790 X53.416 Y48.774
N11795 X83.193 Y84.262
N11800 ; DEPOSITION OFF
N11805 G181 D0.25 U0.75
N11810 G0 X227.342 Y256.051
N11815 ; DEPOSITION ON
N11820 G180 D0.25 U0.75
N11825 G1 X247.598 Y280.191 F508
N11830 ; DEPOSITION OFF
N11835 G181 D0.25 U0.75
N11840 G0 X224.771 Y258.209
N11845 ; DEPOSITION ON
N11850 G180 D0.25 U0.75
N11855 G1 X245.026 Y282.348 F508
N11860 X242.455 Y284.506
N11865 X222.2 Y260.366
N11870 X219.628 Y262.523
N11875 X239.884 Y286.663
N11880 X237.313 Y288.821
N11885 X217.057 Y264.681
N11890 ; DEPOSITION OFF
N11895 G181 D0.25 U0.75
N11900 G0 X40.56 Y59.561
N11905 ; DEPOSITION ON
N11910 G180 D0.25 U0.75
N11915 G1 X70.338 Y95.049 F508
N11920 ; DEPOSITION OFF
N11925 G181 D0.25 U0.75
N11930 G0 X214.486 Y266.838
N11935 ; DEPOSITION ON
N11940 G180 D0.25 U0.75
N11945 G1 X234.742 Y290.978 F508
N11950 X232.171 Y293.136
N11955 X37.989 Y61.718
N11960 X35.417 Y63.876
N11965 X229.599 Y295.293
N11970 X227.028 Y297.451
N11975 X32.846 Y66.033
N11980 X30.275 Y68.191
N11985 X224.457 Y299.608
N11990 X221.886 Y301.765
N11995 X27.704 Y70.348
N12000 X25.133 Y72.506
N12005 X54.911 Y107.994
N12010 X52.339 Y110.151
N12015 X22.562 Y74.663
N12020 G181 D0.25 U0.75
N12025 V.P.layer_num = 18
N12030 P12011=0
N12035 #PCALL decking.nc P1 = V.P.layer_num
N12040 P12012= 18
N12045 P12011=1
N12050 ; LAYER 18  END
N12055 ; DEPOSITION OFF
N12060 G181 D0.25 U0.75
N12065 G0 Z38
N12070 X73.888 Y30.466
N12075 ; LAYER 19 START
N12080 ; DEPOSITION ON
N12085 G180 D0.25 U0.75
N12090 G1 X104.222 Y66.617 F508
N12095 ; DEPOSITION OFF
N12100 G181 D0.25 U0.75
N12105 G0 X266.251 Y264.9
N12110 ; DEPOSITION ON
N12115 G180 D0.25 U0.75
N12120 G1 X71.335 Y32.609 F508
N12125 X68.782 Y34.751
N12130 X263.698 Y267.042
N12135 X261.145 Y269.184
N12140 X66.23 Y36.893
N12145 X63.677 Y39.035
N12150 X94.011 Y75.185
N12155 ; DEPOSITION OFF
N12160 G181 D0.25 U0.75
N12165 G0 X238.159 Y246.974
N12170 ; DEPOSITION ON
N12175 G180 D0.25 U0.75
N12180 G1 X258.592 Y271.326 F508
N12185 X256.04 Y273.468
N12190 X235.606 Y249.116
N12195 ; DEPOSITION OFF
N12200 G181 D0.25 U0.75
N12205 G0 X91.458 Y77.327
N12210 ; DEPOSITION ON
N12215 G180 D0.25 U0.75
N12220 G1 X61.124 Y41.177 F508
N12225 X58.571 Y43.319
N12230 X88.905 Y79.469
N12235 ; DEPOSITION OFF
N12240 G181 D0.25 U0.75
N12245 G0 X233.053 Y251.258
N12250 ; DEPOSITION ON
N12255 G180 D0.25 U0.75
N12260 G1 X253.487 Y275.61 F508
N12265 X250.934 Y277.752
N12270 X230.501 Y253.401
N12275 ; DEPOSITION OFF
N12280 G181 D0.25 U0.75
N12285 G0 X86.352 Y81.611
N12290 ; DEPOSITION ON
N12295 G180 D0.25 U0.75
N12300 G1 X56.018 Y45.461 F508
N12305 X53.466 Y47.603
N12310 X83.799 Y83.753
N12315 ; DEPOSITION OFF
N12320 G181 D0.25 U0.75
N12325 G0 X227.948 Y255.543
N12330 ; DEPOSITION ON
N12335 G180 D0.25 U0.75
N12340 G1 X248.381 Y279.894 F508
N12345 ; DEPOSITION OFF
N12350 G181 D0.25 U0.75
N12355 G0 X225.395 Y257.685
N12360 ; DEPOSITION ON
N12365 G180 D0.25 U0.75
N12370 G1 X245.829 Y282.036 F508
N12375 X243.276 Y284.178
N12380 X222.842 Y259.827
N12385 X220.29 Y261.969
N12390 X240.723 Y286.32
N12395 X238.17 Y288.462
N12400 X217.737 Y264.111
N12405 X215.184 Y266.253
N12410 X235.617 Y290.604
N12415 X233.065 Y292.746
N12420 X38.149 Y60.455
N12425 X35.596 Y62.597
N12430 X230.512 Y294.888
N12435 X227.959 Y297.03
N12440 X33.044 Y64.739
N12445 X30.491 Y66.881
N12450 X225.406 Y299.172
N12455 X222.854 Y301.314
N12460 X27.938 Y69.023
N12465 X25.385 Y71.165
N12470 X55.719 Y107.315
N12475 X53.166 Y109.457
N12480 X22.832 Y73.307
N12485 G181 D0.25 U0.75
N12490 V.P.layer_num = 19
N12495 P12011=0
N12500 #PCALL decking.nc P1 = V.P.layer_num
N12505 P12012= 19
N12510 P12011=1
N12515 ; LAYER 19  END
N12520 ; DEPOSITION OFF
N12525 G181 D0.25 U0.75
N12530 G0 Z40
N12535 X75.347 Y28.113
N12540 ; LAYER 20 START
N12545 ; DEPOSITION ON
N12550 G180 D0.25 U0.75
N12555 G1 X106.237 Y64.926 F508
N12560 X103.675 Y67.076
N12565 X72.785 Y30.263
N12570 X70.224 Y32.413
N12575 X265.864 Y265.568
N12580 X263.302 Y267.718
N12585 X67.662 Y34.562
N12590 X65.1 Y36.712
N12595 X260.74 Y269.867
N12600 X258.178 Y272.017
N12605 X237.576 Y247.464
N12610 ; DEPOSITION OFF
N12615 G181 D0.25 U0.75
N12620 G0 X93.427 Y75.674
N12625 ; DEPOSITION ON
N12630 G180 D0.25 U0.75
N12635 G1 X62.538 Y38.862 F508
N12640 X59.976 Y41.011
N12645 X90.865 Y77.824
N12650 ; DEPOSITION OFF
N12655 G181 D0.25 U0.75
N12660 G0 X235.014 Y249.614
N12665 ; DEPOSITION ON
N12670 G180 D0.25 U0.75
N12675 G1 X255.617 Y274.167 F508
N12680 X253.055 Y276.317
N12685 X232.452 Y251.763
N12690 ; DEPOSITION OFF
N12695 G181 D0.25 U0.75
N12700 G0 X88.303 Y79.974
N12705 ; DEPOSITION ON
N12710 G180 D0.25 U0.75
N12715 G1 X57.414 Y43.161 F508
N12720 X54.852 Y45.311
N12725 X85.742 Y82.124
N12730 ; DEPOSITION OFF
N12735 G181 D0.25 U0.75
N12740 G0 X229.89 Y253.913
N12745 ; DEPOSITION ON
N12750 G180 D0.25 U0.75
N12755 G1 X250.493 Y278.466 F508
N12760 ; DEPOSITION OFF
N12765 G181 D0.25 U0.75
N12770 G0 X227.328 Y256.063
N12775 ; DEPOSITION ON
N12780 G180 D0.25 U0.75
N12785 G1 X247.931 Y280.616 F508
N12790 X245.369 Y282.766
N12795 X224.766 Y258.212
N12800 X222.204 Y260.362
N12805 X242.807 Y284.915
N12810 X240.245 Y287.065
N12815 X219.642 Y262.512
N12820 X217.08 Y264.662
N12825 X237.683 Y289.215
N12830 X235.121 Y291.365
N12835 X214.518 Y266.811
N12840 ; DEPOSITION OFF
N12845 G181 D0.25 U0.75
N12850 G0 X36.918 Y60.359
N12855 ; DEPOSITION ON
N12860 G180 D0.25 U0.75
N12865 G1 X232.559 Y293.514 F508
N12870 X229.997 Y295.664
N12875 X34.357 Y62.508
N12880 X31.795 Y64.658
N12885 X227.435 Y297.814
N12890 X224.873 Y299.963
N12895 X29.233 Y66.808
N12900 X26.671 Y68.958
N12905 X222.312 Y302.113
N12910 ; DEPOSITION OFF
N12915 G181 D0.25 U0.75
N12920 G0 X54.998 Y107.92
N12925 ; DEPOSITION ON
N12930 G180 D0.25 U0.75
N12935 G1 X24.109 Y71.107 F508
N12940 X21.547 Y73.257
N12945 X52.436 Y110.07
N12950 G181 D0.25 U0.75
N12955 V.P.layer_num = 20
N12960 P12011=0
N12965 #PCALL decking.nc P1 = V.P.layer_num
N12970 P12012= 20
N12975 P12011=1
N12980 ; LAYER 20  END
N12985 ; DEPOSITION OFF
N12990 G181 D0.25 U0.75
N12995 G0 Z42
N13000 X75.529 Y26.832
N13005 ; LAYER 21 START
N13010 ; DEPOSITION ON
N13015 G180 D0.25 U0.75
N13020 G1 X106.975 Y64.307 F508
N13025 X104.404 Y66.464
N13030 X72.958 Y28.989
N13035 X70.387 Y31.146
N13040 X266.745 Y265.156
N13045 X264.174 Y267.313
N13050 X67.816 Y33.304
N13055 X65.245 Y35.461
N13060 X261.603 Y269.471
N13065 X259.032 Y271.628
N13070 X238.268 Y246.883
N13075 ; DEPOSITION OFF
N13080 G181 D0.25 U0.75
N13085 G0 X94.12 Y75.093
N13090 ; DEPOSITION ON
N13095 G180 D0.25 U0.75
N13100 G1 X62.674 Y37.618 F508
N13105 X60.103 Y39.775
N13110 X91.549 Y77.251
N13115 ; DEPOSITION OFF
N13120 G181 D0.25 U0.75
N13125 G0 X235.697 Y249.04
N13130 ; DEPOSITION ON
N13135 G180 D0.25 U0.75
N13140 G1 X256.461 Y273.785 F508
N13145 X253.89 Y275.943
N13150 X233.126 Y251.197
N13155 ; DEPOSITION OFF
N13160 G181 D0.25 U0.75
N13165 G0 X88.978 Y79.408
N13170 ; DEPOSITION ON
N13175 G180 D0.25 U0.75
N13180 G1 X57.533 Y41.933 F508
N13185 X54.962 Y44.09
N13190 X86.407 Y81.565
N13195 ; DEPOSITION OFF
N13200 G181 D0.25 U0.75
N13205 G0 X230.555 Y253.355
N13210 ; DEPOSITION ON
N13215 G180 D0.25 U0.75
N13220 G1 X251.319 Y278.1 F508
N13225 ; DEPOSITION OFF
N13230 G181 D0.25 U0.75
N13235 G0 X227.984 Y255.512
N13240 ; DEPOSITION ON
N13245 G180 D0.25 U0.75
N13250 G1 X248.748 Y280.257 F508
N13255 X246.177 Y282.414
N13260 X225.413 Y257.669
N13265 X222.842 Y259.827
N13270 X243.606 Y284.572
N13275 X241.035 Y286.729
N13280 X220.271 Y261.984
N13285 X217.701 Y264.141
N13290 X238.464 Y288.886
N13295 X235.893 Y291.044
N13300 X215.13 Y266.298
N13305 ; DEPOSITION OFF
N13310 G181 D0.25 U0.75
N13315 G0 X36.965 Y59.191
N13320 ; DEPOSITION ON
N13325 G180 D0.25 U0.75
N13330 G1 X233.322 Y293.201 F508
N13335 X230.751 Y295.358
N13340 X34.394 Y61.348
N13345 X31.823 Y63.506
N13350 X228.18 Y297.516
N13355 X225.609 Y299.673
N13360 X29.252 Y65.663
N13365 X26.681 Y67.82
N13370 X223.038 Y301.83
N13375 ; DEPOSITION OFF
N13380 G181 D0.25 U0.75
N13385 G0 X55.555 Y107.453
N13390 ; DEPOSITION ON
N13395 G180 D0.25 U0.75
N13400 G1 X24.11 Y69.978 F508
N13405 X21.539 Y72.135
N13410 X52.984 Y109.61
N13415 G181 D0.25 U0.75
N13420 V.P.layer_num = 21
N13425 P12011=0
N13430 #PCALL decking.nc P1 = V.P.layer_num
N13435 P12012= 21
N13440 P12011=1
N13445 ; LAYER 21  END
N13450 ; DEPOSITION OFF
N13455 G181 D0.25 U0.75
N13460 G0 Z44
N13465 X77 Y24.469
N13470 ; LAYER 22 START
N13475 ; DEPOSITION ON
N13480 G180 D0.25 U0.75
N13485 G1 X109.001 Y62.606 F508
N13490 X106.421 Y64.771
N13495 X74.42 Y26.634
N13500 X71.84 Y28.798
N13505 X103.841 Y66.936
N13510 ; DEPOSITION OFF
N13515 G181 D0.25 U0.75
N13520 G0 X266.326 Y265.817
N13525 ; DEPOSITION ON
N13530 G180 D0.25 U0.75
N13535 G1 X69.26 Y30.963 F508
N13540 X66.68 Y33.128
N13545 X263.746 Y267.982
N13550 X261.167 Y270.147
N13555 X64.101 Y35.293
N13560 X61.521 Y37.458
N13565 X93.522 Y75.595
N13570 ; DEPOSITION OFF
N13575 G181 D0.25 U0.75
N13580 G0 X237.67 Y247.385
N13585 ; DEPOSITION ON
N13590 G180 D0.25 U0.75
N13595 G1 X258.587 Y272.312 F508
N13600 X256.007 Y274.476
N13605 X235.09 Y249.549
N13610 ; DEPOSITION OFF
N13615 G181 D0.25 U0.75
N13620 G0 X90.942 Y77.76
N13625 ; DEPOSITION ON
N13630 G180 D0.25 U0.75
N13635 G1 X58.941 Y39.622 F508
N13640 X56.361 Y41.787
N13645 X88.362 Y79.925
N13650 ; DEPOSITION OFF
N13655 G181 D0.25 U0.75
N13660 G0 X232.51 Y251.714
N13665 ; DEPOSITION ON
N13670 G180 D0.25 U0.75
N13675 G1 X253.427 Y276.641 F508
N13680 ; DEPOSITION OFF
N13685 G181 D0.25 U0.75
N13690 G0 X248.267 Y280.971
N13695 ; DEPOSITION ON
N13700 G180 D0.25 U0.75
N13705 G1 X227.351 Y256.044 F508
N13710 ; DEPOSITION OFF
N13715 G181 D0.25 U0.75
N13720 G0 X250.847 Y278.806
N13725 ; DEPOSITION ON
N13730 G180 D0.25 U0.75
N13735 G1 X229.931 Y253.879 F508
N13740 ; DEPOSITION OFF
N13745 G181 D0.25 U0.75
N13750 G0 X85.782 Y82.089
N13755 ; DEPOSITION ON
N13760 G180 D0.25 U0.75
N13765 G1 X53.781 Y43.952 F508
N13770 ; DEPOSITION OFF
N13775 G181 D0.25 U0.75
N13780 G0 X224.771 Y258.209
N13785 ; DEPOSITION ON
N13790 G180 D0.25 U0.75
N13795 G1 X245.687 Y283.136 F508
N13800 X243.107 Y285.3
N13805 X222.191 Y260.373
N13810 X219.611 Y262.538
N13815 X240.527 Y287.465
N13820 X237.947 Y289.63
N13825 X217.031 Y264.703
N13830 X214.451 Y266.868
N13835 X235.367 Y291.795
N13840 X232.787 Y293.96
N13845 X35.722 Y59.106
N13850 X33.142 Y61.27
N13855 X230.208 Y296.124
N13860 X227.628 Y298.289
N13865 X30.562 Y63.435
N13870 X27.982 Y65.6
N13875 X225.048 Y300.454
N13880 X222.468 Y302.619
N13885 X25.402 Y67.765
N13890 X22.822 Y69.93
N13895 X54.823 Y108.067
N13900 X52.243 Y110.232
N13905 X20.242 Y72.094
N13910 G181 D0.25 U0.75
N13915 V.P.layer_num = 22
N13920 P12011=0
N13925 #PCALL decking.nc P1 = V.P.layer_num
N13930 P12012= 22
N13935 P12011=1
N13940 ; LAYER 22  END
N13945 ; DEPOSITION OFF
N13950 G181 D0.25 U0.75
N13955 G0 Z46
N13960 X76.881 Y23.44
N13965 ; LAYER 23 START
N13970 ; DEPOSITION ON
N13975 G180 D0.25 U0.75
N13980 G1 X109.438 Y62.24 F508
N13985 X106.877 Y64.389
N13990 X74.32 Y25.589
N13995 X71.759 Y27.738
N14000 X104.316 Y66.538
N14005 ; DEPOSITION OFF
N14010 G181 D0.25 U0.75
N14015 G0 X266.964 Y265.575
N14020 ; DEPOSITION ON
N14025 G180 D0.25 U0.75
N14030 G1 X69.198 Y29.887 F508
N14035 X66.637 Y32.036
N14040 X264.403 Y267.724
N14045 X261.841 Y269.874
N14050 X64.075 Y34.185
N14055 X61.514 Y36.334
N14060 X94.071 Y75.134
N14065 ; DEPOSITION OFF
N14070 G181 D0.25 U0.75
N14075 G0 X238.22 Y246.924
N14080 ; DEPOSITION ON
N14085 G180 D0.25 U0.75
N14090 G1 X259.28 Y272.023 F508
N14095 X256.719 Y274.172
N14100 X235.658 Y249.073
N14105 ; DEPOSITION OFF
N14110 G181 D0.25 U0.75
N14115 G0 X91.51 Y77.283
N14120 ; DEPOSITION ON
N14125 G180 D0.25 U0.75
N14130 G1 X58.953 Y38.483 F508
N14135 X56.392 Y40.632
N14140 X88.949 Y79.432
N14145 ; DEPOSITION OFF
N14150 G181 D0.25 U0.75
N14155 G0 X233.097 Y251.222
N14160 ; DEPOSITION ON
N14165 G180 D0.25 U0.75
N14170 G1 X254.158 Y276.321 F508
N14175 X249.035 Y280.619
N14180 X227.975 Y255.52
N14185 ; DEPOSITION OFF
N14190 G181 D0.25 U0.75
N14195 G0 X251.596 Y278.47
N14200 ; DEPOSITION ON
N14205 G180 D0.25 U0.75
N14210 G1 X230.536 Y253.371 F508
N14215 ; DEPOSITION OFF
N14220 G181 D0.25 U0.75
N14225 G0 X86.387 Y81.581
N14230 ; DEPOSITION ON
N14235 G180 D0.25 U0.75
N14240 G1 X53.83 Y42.782 F508
N14245 ; DEPOSITION OFF
N14250 G181 D0.25 U0.75
N14255 G0 X225.414 Y257.669
N14260 ; DEPOSITION ON
N14265 G180 D0.25 U0.75
N14270 G1 X246.474 Y282.768 F508
N14275 X243.913 Y284.917
N14280 X222.852 Y259.818
N14285 X220.291 Y261.967
N14290 X241.352 Y287.066
N14295 X238.79 Y289.215
N14300 X217.73 Y264.116
N14305 X215.169 Y266.266
N14310 X236.229 Y291.365
N14315 X233.668 Y293.514
N14320 X35.902 Y57.825
N14325 X33.341 Y59.974
N14330 X231.107 Y295.663
N14335 X228.546 Y297.812
N14340 X30.78 Y62.124
N14345 X28.218 Y64.273
N14350 X225.984 Y299.961
N14355 X223.423 Y302.11
N14360 X25.657 Y66.422
N14365 X23.096 Y68.571
N14370 X55.653 Y107.371
N14375 X53.092 Y109.52
N14380 X20.535 Y70.72
N14385 G181 D0.25 U0.75
N14390 V.P.layer_num = 23
N14395 P12011=0
N14400 #PCALL decking.nc P1 = V.P.layer_num
N14405 P12012= 23
N14410 P12011=1
N14415 ; LAYER 23  END
N14420 ; DEPOSITION OFF
N14425 G181 D0.25 U0.75
N14430 G0 Z48
N14435 X78.348 Y21.08
N14440 ; LAYER 24 START
N14445 ; DEPOSITION ON
N14450 G180 D0.25 U0.75
N14455 G1 X111.461 Y60.542 F508
N14460 X108.891 Y62.699
N14465 X75.778 Y23.236
N14470 X73.209 Y25.393
N14475 X106.321 Y64.855
N14480 X103.752 Y67.011
N14485 X70.639 Y27.549
N14490 X68.069 Y29.705
N14495 X266.527 Y266.218
N14500 X263.957 Y268.375
N14505 X65.499 Y31.862
N14510 X62.929 Y34.018
N14515 X261.387 Y270.531
N14520 X258.817 Y272.687
N14525 X237.621 Y247.426
N14530 ; DEPOSITION OFF
N14535 G181 D0.25 U0.75
N14540 G0 X93.472 Y75.637
N14545 ; DEPOSITION ON
N14550 G180 D0.25 U0.75
N14555 G1 X60.359 Y36.174 F508
N14560 X57.79 Y38.331
N14565 X90.902 Y77.793
N14570 ; DEPOSITION OFF
N14575 G181 D0.25 U0.75
N14580 G0 X235.051 Y249.583
N14585 ; DEPOSITION ON
N14590 G180 D0.25 U0.75
N14595 G1 X256.247 Y274.844 F508
N14600 X253.677 Y277
N14605 X232.481 Y251.739
N14610 ; DEPOSITION OFF
N14615 G181 D0.25 U0.75
N14620 G0 X88.332 Y79.949
N14625 ; DEPOSITION ON
N14630 G180 D0.25 U0.75
N14635 G1 X55.22 Y40.487 F508
N14640 X52.65 Y42.644
N14645 X85.763 Y82.106
N14650 ; DEPOSITION OFF
N14655 G181 D0.25 U0.75
N14660 G0 X229.911 Y253.895
N14665 ; DEPOSITION ON
N14670 G180 D0.25 U0.75
N14675 G1 X251.108 Y279.156 F508
N14680 ; DEPOSITION OFF
N14685 G181 D0.25 U0.75
N14690 G0 X227.341 Y256.052
N14695 ; DEPOSITION ON
N14700 G180 D0.25 U0.75
N14705 G1 X248.538 Y281.313 F508
N14710 X245.968 Y283.469
N14715 X224.771 Y258.208
N14720 X222.202 Y260.364
N14725 X243.398 Y285.625
N14730 X240.828 Y287.782
N14735 X219.632 Y262.521
N14740 X217.062 Y264.677
N14745 X238.258 Y289.938
N14750 X235.689 Y292.094
N14755 X214.492 Y266.833
N14760 ; DEPOSITION OFF
N14765 G181 D0.25 U0.75
N14770 G0 X70.344 Y95.044
N14775 ; DEPOSITION ON
N14780 G180 D0.25 U0.75
N14785 G1 X37.231 Y55.582 F508
N14790 X34.661 Y57.738
N14795 X233.119 Y294.251
N14800 X230.549 Y296.407
N14805 X32.091 Y59.894
N14810 X29.521 Y62.051
N14815 X227.979 Y298.563
N14820 X225.409 Y300.72
N14825 X26.951 Y64.207
N14830 X24.382 Y66.363
N14835 X222.839 Y302.876
N14840 ; DEPOSITION OFF
N14845 G181 D0.25 U0.75
N14850 G0 X54.924 Y107.982
N14855 ; DEPOSITION ON
N14860 G180 D0.25 U0.75
N14865 G1 X21.812 Y68.52 F508
N14870 X19.242 Y70.676
N14875 X52.355 Y110.138
N14880 G181 D0.25 U0.75
N14885 V.P.layer_num = 24
N14890 P12011=0
N14895 #PCALL decking.nc P1 = V.P.layer_num
N14900 P12012= 24
N14905 P12011=1
N14910 ; LAYER 24  END
N14915 ; DEPOSITION OFF
N14920 G181 D0.25 U0.75
N14925 G0 Z50
N14930 X78.533 Y19.796
N14935 ; LAYER 25 START
N14940 ; DEPOSITION ON
N14945 G180 D0.25 U0.75
N14950 G1 X112.202 Y59.921 F508
N14955 X109.624 Y62.084
N14960 X75.955 Y21.959
N14965 X73.377 Y24.123
N14970 X107.045 Y64.248
N14975 X104.467 Y66.411
N14980 X70.798 Y26.286
N14985 X68.22 Y28.45
N14990 X267.361 Y265.777
N14995 X264.783 Y267.941
N15000 X65.641 Y30.613
N15005 X63.063 Y32.777
N15010 X262.204 Y270.104
N15015 X259.626 Y272.268
N15020 X238.302 Y246.855
N15025 ; DEPOSITION OFF
N15030 G181 D0.25 U0.75
N15035 G0 X94.153 Y75.065
N15040 ; DEPOSITION ON
N15045 G180 D0.25 U0.75
N15050 G1 X60.485 Y34.94 F508
N15055 X57.906 Y37.104
N15060 X91.575 Y77.229
N15065 ; DEPOSITION OFF
N15070 G181 D0.25 U0.75
N15075 G0 X235.723 Y249.018
N15080 ; DEPOSITION ON
N15085 G180 D0.25 U0.75
N15090 G1 X257.048 Y274.431 F508
N15095 X254.469 Y276.595
N15100 X233.145 Y251.182
N15105 ; DEPOSITION OFF
N15110 G181 D0.25 U0.75
N15115 G0 X88.997 Y79.392
N15120 ; DEPOSITION ON
N15125 G180 D0.25 U0.75
N15130 G1 X55.328 Y39.268 F508
N15135 X52.75 Y41.431
N15140 X86.418 Y81.556
N15145 ; DEPOSITION OFF
N15150 G181 D0.25 U0.75
N15155 G0 X230.567 Y253.345
N15160 ; DEPOSITION ON
N15165 G180 D0.25 U0.75
N15170 G1 X251.891 Y278.758 F508
N15175 ; DEPOSITION OFF
N15180 G181 D0.25 U0.75
N15185 G0 X246.734 Y283.085
N15190 ; DEPOSITION ON
N15195 G180 D0.25 U0.75
N15200 G1 X225.41 Y257.672 F508
N15205 ; DEPOSITION OFF
N15210 G181 D0.25 U0.75
N15215 G0 X249.312 Y280.922
N15220 ; DEPOSITION ON
N15225 G180 D0.25 U0.75
N15230 G1 X227.988 Y255.509 F508
N15235 ; DEPOSITION OFF
N15240 G181 D0.25 U0.75
N15245 G0 X83.84 Y83.719
N15250 ; DEPOSITION ON
N15255 G180 D0.25 U0.75
N15260 G1 X50.171 Y43.595 F508
N15265 ; DEPOSITION OFF
N15270 G181 D0.25 U0.75
N15275 G0 X222.832 Y259.836
N15280 ; DEPOSITION ON
N15285 G180 D0.25 U0.75
N15290 G1 X244.156 Y285.249 F508
N15295 X241.577 Y287.412
N15300 X220.253 Y261.999
N15305 X217.675 Y264.163
N15310 X238.999 Y289.576
N15315 X236.421 Y291.739
N15320 X215.096 Y266.326
N15325 ; DEPOSITION OFF
N15330 G181 D0.25 U0.75
N15335 G0 X70.948 Y94.537
N15340 ; DEPOSITION ON
N15345 G180 D0.25 U0.75
N15350 G1 X37.279 Y54.412 F508
N15355 X34.701 Y56.576
N15360 X233.842 Y293.903
N15365 X231.264 Y296.066
N15370 X32.123 Y58.739
N15375 X29.544 Y60.903
N15380 X228.685 Y298.23
N15385 X226.107 Y300.393
N15390 X26.966 Y63.066
N15395 X24.387 Y65.23
N15400 X223.529 Y302.557
N15405 ; DEPOSITION OFF
N15410 G181 D0.25 U0.75
N15415 G0 X55.478 Y107.518
N15420 ; DEPOSITION ON
N15425 G180 D0.25 U0.75
N15430 G1 X21.809 Y67.393 F508
N15435 X19.231 Y69.557
N15440 X52.899 Y109.681
N15445 G181 D0.25 U0.75
N15450 V.P.layer_num = 25
N15455 P12011=0
N15460 #PCALL decking.nc P1 = V.P.layer_num
N15465 P12012= 25
N15470 P12011=1
N15475 ; LAYER 25  END
N15480 ; DEPOSITION OFF
N15485 G181 D0.25 U0.75
N15490 G0 Z52
N15495 X79.684 Y17.702
N15500 ; LAYER 26 START
N15505 ; DEPOSITION ON
N15510 G180 D0.25 U0.75
N15515 G1 X113.908 Y58.489 F508
N15520 X111.349 Y60.636
N15525 X77.124 Y19.849
N15530 X74.565 Y21.997
N15535 X108.789 Y62.784
N15540 X106.23 Y64.932
N15545 X72.005 Y24.145
N15550 X69.446 Y26.293
N15555 X103.67 Y67.08
N15560 ; DEPOSITION OFF
N15565 G181 D0.25 U0.75
N15570 G0 X266.702 Y266.572
N15575 ; DEPOSITION ON
N15580 G180 D0.25 U0.75
N15585 G1 X66.886 Y28.44 F508
N15590 X64.326 Y30.588
N15595 X264.143 Y268.72
N15600 X261.583 Y270.868
N15605 X61.767 Y32.736
N15610 X59.207 Y34.884
N15615 X93.432 Y75.671
N15620 ; DEPOSITION OFF
N15625 G181 D0.25 U0.75
N15630 G0 X237.58 Y247.46
N15635 ; DEPOSITION ON
N15640 G180 D0.25 U0.75
N15645 G1 X259.024 Y273.016 F508
N15650 X256.464 Y275.163
N15655 X235.021 Y249.608
N15660 ; DEPOSITION OFF
N15665 G181 D0.25 U0.75
N15670 G0 X90.872 Y77.818
N15675 ; DEPOSITION ON
N15680 G180 D0.25 U0.75
N15685 G1 X56.648 Y37.031 F508
N15690 X54.088 Y39.179
N15695 X88.313 Y79.966
N15700 ; DEPOSITION OFF
N15705 G181 D0.25 U0.75
N15710 G0 X232.461 Y251.756
N15715 ; DEPOSITION ON
N15720 G180 D0.25 U0.75
N15725 G1 X253.905 Y277.311 F508
N15730 X251.345 Y279.459
N15735 X229.901 Y253.903
N15740 ; DEPOSITION OFF
N15745 G181 D0.25 U0.75
N15750 G0 X85.753 Y82.114
N15755 ; DEPOSITION ON
N15760 G180 D0.25 U0.75
N15765 G1 X51.529 Y41.327 F508
N15770 X48.969 Y43.475
N15775 X83.193 Y84.262
N15780 ; DEPOSITION OFF
N15785 G181 D0.25 U0.75
N15790 G0 X227.342 Y256.051
N15795 ; DEPOSITION ON
N15800 G180 D0.25 U0.75
N15805 G1 X248.785 Y281.606 F508
N15810 ; DEPOSITION OFF
N15815 G181 D0.25 U0.75
N15820 G0 X224.782 Y258.199
N15825 ; DEPOSITION ON
N15830 G180 D0.25 U0.75
N15835 G1 X246.226 Y283.754 F508
N15840 X243.666 Y285.902
N15845 X222.223 Y260.347
N15850 X219.663 Y262.494
N15855 X241.107 Y288.05
N15860 X238.547 Y290.197
N15865 X217.104 Y264.642
N15870 ; DEPOSITION OFF
N15875 G181 D0.25 U0.75
N15880 G0 X36.171 Y54.213
N15885 ; DEPOSITION ON
N15890 G180 D0.25 U0.75
N15895 G1 X70.396 Y95 F508
N15900 ; DEPOSITION OFF
N15905 G181 D0.25 U0.75
N15910 G0 X214.544 Y266.79
N15915 ; DEPOSITION ON
N15920 G180 D0.25 U0.75
N15925 G1 X235.988 Y292.345 F508
N15930 X233.428 Y294.493
N15935 X33.612 Y56.361
N15940 X31.052 Y58.509
N15945 X230.868 Y296.641
N15950 X228.309 Y298.788
N15955 X28.492 Y60.656
N15960 X25.933 Y62.804
N15965 X225.749 Y300.936
N15970 X223.19 Y303.084
N15975 X23.373 Y64.952
N15980 X20.814 Y67.1
N15985 X55.038 Y107.887
N15990 X52.479 Y110.035
N15995 X18.254 Y69.247
N16000 G181 D0.25 U0.75
N16005 V.P.layer_num = 26
N16010 P12011=0
N16015 #PCALL decking.nc P1 = V.P.layer_num
N16020 P12012= 26
N16025 P12011=1
N16030 ; LAYER 26  END
N16035 ; DEPOSITION OFF
N16040 G181 D0.25 U0.75
N16045 G0 Z54
N16050 X79.87 Y16.417
N16055 ; LAYER 27 START
N16060 ; DEPOSITION ON
N16065 G180 D0.25 U0.75
N16070 G1 X114.65 Y57.866 F508
N16075 X112.082 Y60.021
N16080 X77.302 Y18.572
N16085 X74.734 Y20.726
N16090 X109.514 Y62.176
N16095 X106.947 Y64.33
N16100 X72.166 Y22.881
N16105 X69.599 Y25.036
N16110 X104.379 Y66.485
N16115 ; DEPOSITION OFF
N16120 G181 D0.25 U0.75
N16125 G0 X267.514 Y266.117
N16130 ; DEPOSITION ON
N16135 G180 D0.25 U0.75
N16140 G1 X67.031 Y27.19 F508
N16145 X64.463 Y29.345
N16150 X264.946 Y268.272
N16155 X262.378 Y270.426
N16160 X61.895 Y31.5
N16165 X59.327 Y33.654
N16170 X94.107 Y75.104
N16175 ; DEPOSITION OFF
N16180 G181 D0.25 U0.75
N16185 G0 X238.256 Y246.893
N16190 ; DEPOSITION ON
N16195 G180 D0.25 U0.75
N16200 G1 X259.811 Y272.581 F508
N16205 X257.243 Y274.736
N16210 X235.688 Y249.048
N16215 ; DEPOSITION OFF
N16220 G181 D0.25 U0.75
N16225 G0 X91.54 Y77.258
N16230 ; DEPOSITION ON
N16235 G180 D0.25 U0.75
N16240 G1 X56.759 Y35.809 F508
N16245 X54.192 Y37.963
N16250 X88.972 Y79.413
N16255 ; DEPOSITION OFF
N16260 G181 D0.25 U0.75
N16265 G0 X233.12 Y251.202
N16270 ; DEPOSITION ON
N16275 G180 D0.25 U0.75
N16280 G1 X254.675 Y276.89 F508
N16285 X252.107 Y279.045
N16290 X230.553 Y253.357
N16295 ; DEPOSITION OFF
N16300 G181 D0.25 U0.75
N16305 G0 X86.404 Y81.568
N16310 ; DEPOSITION ON
N16315 G180 D0.25 U0.75
N16320 G1 X51.624 Y40.118 F508
N16325 X49.056 Y42.273
N16330 X83.836 Y83.722
N16335 ; DEPOSITION OFF
N16340 G181 D0.25 U0.75
N16345 G0 X227.985 Y255.512
N16350 ; DEPOSITION ON
N16355 G180 D0.25 U0.75
N16360 G1 X249.539 Y281.2 F508
N16365 ; DEPOSITION OFF
N16370 G181 D0.25 U0.75
N16375 G0 X244.404 Y285.509
N16380 ; DEPOSITION ON
N16385 G180 D0.25 U0.75
N16390 G1 X222.849 Y259.821 F508
N16395 ; DEPOSITION OFF
N16400 G181 D0.25 U0.75
N16405 G0 X246.972 Y283.354
N16410 ; DEPOSITION ON
N16415 G180 D0.25 U0.75
N16420 G1 X225.417 Y257.666 F508
N16425 ; DEPOSITION OFF
N16430 G181 D0.25 U0.75
N16435 G0 X81.268 Y85.877
N16440 ; DEPOSITION ON
N16445 G180 D0.25 U0.75
N16450 G1 X46.488 Y44.427 F508
N16455 ; DEPOSITION OFF
N16460 G181 D0.25 U0.75
N16465 G0 X220.281 Y261.976
N16470 ; DEPOSITION ON
N16475 G180 D0.25 U0.75
N16480 G1 X241.836 Y287.664 F508
N16485 X239.268 Y289.818
N16490 X217.713 Y264.13
N16495 ; DEPOSITION OFF
N16500 G181 D0.25 U0.75
N16505 G0 X36.217 Y53.046
N16510 ; DEPOSITION ON
N16515 G180 D0.25 U0.75
N16520 G1 X70.997 Y94.496 F508
N16525 ; DEPOSITION OFF
N16530 G181 D0.25 U0.75
N16535 G0 X215.146 Y266.285
N16540 ; DEPOSITION ON
N16545 G180 D0.25 U0.75
N16550 G1 X236.7 Y291.973 F508
N16555 X234.132 Y294.127
N16560 X33.649 Y55.201
N16565 X31.081 Y57.355
N16570 X231.565 Y296.282
N16575 X228.997 Y298.437
N16580 X28.513 Y59.51
N16585 X25.946 Y61.665
N16590 X226.429 Y300.591
N16595 X223.861 Y302.746
N16600 X23.378 Y63.819
N16605 X20.81 Y65.974
N16610 X55.59 Y107.423
N16615 X53.022 Y109.578
N16620 X18.242 Y68.129
N16625 G181 D0.25 U0.75
N16630 V.P.layer_num = 27
N16635 P12011=0
N16640 #PCALL decking.nc P1 = V.P.layer_num
N16645 P12012= 27
N16650 P12011=1
N16655 ; LAYER 27  END
N16660 ; DEPOSITION OFF
N16665 G181 D0.25 U0.75
N16670 G0 Z56
N16675 X81.342 Y14.053
N16680 ; LAYER 28 START
N16685 ; DEPOSITION ON
N16690 G180 D0.25 U0.75
N16695 G1 X116.678 Y56.164 F508
N16700 X114.102 Y58.326
N16705 X78.766 Y16.214
N16710 X76.19 Y18.375
N16715 X111.527 Y60.487
N16720 X108.951 Y62.649
N16725 X73.615 Y20.537
N16730 X71.039 Y22.698
N16735 X106.375 Y64.81
N16740 X103.799 Y66.972
N16745 X68.463 Y24.86
N16750 X65.887 Y27.021
N16755 X267.029 Y266.733
N16760 X264.453 Y268.895
N16765 X63.311 Y29.183
N16770 X60.735 Y31.344
N16775 X261.877 Y271.056
N16780 X259.301 Y273.218
N16785 X237.643 Y247.407
N16790 ; DEPOSITION OFF
N16795 G181 D0.25 U0.75
N16800 G0 X93.495 Y75.618
N16805 ; DEPOSITION ON
N16810 G180 D0.25 U0.75
N16815 G1 X58.159 Y33.506 F508
N16820 X55.583 Y35.667
N16825 X90.919 Y77.779
N16830 ; DEPOSITION OFF
N16835 G181 D0.25 U0.75
N16840 G0 X235.067 Y249.569
N16845 ; DEPOSITION ON
N16850 G180 D0.25 U0.75
N16855 G1 X256.725 Y275.379 F508
N16860 X254.149 Y277.541
N16865 X232.491 Y251.73
N16870 ; DEPOSITION OFF
N16875 G181 D0.25 U0.75
N16880 G0 X88.343 Y79.941
N16885 ; DEPOSITION ON
N16890 G180 D0.25 U0.75
N16895 G1 X53.007 Y37.829 F508
N16900 X50.431 Y39.99
N16905 X85.767 Y82.102
N16910 ; DEPOSITION OFF
N16915 G181 D0.25 U0.75
N16920 G0 X229.915 Y253.892
N16925 ; DEPOSITION ON
N16930 G180 D0.25 U0.75
N16935 G1 X251.573 Y279.702 F508
N16940 X248.997 Y281.863
N16945 X227.339 Y256.053
N16950 ; DEPOSITION OFF
N16955 G181 D0.25 U0.75
N16960 G0 X83.191 Y84.264
N16965 ; DEPOSITION ON
N16970 G180 D0.25 U0.75
N16975 G1 X47.855 Y42.152 F508
N16980 X45.279 Y44.313
N16985 X80.615 Y86.425
N16990 ; DEPOSITION OFF
N16995 G181 D0.25 U0.75
N17000 G0 X224.764 Y258.215
N17005 ; DEPOSITION ON
N17010 G180 D0.25 U0.75
N17015 G1 X246.421 Y284.025 F508
N17020 ; DEPOSITION OFF
N17025 G181 D0.25 U0.75
N17030 G0 X222.188 Y260.376
N17035 ; DEPOSITION ON
N17040 G180 D0.25 U0.75
N17045 G1 X243.845 Y286.186 F508
N17050 X241.269 Y288.348
N17055 X219.612 Y262.538
N17060 ; DEPOSITION OFF
N17065 G181 D0.25 U0.75
N17070 G0 X37.551 Y50.798
N17075 ; DEPOSITION ON
N17080 G180 D0.25 U0.75
N17085 G1 X72.887 Y92.91 F508
N17090 ; DEPOSITION OFF
N17095 G181 D0.25 U0.75
N17100 G0 X217.036 Y264.699
N17105 ; DEPOSITION ON
N17110 G180 D0.25 U0.75
N17115 G1 X238.693 Y290.509 F508
N17120 X236.117 Y292.671
N17125 X214.46 Y266.861
N17130 ; DEPOSITION OFF
N17135 G181 D0.25 U0.75
N17140 G0 X70.311 Y95.071
N17145 ; DEPOSITION ON
N17150 G180 D0.25 U0.75
N17155 G1 X34.975 Y52.959 F508
N17160 X32.399 Y55.121
N17165 X233.541 Y294.832
N17170 X230.965 Y296.994
N17175 X29.823 Y57.282
N17180 X27.247 Y59.444
N17185 X228.389 Y299.155
N17190 X225.813 Y301.317
N17195 X24.671 Y61.605
N17200 X22.095 Y63.767
N17205 X223.237 Y303.478
N17210 ; DEPOSITION OFF
N17215 G181 D0.25 U0.75
N17220 G0 X54.856 Y108.04
N17225 ; DEPOSITION ON
N17230 G180 D0.25 U0.75
N17235 G1 X19.52 Y65.928 F508
N17240 X16.944 Y68.09
N17245 X52.28 Y110.201
N17250 G181 D0.25 U0.75
N17255 V.P.layer_num = 28
N17260 P12011=0
N17265 #PCALL decking.nc P1 = V.P.layer_num
N17270 P12012= 28
N17275 P12011=1
N17280 ; LAYER 28  END
N17285 ; DEPOSITION OFF
N17290 G181 D0.25 U0.75
N17295 G0 Z58
N17300 X81.193 Y13.049
N17305 ; LAYER 29 START
N17310 ; DEPOSITION ON
N17315 G180 D0.25 U0.75
N17320 G1 X117.085 Y55.823 F508
N17325 X114.528 Y57.969
N17330 X78.636 Y15.194
N17335 X76.079 Y17.34
N17340 X111.971 Y60.114
N17345 X109.414 Y62.26
N17350 X73.522 Y19.486
N17355 X70.965 Y21.631
N17360 X106.857 Y64.406
N17365 X104.3 Y66.551
N17370 X68.408 Y23.777
N17375 X65.851 Y25.923
N17380 X267.643 Y266.409
N17385 X265.086 Y268.555
N17390 X63.294 Y28.068
N17395 X60.737 Y30.214
N17400 X262.529 Y270.701
N17405 X259.972 Y272.846
N17410 X238.22 Y246.923
N17415 ; DEPOSITION OFF
N17420 G181 D0.25 U0.75
N17425 G0 X94.072 Y75.134
N17430 ; DEPOSITION ON
N17435 G180 D0.25 U0.75
N17440 G1 X58.18 Y32.36 F508
N17445 X55.623 Y34.505
N17450 X91.514 Y77.279
N17455 ; DEPOSITION OFF
N17460 G181 D0.25 U0.75
N17465 G0 X235.663 Y249.069
N17470 ; DEPOSITION ON
N17475 G180 D0.25 U0.75
N17480 G1 X257.415 Y274.992 F508
N17485 X254.858 Y277.138
N17490 X233.106 Y251.215
N17495 ; DEPOSITION OFF
N17500 G181 D0.25 U0.75
N17505 G0 X88.957 Y79.425
N17510 ; DEPOSITION ON
N17515 G180 D0.25 U0.75
N17520 G1 X53.066 Y36.651 F508
N17525 X50.508 Y38.796
N17530 X86.4 Y81.571
N17535 ; DEPOSITION OFF
N17540 G181 D0.25 U0.75
N17545 G0 X230.549 Y253.36
N17550 ; DEPOSITION ON
N17555 G180 D0.25 U0.75
N17560 G1 X252.301 Y279.283 F508
N17565 X249.744 Y281.429
N17570 X227.992 Y255.506
N17575 ; DEPOSITION OFF
N17580 G181 D0.25 U0.75
N17585 G0 X83.843 Y83.716
N17590 ; DEPOSITION ON
N17595 G180 D0.25 U0.75
N17600 G1 X47.951 Y40.942 F508
N17605 X45.394 Y43.088
N17610 X81.286 Y85.862
N17615 ; DEPOSITION OFF
N17620 G181 D0.25 U0.75
N17625 G0 X225.435 Y257.651
N17630 ; DEPOSITION ON
N17635 G180 D0.25 U0.75
N17640 G1 X247.187 Y283.575 F508
N17645 X242.073 Y287.866
N17650 X220.321 Y261.943
N17655 ; DEPOSITION OFF
N17660 G181 D0.25 U0.75
N17665 G0 X244.63 Y285.72
N17670 ; DEPOSITION ON
N17675 G180 D0.25 U0.75
N17680 G1 X222.878 Y259.797 F508
N17685 ; DEPOSITION OFF
N17690 G181 D0.25 U0.75
N17695 G0 X78.729 Y88.008
N17700 ; DEPOSITION ON
N17705 G180 D0.25 U0.75
N17710 G1 X42.837 Y45.233 F508
N17715 X37.723 Y49.525
N17720 X73.615 Y92.299
N17725 ; DEPOSITION OFF
N17730 G181 D0.25 U0.75
N17735 G0 X217.763 Y264.088
N17740 ; DEPOSITION ON
N17745 G180 D0.25 U0.75
N17750 G1 X239.516 Y290.012 F508
N17755 X236.958 Y292.157
N17760 X215.206 Y266.234
N17765 ; DEPOSITION OFF
N17770 G181 D0.25 U0.75
N17775 G0 X71.058 Y94.445
N17780 ; DEPOSITION ON
N17785 G180 D0.25 U0.75
N17790 G1 X35.166 Y51.67 F508
N17795 X32.609 Y53.816
N17800 X234.401 Y294.303
N17805 X231.844 Y296.448
N17810 X30.052 Y55.962
N17815 X27.495 Y58.107
N17820 X229.287 Y298.594
N17825 X226.73 Y300.74
N17830 X24.938 Y60.253
N17835 X22.381 Y62.399
N17840 X224.173 Y302.885
N17845 ; DEPOSITION OFF
N17850 G181 D0.25 U0.75
N17855 G0 X55.715 Y107.318
N17860 ; DEPOSITION ON
N17865 G180 D0.25 U0.75
N17870 G1 X19.824 Y64.544 F508
N17875 X17.267 Y66.69
N17880 X53.158 Y109.464
N17885 G181 D0.25 U0.75
N17890 V.P.layer_num = 29
N17895 P12011=0
N17900 #PCALL decking.nc P1 = V.P.layer_num
N17905 P12012= 29
N17910 P12011=1
N17915 ; LAYER 29  END
N17920 ; DEPOSITION OFF
N17925 G181 D0.25 U0.75
N17930 G0 Z60
N17935 X82.661 Y10.689
N17940 ; LAYER 30 START
N17945 ; DEPOSITION ON
N17950 G180 D0.25 U0.75
N17955 G1 X119.109 Y54.125 F508
N17960 X116.544 Y56.277
N17965 X80.096 Y12.841
N17970 X77.531 Y14.993
N17975 X113.979 Y58.43
N17980 X111.414 Y60.582
N17985 X74.966 Y17.145
N17990 X72.401 Y19.298
N17995 X108.849 Y62.734
N18000 X106.284 Y64.886
N18005 X69.836 Y21.45
N18010 X67.271 Y23.602
N18015 X103.719 Y67.039
N18020 ; DEPOSITION OFF
N18025 G181 D0.25 U0.75
N18030 G0 X267.141 Y267.006
N18035 ; DEPOSITION ON
N18040 G180 D0.25 U0.75
N18045 G1 X64.706 Y25.754 F508
N18050 X62.142 Y27.906
N18055 X264.576 Y269.159
N18060 X262.011 Y271.311
N18065 X59.577 Y30.059
N18070 X57.012 Y32.211
N18075 X93.459 Y75.647
N18080 ; DEPOSITION OFF
N18085 G181 D0.25 U0.75
N18090 G0 X237.608 Y247.437
N18095 ; DEPOSITION ON
N18100 G180 D0.25 U0.75
N18105 G1 X259.446 Y273.463 F508
N18110 X256.881 Y275.615
N18115 X235.043 Y249.589
N18120 ; DEPOSITION OFF
N18125 G181 D0.25 U0.75
N18130 G0 X90.894 Y77.8
N18135 ; DEPOSITION ON
N18140 G180 D0.25 U0.75
N18145 G1 X54.447 Y34.363 F508
N18150 X51.882 Y36.515
N18155 X88.33 Y79.952
N18160 ; DEPOSITION OFF
N18165 G181 D0.25 U0.75
N18170 G0 X232.478 Y251.741
N18175 ; DEPOSITION ON
N18180 G180 D0.25 U0.75
N18185 G1 X254.316 Y277.767 F508
N18190 X251.752 Y279.92
N18195 X229.913 Y253.894
N18200 ; DEPOSITION OFF
N18205 G181 D0.25 U0.75
N18210 G0 X85.765 Y82.104
N18215 ; DEPOSITION ON
N18220 G180 D0.25 U0.75
N18225 G1 X49.317 Y38.668 F508
N18230 X46.752 Y40.82
N18235 X83.2 Y84.256
N18240 ; DEPOSITION OFF
N18245 G181 D0.25 U0.75
N18250 G0 X227.348 Y256.046
N18255 ; DEPOSITION ON
N18260 G180 D0.25 U0.75
N18265 G1 X249.187 Y282.072 F508
N18270 X246.622 Y284.224
N18275 X224.783 Y258.198
N18280 ; DEPOSITION OFF
N18285 G181 D0.25 U0.75
N18290 G0 X80.635 Y86.409
N18295 ; DEPOSITION ON
N18300 G180 D0.25 U0.75
N18305 G1 X44.187 Y42.972 F508
N18310 X41.622 Y45.124
N18315 X78.07 Y88.561
N18320 ; DEPOSITION OFF
N18325 G181 D0.25 U0.75
N18330 G0 X222.218 Y260.35
N18335 ; DEPOSITION ON
N18340 G180 D0.25 U0.75
N18345 G1 X244.057 Y286.376 F508
N18350 X241.492 Y288.529
N18355 X219.653 Y262.503
N18360 ; DEPOSITION OFF
N18365 G181 D0.25 U0.75
N18370 G0 X75.505 Y90.713
N18375 ; DEPOSITION ON
N18380 G180 D0.25 U0.75
N18385 G1 X39.057 Y47.276 F508
N18390 X36.492 Y49.429
N18395 X72.94 Y92.865
N18400 ; DEPOSITION OFF
N18405 G181 D0.25 U0.75
N18410 G0 X217.088 Y264.655
N18415 ; DEPOSITION ON
N18420 G180 D0.25 U0.75
N18425 G1 X238.927 Y290.681 F508
N18430 X236.362 Y292.833
N18435 X214.523 Y266.807
N18440 ; DEPOSITION OFF
N18445 G181 D0.25 U0.75
N18450 G0 X70.375 Y95.018
N18455 ; DEPOSITION ON
N18460 G180 D0.25 U0.75
N18465 G1 X33.927 Y51.581 F508
N18470 X31.362 Y53.733
N18475 X233.797 Y294.985
N18480 X231.232 Y297.138
N18485 X28.798 Y55.885
N18490 X26.233 Y58.038
N18495 X228.667 Y299.29
N18500 X226.102 Y301.442
N18505 X23.668 Y60.19
N18510 X21.103 Y62.342
N18515 X223.537 Y303.594
N18520 ; DEPOSITION OFF
N18525 G181 D0.25 U0.75
N18530 G0 X54.985 Y107.931
N18535 ; DEPOSITION ON
N18540 G180 D0.25 U0.75
N18545 G1 X18.538 Y64.494 F508
N18550 X15.973 Y66.646
N18555 X52.421 Y110.083
N18560 G181 D0.25 U0.75
N18565 V.P.layer_num = 30
N18570 P12011=0
N18575 #PCALL decking.nc P1 = V.P.layer_num
N18580 P12012= 30
N18585 P12011=1
N18590 ; LAYER 30  END
N18595 ; DEPOSITION OFF
N18600 G181 D0.25 U0.75
N18605 G0 Z62
N18610 X82.476 Y9.715
N18615 ; LAYER 31 START
N18620 ; DEPOSITION ON
N18625 G180 D0.25 U0.75
N18630 G1 X119.48 Y53.814 F508
N18635 X116.907 Y55.973
N18640 X79.903 Y11.874
N18645 X77.331 Y14.032
N18650 X114.334 Y58.131
N18655 X111.762 Y60.29
N18660 X74.758 Y16.191
N18665 X72.185 Y18.35
N18670 X109.189 Y62.449
N18675 X106.616 Y64.608
N18680 X69.613 Y20.509
N18685 X67.04 Y22.667
N18690 X104.044 Y66.766
N18695 ; DEPOSITION OFF
N18700 G181 D0.25 U0.75
N18705 G0 X267.536 Y266.834
N18710 ; DEPOSITION ON
N18715 G180 D0.25 U0.75
N18720 G1 X64.467 Y24.826 F508
N18725 X61.895 Y26.985
N18730 X264.963 Y268.992
N18735 X262.391 Y271.151
N18740 X59.322 Y29.144
N18745 X56.749 Y31.302
N18750 X93.753 Y75.401
N18755 ; DEPOSITION OFF
N18760 G181 D0.25 U0.75
N18765 G0 X237.901 Y247.191
N18770 ; DEPOSITION ON
N18775 G180 D0.25 U0.75
N18780 G1 X259.818 Y273.31 F508
N18785 X257.245 Y275.469
N18790 X235.329 Y249.349
N18795 ; DEPOSITION OFF
N18800 G181 D0.25 U0.75
N18805 G0 X91.18 Y77.56
N18810 ; DEPOSITION ON
N18815 G180 D0.25 U0.75
N18820 G1 X54.177 Y33.461 F508
N18825 X51.604 Y35.62
N18830 X88.607 Y79.719
N18835 ; DEPOSITION OFF
N18840 G181 D0.25 U0.75
N18845 G0 X232.756 Y251.508
N18850 ; DEPOSITION ON
N18855 G180 D0.25 U0.75
N18860 G1 X254.673 Y277.627 F508
N18865 X252.1 Y279.786
N18870 X230.183 Y253.667
N18875 ; DEPOSITION OFF
N18880 G181 D0.25 U0.75
N18885 G0 X86.035 Y81.877
N18890 ; DEPOSITION ON
N18895 G180 D0.25 U0.75
N18900 G1 X49.031 Y37.778 F508
N18905 X46.459 Y39.937
N18910 X83.462 Y84.036
N18915 ; DEPOSITION OFF
N18920 G181 D0.25 U0.75
N18925 G0 X227.611 Y255.826
N18930 ; DEPOSITION ON
N18935 G180 D0.25 U0.75
N18940 G1 X249.527 Y281.945 F508
N18945 X246.955 Y284.104
N18950 X225.038 Y257.984
N18955 ; DEPOSITION OFF
N18960 G181 D0.25 U0.75
N18965 G0 X80.889 Y86.195
N18970 ; DEPOSITION ON
N18975 G180 D0.25 U0.75
N18980 G1 X43.886 Y42.096 F508
N18985 X41.313 Y44.255
N18990 X78.317 Y88.354
N18995 ; DEPOSITION OFF
N19000 G181 D0.25 U0.75
N19005 G0 X222.465 Y260.143
N19010 ; DEPOSITION ON
N19015 G180 D0.25 U0.75
N19020 G1 X244.382 Y286.262 F508
N19025 X241.809 Y288.421
N19030 X219.893 Y262.302
N19035 ; DEPOSITION OFF
N19040 G181 D0.25 U0.75
N19045 G0 X75.744 Y90.512
N19050 ; DEPOSITION ON
N19055 G180 D0.25 U0.75
N19060 G1 X38.741 Y46.413 F508
N19065 X36.168 Y48.572
N19070 X73.171 Y92.671
N19075 ; DEPOSITION OFF
N19080 G181 D0.25 U0.75
N19085 G0 X217.32 Y264.461
N19090 ; DEPOSITION ON
N19095 G180 D0.25 U0.75
N19100 G1 X239.237 Y290.58 F508
N19105 X236.664 Y292.739
N19110 X214.747 Y266.619
N19115 ; DEPOSITION OFF
N19120 G181 D0.25 U0.75
N19125 G0 X70.599 Y94.83
N19130 ; DEPOSITION ON
N19135 G180 D0.25 U0.75
N19140 G1 X33.595 Y50.731 F508
N19145 X31.023 Y52.89
N19150 X234.091 Y294.897
N19155 X231.519 Y297.056
N19160 X28.45 Y55.048
N19165 X25.877 Y57.207
N19170 X228.946 Y299.215
N19175 X226.373 Y301.373
N19180 X23.305 Y59.366
N19185 X20.732 Y61.524
N19190 X223.8 Y303.532
N19195 ; DEPOSITION OFF
N19200 G181 D0.25 U0.75
N19205 G0 X55.163 Y107.782
N19210 ; DEPOSITION ON
N19215 G180 D0.25 U0.75
N19220 G1 X18.159 Y63.683 F508
N19225 X15.587 Y65.842
N19230 X52.59 Y109.941
N19235 G181 D0.25 U0.75
N19240 V.P.layer_num = 31
N19245 P12011=0
N19250 #PCALL decking.nc P1 = V.P.layer_num
N19255 P12012= 31
N19260 P12011=1
N19265 ; LAYER 31  END
N19270 ; DEPOSITION OFF
N19275 G181 D0.25 U0.75
N19280 G0 Z64
N19285 X81.674 Y9.259
N19290 ; LAYER 32 START
N19295 ; DEPOSITION ON
N19300 G180 D0.25 U0.75
N19305 G1 X119.233 Y54.021 F508
N19310 X116.679 Y56.163
N19315 X79.12 Y11.402
N19320 X76.566 Y13.545
N19325 X114.126 Y58.306
N19330 X111.572 Y60.449
N19335 X74.013 Y15.688
N19340 X71.459 Y17.831
N19345 X109.018 Y62.592
N19350 X106.465 Y64.735
N19355 X68.905 Y19.973
N19360 X66.352 Y22.116
N19365 X103.911 Y66.878
N19370 ; DEPOSITION OFF
N19375 G181 D0.25 U0.75
N19380 G0 X267.492 Y267.013
N19385 ; DEPOSITION ON
N19390 G180 D0.25 U0.75
N19395 G1 X63.798 Y24.259 F508
N19400 X61.244 Y26.402
N19405 X264.938 Y269.155
N19410 X262.385 Y271.298
N19415 X58.69 Y28.545
N19420 X56.137 Y30.688
N19425 X93.696 Y75.449
N19430 ; DEPOSITION OFF
N19435 G181 D0.25 U0.75
N19440 G0 X237.844 Y247.238
N19445 ; DEPOSITION ON
N19450 G180 D0.25 U0.75
N19455 G1 X259.831 Y273.441 F508
N19460 X257.277 Y275.584
N19465 X235.291 Y249.381
N19470 ; DEPOSITION OFF
N19475 G181 D0.25 U0.75
N19480 G0 X91.142 Y77.592
N19485 ; DEPOSITION ON
N19490 G180 D0.25 U0.75
N19495 G1 X53.583 Y32.83 F508
N19500 X51.029 Y34.973
N19505 X88.589 Y79.735
N19510 ; DEPOSITION OFF
N19515 G181 D0.25 U0.75
N19520 G0 X232.737 Y251.524
N19525 ; DEPOSITION ON
N19530 G180 D0.25 U0.75
N19535 G1 X254.724 Y277.727 F508
N19540 X252.17 Y279.87
N19545 X230.183 Y253.667
N19550 ; DEPOSITION OFF
N19555 G181 D0.25 U0.75
N19560 G0 X86.035 Y81.877
N19565 ; DEPOSITION ON
N19570 G180 D0.25 U0.75
N19575 G1 X48.476 Y37.116 F508
N19580 X45.922 Y39.259
N19585 X83.481 Y84.02
N19590 ; DEPOSITION OFF
N19595 G181 D0.25 U0.75
N19600 G0 X227.63 Y255.81
N19605 ; DEPOSITION ON
N19610 G180 D0.25 U0.75
N19615 G1 X249.616 Y282.012 F508
N19620 X247.062 Y284.155
N19625 X225.076 Y257.953
N19630 ; DEPOSITION OFF
N19635 G181 D0.25 U0.75
N19640 G0 X80.927 Y86.163
N19645 ; DEPOSITION ON
N19650 G180 D0.25 U0.75
N19655 G1 X43.368 Y41.402 F508
N19660 X40.814 Y43.545
N19665 X78.374 Y88.306
N19670 ; DEPOSITION OFF
N19675 G181 D0.25 U0.75
N19680 G0 X222.522 Y260.095
N19685 ; DEPOSITION ON
N19690 G180 D0.25 U0.75
N19695 G1 X244.509 Y286.298 F508
N19700 X241.955 Y288.441
N19705 X219.968 Y262.238
N19710 ; DEPOSITION OFF
N19715 G181 D0.25 U0.75
N19720 G0 X75.82 Y90.449
N19725 ; DEPOSITION ON
N19730 G180 D0.25 U0.75
N19735 G1 X38.261 Y45.687 F508
N19740 X35.707 Y47.83
N19745 X73.266 Y92.592
N19750 ; DEPOSITION OFF
N19755 G181 D0.25 U0.75
N19760 G0 X217.415 Y264.381
N19765 ; DEPOSITION ON
N19770 G180 D0.25 U0.75
N19775 G1 X239.401 Y290.584 F508
N19780 X236.848 Y292.726
N19785 X214.861 Y266.524
N19790 ; DEPOSITION OFF
N19795 G181 D0.25 U0.75
N19800 G0 X70.712 Y94.734
N19805 ; DEPOSITION ON
N19810 G180 D0.25 U0.75
N19815 G1 X33.153 Y49.973 F508
N19820 X30.599 Y52.116
N19825 X234.294 Y294.869
N19830 X231.74 Y297.012
N19835 X28.046 Y54.259
N19840 X25.492 Y56.401
N19845 X229.186 Y299.155
N19850 X226.633 Y301.298
N19855 X22.938 Y58.544
N19860 X20.385 Y60.687
N19865 X224.079 Y303.441
N19870 ; DEPOSITION OFF
N19875 G181 D0.25 U0.75
N19880 G0 X55.39 Y107.591
N19885 ; DEPOSITION ON
N19890 G180 D0.25 U0.75
N19895 G1 X17.831 Y62.83 F508
N19900 X15.277 Y64.973
N19905 X52.836 Y109.734
N19910 G181 D0.25 U0.75
N19915 V.P.layer_num = 32
N19920 P12011=0
N19925 #PCALL decking.nc P1 = V.P.layer_num
N19930 P12012= 32
N19935 P12011=1
N19940 ; LAYER 32  END
N19945 ; DEPOSITION OFF
N19950 G181 D0.25 U0.75
N19955 G0 Z66
N19960 X81.215 Y8.515
N19965 ; LAYER 33 START
N19970 ; DEPOSITION ON
N19975 G180 D0.25 U0.75
N19980 G1 X119.33 Y53.939 F508
N19985 X116.769 Y56.088
N19990 X78.654 Y10.664
N19995 X76.093 Y12.814
N20000 X114.208 Y58.237
N20005 X111.647 Y60.386
N20010 X73.532 Y14.963
N20015 X70.97 Y17.112
N20020 X109.086 Y62.536
N20025 X106.524 Y64.685
N20030 X68.409 Y19.261
N20035 X65.848 Y21.41
N20040 X103.963 Y66.834
N20045 ; DEPOSITION OFF
N20050 G181 D0.25 U0.75
N20055 G0 X267.599 Y267.048
N20060 ; DEPOSITION ON
N20065 G180 D0.25 U0.75
N20070 G1 X63.287 Y23.559 F508
N20075 X60.726 Y25.708
N20080 X265.038 Y269.198
N20085 X262.476 Y271.347
N20090 X58.164 Y27.857
N20095 X55.603 Y30.006
N20100 X93.718 Y75.43
N20105 ; DEPOSITION OFF
N20110 G181 D0.25 U0.75
N20115 G0 X237.867 Y247.22
N20120 ; DEPOSITION ON
N20125 G180 D0.25 U0.75
N20130 G1 X259.915 Y273.496 F508
N20135 X257.354 Y275.645
N20140 X235.306 Y249.369
N20145 ; DEPOSITION OFF
N20150 G181 D0.25 U0.75
N20155 G0 X91.157 Y77.579
N20160 ; DEPOSITION ON
N20165 G180 D0.25 U0.75
N20170 G1 X53.042 Y32.155 F508
N20175 X50.481 Y34.305
N20180 X88.596 Y79.728
N20185 ; DEPOSITION OFF
N20190 G181 D0.25 U0.75
N20195 G0 X232.744 Y251.518
N20200 ; DEPOSITION ON
N20205 G180 D0.25 U0.75
N20210 G1 X254.793 Y277.794 F508
N20215 X252.232 Y279.943
N20220 X230.183 Y253.667
N20225 ; DEPOSITION OFF
N20230 G181 D0.25 U0.75
N20235 G0 X86.035 Y81.877
N20240 ; DEPOSITION ON
N20245 G180 D0.25 U0.75
N20250 G1 X47.92 Y36.454 F508
N20255 X45.359 Y38.603
N20260 X83.474 Y84.027
N20265 ; DEPOSITION OFF
N20270 G181 D0.25 U0.75
N20275 G0 X227.622 Y255.816
N20280 ; DEPOSITION ON
N20285 G180 D0.25 U0.75
N20290 G1 X249.67 Y282.092 F508
N20295 X247.109 Y284.241
N20300 X225.061 Y257.965
N20305 ; DEPOSITION OFF
N20310 G181 D0.25 U0.75
N20315 G0 X80.912 Y86.176
N20320 ; DEPOSITION ON
N20325 G180 D0.25 U0.75
N20330 G1 X42.797 Y40.752 F508
N20335 X40.236 Y42.901
N20340 X78.351 Y88.325
N20345 ; DEPOSITION OFF
N20350 G181 D0.25 U0.75
N20355 G0 X222.5 Y260.114
N20360 ; DEPOSITION ON
N20365 G180 D0.25 U0.75
N20370 G1 X244.548 Y286.39 F508
N20375 X241.987 Y288.539
N20380 X219.938 Y262.263
N20385 ; DEPOSITION OFF
N20390 G181 D0.25 U0.75
N20395 G0 X75.79 Y90.474
N20400 ; DEPOSITION ON
N20405 G180 D0.25 U0.75
N20410 G1 X37.675 Y45.05 F508
N20415 X35.114 Y47.199
N20420 X73.229 Y92.623
N20425 ; DEPOSITION OFF
N20430 G181 D0.25 U0.75
N20435 G0 X217.377 Y264.412
N20440 ; DEPOSITION ON
N20445 G180 D0.25 U0.75
N20450 G1 X239.426 Y290.689 F508
N20455 X236.864 Y292.838
N20460 X214.816 Y266.561
N20465 ; DEPOSITION OFF
N20470 G181 D0.25 U0.75
N20475 G0 X70.668 Y94.772
N20480 ; DEPOSITION ON
N20485 G180 D0.25 U0.75
N20490 G1 X32.553 Y49.348 F508
N20495 X29.991 Y51.497
N20500 X234.303 Y294.987
N20505 X231.742 Y297.136
N20510 X27.43 Y53.646
N20515 X24.869 Y55.796
N20520 X229.181 Y299.285
N20525 X226.62 Y301.434
N20530 X22.308 Y57.945
N20535 X19.747 Y60.094
N20540 X224.058 Y303.583
N20545 ; DEPOSITION OFF
N20550 G181 D0.25 U0.75
N20555 G0 X55.3 Y107.667
N20560 ; DEPOSITION ON
N20565 G180 D0.25 U0.75
N20570 G1 X17.185 Y62.243 F508
N20575 X14.624 Y64.392
N20580 X52.739 Y109.816
N20585 G181 D0.25 U0.75
N20590 V.P.layer_num = 33
N20595 P12011=0
N20600 #PCALL decking.nc P1 = V.P.layer_num
N20605 P12012= 33
N20610 P12011=1
N20615 ; LAYER 33  END
N20620 ; DEPOSITION OFF
N20625 G181 D0.25 U0.75
N20630 G0 Z68
N20635 X80.755 Y7.773
N20640 ; LAYER 34 START
N20645 ; DEPOSITION ON
N20650 G180 D0.25 U0.75
N20655 G1 X119.426 Y53.859 F508
N20660 X116.858 Y56.014
N20665 X78.187 Y9.928
N20670 X75.618 Y12.083
N20675 X114.289 Y58.169
N20680 X111.72 Y60.325
N20685 X73.05 Y14.238
N20690 X70.481 Y16.394
N20695 X109.152 Y62.48
N20700 X106.583 Y64.635
N20705 X67.912 Y18.549
N20710 X65.344 Y20.704
N20715 X104.015 Y66.79
N20720 ; DEPOSITION OFF
N20725 G181 D0.25 U0.75
