; EDITED

halfofpart 
N10 ; MACHINE 
N15 ; VENDOR AUTODESK 
N20 ; MODEL GENERIC DED 
N25 ; DESCRIPTION GENERIC DIRECT ENERGY DEPOSITION MACHINE WITH EXPORT TO SIMULATION AND POWERMILL 
N30 ; T1 D=0 CR=0 - ZMIN=2 - ELECTRIC ARC WIRE 
N35 #MCS OFF 
N40 #CS OFF 
N45 G71 G80 G90 
N50 G17 G40 
N55 G54 
N60 ; PROCESS ON 
N65 ; PROCESS OFF 
N70 ; PROCESS ON 
N75 ; PROCESS OFF 
N80 G0 G54 
N85 X0 Y0 
#MCS Z0
N95 ; FEATURE CONSTRUCTION4 
N100 T1 M6  
N115 G4 K3 
N120 G0 
N125 G54 
N140 D2 
N145 G0 X270.975 Y93.896 
G0 Z20
N155 G1 Z2 F100
N160 ; LAYER 1 START 
N165 ; DEPOSITION ON 
N170 G180 D0.25 U0.75 
N175 G94 G1 X247.388 Y117.482 F508 
N180 ; DEPOSITION OFF 
N185 G181 D0.25 U0.75 
N190 X245.011 Y115.105 
N195 ; DEPOSITION ON 
N200 G180 D0.25 U0.75 
N205 X268.598 Y91.519 
N210 ; DEPOSITION OFF 
N215 G181 D0.25 U0.75 
N220 X266.22 Y89.142 
N225 ; DEPOSITION ON 
N230 G180 D0.25 U0.75 
N235 X242.634 Y112.728 
N240 ; DEPOSITION OFF 
N245 G181 D0.25 U0.75 
N250 X240.257 Y110.351 
N255 ; DEPOSITION ON 
N260 G180 D0.25 U0.75 
N265 X263.843 Y86.765 
N270 ; DEPOSITION OFF 
N275 G181 D0.25 U0.75 
N280 X261.466 Y84.387 
N285 ; DEPOSITION ON 
N290 G180 D0.25 U0.75 
N295 X237.88 Y107.974 
N300 ; DEPOSITION OFF 
N305 G181 D0.25 U0.75 
N310 X235.503 Y105.597 
N315 ; DEPOSITION ON 
N320 G180 D0.25 U0.75 
N325 X259.089 Y82.01 
N330 ; DEPOSITION OFF 
N335 G181 D0.25 U0.75 
N340 X256.712 Y79.633 
N345 ; DEPOSITION ON 
N350 G180 D0.25 U0.75 
N355 X233.125 Y103.219 
N360 ; DEPOSITION OFF 
N365 G181 D0.25 U0.75 
N370 G0 X52.275 Y279.316 
N375 ; DEPOSITION ON 
N380 G180 D0.25 U0.75 
N385 G1 X254.335 Y77.256 F508 
N390 ; DEPOSITION OFF 
N395 G181 D0.25 U0.75 
N400 X251.957 Y74.879 
N405 ; DEPOSITION ON 
N410 G180 D0.25 U0.75 
N415 X49.897 Y276.939 
N420 ; DEPOSITION OFF 
N425 G181 D0.25 U0.75 
N430 X47.52 Y274.562 
N435 ; DEPOSITION ON 
N440 G180 D0.25 U0.75 
N445 X249.58 Y72.502 
N450 ; DEPOSITION OFF 
N455 G181 D0.25 U0.75 
N460 X247.203 Y70.124 
N465 ; DEPOSITION ON 
N470 G180 D0.25 U0.75 
N475 X223.617 Y93.711 
N480 ; DEPOSITION OFF 
N485 G181 D0.25 U0.75 
N490 G0 X65.044 Y252.283 
N495 ; DEPOSITION ON 
N500 G180 D0.25 U0.75 
N505 G1 X45.143 Y272.184 F508 
N510 ; DEPOSITION OFF 
N515 G181 D0.25 U0.75 
N520 X42.766 Y269.807 
N525 ; DEPOSITION ON 
N530 G180 D0.25 U0.75 
N535 X62.667 Y249.906 
N540 ; DEPOSITION OFF 
N545 G181 D0.25 U0.75 
N550 G0 X221.24 Y91.334 
N555 ; DEPOSITION ON 
N560 G180 D0.25 U0.75 
N565 G1 X244.826 Y67.747 F508 
N570 ; DEPOSITION OFF 
N575 G181 D0.25 U0.75 
N580 X242.449 Y65.37 
N585 ; DEPOSITION ON 
N590 G180 D0.25 U0.75 
N595 X218.862 Y88.956 
N600 ; DEPOSITION OFF 
N605 G181 D0.25 U0.75 
N610 G0 X60.29 Y247.529 
N615 ; DEPOSITION ON 
N620 G180 D0.25 U0.75 
N625 G1 X40.389 Y267.43 F508 
N630 ; DEPOSITION OFF 
N635 G181 D0.25 U0.75 
N640 X38.012 Y265.053 
N645 ; DEPOSITION ON 
N650 G180 D0.25 U0.75 
N655 X57.913 Y245.152 
N660 ; DEPOSITION OFF 
N665 G181 D0.25 U0.75 
N670 G0 X216.485 Y86.579 
N675 ; DEPOSITION ON 
N680 G180 D0.25 U0.75 
N685 G1 X240.072 Y62.993 F508 
N690 ; DEPOSITION OFF 
N695 G181 D0.25 U0.75 
N700 X237.694 Y60.616 
N705 ; DEPOSITION ON 
N710 G180 D0.25 U0.75 
N715 X214.108 Y84.202 
N720 ; DEPOSITION OFF 
N725 G181 D0.25 U0.75 
N730 G0 X55.536 Y242.774 
N735 ; DEPOSITION ON 
N740 G180 D0.25 U0.75 
N745 G1 X35.634 Y262.676 F508 
N750 ; DEPOSITION OFF 
N755 G181 D0.25 U0.75 
N760 X33.257 Y260.299 
N765 ; DEPOSITION ON 
N770 G180 D0.25 U0.75 
N775 X53.159 Y240.397 
N780 ; DEPOSITION OFF 
N785 G181 D0.25 U0.75 
N790 G0 X211.731 Y81.825 
N795 ; DEPOSITION ON 
N800 G180 D0.25 U0.75 
N805 G1 X235.317 Y58.239 F508 
N810 ; DEPOSITION OFF 
N815 G181 D0.25 U0.75 
N820 X232.94 Y55.861 
N825 ; DEPOSITION ON 
N830 G180 D0.25 U0.75 
N835 X209.354 Y79.448 
N840 ; DEPOSITION OFF 
N845 G181 D0.25 U0.75 
N850 G0 X50.781 Y238.02 
N855 ; DEPOSITION ON 
N860 G180 D0.25 U0.75 
N865 G1 X30.88 Y257.921 F508 
N870 ; DEPOSITION OFF 
N875 G181 D0.25 U0.75 
N880 X28.503 Y255.544 
N885 ; DEPOSITION ON 
N890 G180 D0.25 U0.75 
N895 X48.404 Y235.643 
N900 ; DEPOSITION OFF 
N905 G181 D0.25 U0.75 
N910 G0 X206.977 Y77.071 
N915 ; DEPOSITION ON 
N920 G180 D0.25 U0.75 
N925 G1 X230.563 Y53.484 F508 
N930 ; DEPOSITION OFF 
N935 G181 D0.25 U0.75 
N940 X228.186 Y51.107 
N945 ; DEPOSITION ON 
N950 G180 D0.25 U0.75 
N955 X204.599 Y74.693 
N960 ; DEPOSITION OFF 
N965 G181 D0.25 U0.75 
N970 G0 X46.027 Y233.266 
N975 ; DEPOSITION ON 
N980 G180 D0.25 U0.75 
N985 G1 X26.126 Y253.167 F508 
N990 ; DEPOSITION OFF 
N995 G181 D0.25 U0.75 
N1000 X23.748 Y250.79 
N1005 ; DEPOSITION ON 
N1010 G180 D0.25 U0.75 
N1015 X43.65 Y230.889 
N1020 ; DEPOSITION OFF 
N1025 G181 D0.25 U0.75 
N1030 G0 X202.222 Y72.316 
N1035 ; DEPOSITION ON 
N1040 G180 D0.25 U0.75 
N1045 G1 X225.808 Y48.73 F508 
N1050 ; DEPOSITION OFF 
N1055 G181 D0.25 U0.75 
N1060 X223.431 Y46.353 
N1065 ; DEPOSITION ON 
N1070 G180 D0.25 U0.75 
N1075 X21.371 Y248.413 
N1080 ; DEPOSITION OFF 
N1085 G181 D0.25 U0.75 
N1090 X18.994 Y246.036 
N1095 ; DEPOSITION ON 
N1100 G180 D0.25 U0.75 
N1105 X221.054 Y43.976 
N1110 ; DEPOSITION OFF 
N1115 G181 D0.25 U0.75 
N1120 X218.677 Y41.598 
N1125 ; DEPOSITION ON 
N1130 G180 D0.25 U0.75 
N1135 X16.617 Y243.658 
N1140 ; DEPOSITION OFF 
N1145 G181 D0.25 U0.75 
N1150 X14.24 Y241.281 
N1155 ; DEPOSITION ON 
N1160 G180 D0.25 U0.75 
N1165 X216.3 Y39.221 
N1170 ; DEPOSITION OFF 
N1175 G181 D0.25 U0.75 
N1180 X213.923 Y36.844 
N1185 ; DEPOSITION ON 
N1190 G180 D0.25 U0.75 
N1195 X11.863 Y238.904 
N1200 ; DEPOSITION OFF 
N1205 G181 D0.25 U0.75 
N1210 G0 X187.959 Y58.053 
N1215 ; DEPOSITION ON 
N1220 G180 D0.25 U0.75 
N1225 G1 X211.545 Y34.467 F508 
N1230 ; DEPOSITION OFF 
N1235 G181 D0.25 U0.75 
N1240 X209.168 Y32.09 
N1245 ; DEPOSITION ON 
N1250 G180 D0.25 U0.75 
N1255 X185.582 Y55.676 
N1260 G181 D0.25 U0.75 
N1265 V.P.layer_num = 1 
N1270 P12011=0 
N1275 #PCALL decking.nc P1 = V.P.layer_num 
N1280 P12012= 1 
N1285 P12011=1 
N1290 ; LAYER 1 END 
N1295 ; DEPOSITION OFF 
N1300 G181 D0.25 U0.75 
N1305 G0 Z4 
N1310 X270.975 Y93.896 
N1315 ; LAYER 2 START 
N1320 ; DEPOSITION ON 
N1325 G180 D0.25 U0.75 
N1330 G1 X247.388 Y117.482 F508 
N1335 ; DEPOSITION OFF 
N1340 G181 D0.25 U0.75 
N1345 X245.011 Y115.105 
N1350 ; DEPOSITION ON 
N1355 G180 D0.25 U0.75 
N1360 X268.598 Y91.519 
N1365 ; DEPOSITION OFF 
N1370 G181 D0.25 U0.75 
N1375 X266.22 Y89.142 
N1380 ; DEPOSITION ON 
N1385 G180 D0.25 U0.75 
N1390 X242.634 Y112.728 
N1395 ; DEPOSITION OFF 
N1400 G181 D0.25 U0.75 
N1405 X240.257 Y110.351 
N1410 ; DEPOSITION ON 
N1415 G180 D0.25 U0.75 
N1420 X263.843 Y86.765 
N1425 ; DEPOSITION OFF 
N1430 G181 D0.25 U0.75 
N1435 X261.466 Y84.387 
N1440 ; DEPOSITION ON 
N1445 G180 D0.25 U0.75 
N1450 X237.88 Y107.974 
N1455 ; DEPOSITION OFF 
N1460 G181 D0.25 U0.75 
N1465 X235.503 Y105.597 
N1470 ; DEPOSITION ON 
N1475 G180 D0.25 U0.75 
N1480 X259.089 Y82.01 
N1485 ; DEPOSITION OFF 
N1490 G181 D0.25 U0.75 
N1495 X256.712 Y79.633 
N1500 ; DEPOSITION ON 
N1505 G180 D0.25 U0.75 
N1510 X233.125 Y103.219 
N1515 ; DEPOSITION OFF 
N1520 G181 D0.25 U0.75 
N1525 G0 X52.275 Y279.316 
N1530 ; DEPOSITION ON 
N1535 G180 D0.25 U0.75 
N1540 G1 X254.335 Y77.256 F508 
N1545 ; DEPOSITION OFF 
N1550 G181 D0.25 U0.75 
N1555 X251.957 Y74.879 
N1560 ; DEPOSITION ON 
N1565 G180 D0.25 U0.75 
N1570 X49.897 Y276.939 
N1575 ; DEPOSITION OFF 
N1580 G181 D0.25 U0.75 
N1585 X47.52 Y274.562 
N1590 ; DEPOSITION ON 
N1595 G180 D0.25 U0.75 
N1600 X249.58 Y72.502 
N1605 ; DEPOSITION OFF 
N1610 G181 D0.25 U0.75 
N1615 X247.203 Y70.124 
N1620 ; DEPOSITION ON 
N1625 G180 D0.25 U0.75 
N1630 X223.617 Y93.711 
N1635 ; DEPOSITION OFF 
N1640 G181 D0.25 U0.75 
N1645 G0 X65.044 Y252.283 
N1650 ; DEPOSITION ON 
N1655 G180 D0.25 U0.75 
N1660 G1 X45.143 Y272.184 F508 
N1665 ; DEPOSITION OFF 
N1670 G181 D0.25 U0.75 
N1675 X42.766 Y269.807 
N1680 ; DEPOSITION ON 
N1685 G180 D0.25 U0.75 
N1690 X62.667 Y249.906 
N1695 ; DEPOSITION OFF 
N1700 G181 D0.25 U0.75 
N1705 G0 X221.24 Y91.334 
N1710 ; DEPOSITION ON 
N1715 G180 D0.25 U0.75 
N1720 G1 X244.826 Y67.747 F508 
N1725 ; DEPOSITION OFF 
N1730 G181 D0.25 U0.75 
N1735 X242.449 Y65.37 
N1740 ; DEPOSITION ON 
N1745 G180 D0.25 U0.75 
N1750 X218.862 Y88.956 
N1755 ; DEPOSITION OFF 
N1760 G181 D0.25 U0.75 
N1765 G0 X60.29 Y247.529 
N1770 ; DEPOSITION ON 
N1775 G180 D0.25 U0.75 
N1780 G1 X40.389 Y267.43 F508 
N1785 ; DEPOSITION OFF 
N1790 G181 D0.25 U0.75 
N1795 X38.012 Y265.053 
N1800 ; DEPOSITION ON 
N1805 G180 D0.25 U0.75 
N1810 X57.913 Y245.152 
N1815 ; DEPOSITION OFF 
N1820 G181 D0.25 U0.75 
N1825 G0 X216.485 Y86.579 
N1830 ; DEPOSITION ON 
N1835 G180 D0.25 U0.75 
N1840 G1 X240.072 Y62.993 F508 
N1845 ; DEPOSITION OFF 
N1850 G181 D0.25 U0.75 
N1855 X237.694 Y60.616 
N1860 ; DEPOSITION ON 
N1865 G180 D0.25 U0.75 
N1870 X214.108 Y84.202 
N1875 ; DEPOSITION OFF 
N1880 G181 D0.25 U0.75 
N1885 G0 X55.536 Y242.774 
N1890 ; DEPOSITION ON 
N1895 G180 D0.25 U0.75 
N1900 G1 X35.634 Y262.676 F508 
N1905 ; DEPOSITION OFF 
N1910 G181 D0.25 U0.75 
N1915 X33.257 Y260.299 
N1920 ; DEPOSITION ON 
N1925 G180 D0.25 U0.75 
N1930 X53.159 Y240.397 
N1935 ; DEPOSITION OFF 
N1940 G181 D0.25 U0.75 
N1945 G0 X211.731 Y81.825 
N1950 ; DEPOSITION ON 
N1955 G180 D0.25 U0.75 
N1960 G1 X235.317 Y58.239 F508 
N1965 ; DEPOSITION OFF 
N1970 G181 D0.25 U0.75 
N1975 X232.94 Y55.861 
N1980 ; DEPOSITION ON 
N1985 G180 D0.25 U0.75 
N1990 X209.354 Y79.448 
N1995 ; DEPOSITION OFF 
N2000 G181 D0.25 U0.75 
N2005 G0 X50.781 Y238.02 
N2010 ; DEPOSITION ON 
N2015 G180 D0.25 U0.75 
N2020 G1 X30.88 Y257.921 F508 
N2025 ; DEPOSITION OFF 
N2030 G181 D0.25 U0.75 
N2035 X28.503 Y255.544 
N2040 ; DEPOSITION ON 
N2045 G180 D0.25 U0.75 
N2050 X48.404 Y235.643 
N2055 ; DEPOSITION OFF 
N2060 G181 D0.25 U0.75 
N2065 G0 X206.977 Y77.071 
N2070 ; DEPOSITION ON 
N2075 G180 D0.25 U0.75 
N2080 G1 X230.563 Y53.484 F508 
N2085 ; DEPOSITION OFF 
N2090 G181 D0.25 U0.75 
N2095 X228.186 Y51.107 
N2100 ; DEPOSITION ON 
N2105 G180 D0.25 U0.75 
N2110 X204.599 Y74.693 
N2115 ; DEPOSITION OFF 
N2120 G181 D0.25 U0.75 
N2125 G0 X46.027 Y233.266 
N2130 ; DEPOSITION ON 
N2135 G180 D0.25 U0.75 
N2140 G1 X26.126 Y253.167 F508 
N2145 ; DEPOSITION OFF 
N2150 G181 D0.25 U0.75 
N2155 X23.748 Y250.79 
N2160 ; DEPOSITION ON 
N2165 G180 D0.25 U0.75 
N2170 X43.65 Y230.889 
N2175 ; DEPOSITION OFF 
N2180 G181 D0.25 U0.75 
N2185 G0 X202.222 Y72.316 
N2190 ; DEPOSITION ON 
N2195 G180 D0.25 U0.75 
N2200 G1 X225.808 Y48.73 F508 
N2205 ; DEPOSITION OFF 
N2210 G181 D0.25 U0.75 
N2215 X223.431 Y46.353 
N2220 ; DEPOSITION ON 
N2225 G180 D0.25 U0.75 
N2230 X21.371 Y248.413 
N2235 ; DEPOSITION OFF 
N2240 G181 D0.25 U0.75 
N2245 X18.994 Y246.036 
N2250 ; DEPOSITION ON 
N2255 G180 D0.25 U0.75 
N2260 X221.054 Y43.976 
N2265 ; DEPOSITION OFF 
N2270 G181 D0.25 U0.75 
N2275 X218.677 Y41.598 
N2280 ; DEPOSITION ON 
N2285 G180 D0.25 U0.75 
N2290 X16.617 Y243.658 
N2295 ; DEPOSITION OFF 
N2300 G181 D0.25 U0.75 
N2305 X14.24 Y241.281 
N2310 ; DEPOSITION ON 
N2315 G180 D0.25 U0.75 
N2320 X216.3 Y39.221 
N2325 ; DEPOSITION OFF 
N2330 G181 D0.25 U0.75 
N2335 X213.923 Y36.844 
N2340 ; DEPOSITION ON 
N2345 G180 D0.25 U0.75 
N2350 X11.863 Y238.904 
N2355 ; DEPOSITION OFF 
N2360 G181 D0.25 U0.75 
N2365 G0 X187.959 Y58.053 
N2370 ; DEPOSITION ON 
N2375 G180 D0.25 U0.75 
N2380 G1 X211.545 Y34.467 F508 
N2385 ; DEPOSITION OFF 
N2390 G181 D0.25 U0.75 
N2395 X209.168 Y32.09 
N2400 ; DEPOSITION ON 
N2405 G180 D0.25 U0.75 
N2410 X185.582 Y55.676 
N2415 G181 D0.25 U0.75 
N2420 V.P.layer_num = 2 
N2425 P12011=0 
N2430 #PCALL decking.nc P1 = V.P.layer_num 
N2435 P12012= 2 
N2440 P12011=1 
N2445 ; LAYER 2 END 
N2450 ; DEPOSITION OFF 
N2455 G181 D0.25 U0.75 
N2460 G0 Z5.99 
N2465 X270.975 Y93.896 
N2470 ; LAYER 3 START 
N2475 ; DEPOSITION ON 
N2480 G180 D0.25 U0.75 
N2485 G1 X247.388 Y117.482 F508 
N2490 ; DEPOSITION OFF 
N2495 G181 D0.25 U0.75 
N2500 X245.011 Y115.105 
N2505 ; DEPOSITION ON 
N2510 G180 D0.25 U0.75 
N2515 X268.598 Y91.519 
N2520 ; DEPOSITION OFF 
N2525 G181 D0.25 U0.75 
N2530 X266.22 Y89.142 
N2535 ; DEPOSITION ON 
N2540 G180 D0.25 U0.75 
N2545 X242.634 Y112.728 
N2550 ; DEPOSITION OFF 
N2555 G181 D0.25 U0.75 
N2560 X240.257 Y110.351 
N2565 ; DEPOSITION ON 
N2570 G180 D0.25 U0.75 
N2575 X263.843 Y86.765 
N2580 ; DEPOSITION OFF 
N2585 G181 D0.25 U0.75 
N2590 X261.466 Y84.387 
N2595 ; DEPOSITION ON 
N2600 G180 D0.25 U0.75 
N2605 X237.88 Y107.974 
N2610 ; DEPOSITION OFF 
N2615 G181 D0.25 U0.75 
N2620 X235.503 Y105.597 
N2625 ; DEPOSITION ON 
N2630 G180 D0.25 U0.75 
N2635 X259.089 Y82.01 
N2640 ; DEPOSITION OFF 
N2645 G181 D0.25 U0.75 
N2650 X256.712 Y79.633 
N2655 ; DEPOSITION ON 
N2660 G180 D0.25 U0.75 
N2665 X233.125 Y103.219 
N2670 ; DEPOSITION OFF 
N2675 G181 D0.25 U0.75 
N2680 G0 X52.275 Y279.316 
N2685 ; DEPOSITION ON 
N2690 G180 D0.25 U0.75 
N2695 G1 X254.335 Y77.256 F508 
N2700 ; DEPOSITION OFF 
N2705 G181 D0.25 U0.75 
N2710 X251.957 Y74.879 
N2715 ; DEPOSITION ON 
N2720 G180 D0.25 U0.75 
N2725 X49.897 Y276.939 
N2730 ; DEPOSITION OFF 
N2735 G181 D0.25 U0.75 
N2740 X47.52 Y274.562 
N2745 ; DEPOSITION ON 
N2750 G180 D0.25 U0.75 
N2755 X249.58 Y72.502 
N2760 ; DEPOSITION OFF 
N2765 G181 D0.25 U0.75 
N2770 X247.203 Y70.124 
N2775 ; DEPOSITION ON 
N2780 G180 D0.25 U0.75 
N2785 X223.617 Y93.711 
N2790 ; DEPOSITION OFF 
N2795 G181 D0.25 U0.75 
N2800 G0 X65.044 Y252.283 
N2805 ; DEPOSITION ON 
N2810 G180 D0.25 U0.75 
N2815 G1 X45.143 Y272.184 F508 
N2820 ; DEPOSITION OFF 
N2825 G181 D0.25 U0.75 
N2830 X42.766 Y269.807 
N2835 ; DEPOSITION ON 
N2840 G180 D0.25 U0.75 
N2845 X62.667 Y249.906 
N2850 ; DEPOSITION OFF 
N2855 G181 D0.25 U0.75 
N2860 G0 X221.24 Y91.334 
N2865 ; DEPOSITION ON 
N2870 G180 D0.25 U0.75 
N2875 G1 X244.826 Y67.747 F508 
N2880 ; DEPOSITION OFF 
N2885 G181 D0.25 U0.75 
N2890 X242.449 Y65.37 
N2895 ; DEPOSITION ON 
N2900 G180 D0.25 U0.75 
N2905 X218.862 Y88.956 
N2910 ; DEPOSITION OFF 
N2915 G181 D0.25 U0.75 
N2920 G0 X60.29 Y247.529 
N2925 ; DEPOSITION ON 
N2930 G180 D0.25 U0.75 
N2935 G1 X40.389 Y267.43 F508 
N2940 ; DEPOSITION OFF 
N2945 G181 D0.25 U0.75 
N2950 X38.012 Y265.053 
N2955 ; DEPOSITION ON 
N2960 G180 D0.25 U0.75 
N2965 X57.913 Y245.152 
N2970 ; DEPOSITION OFF 
N2975 G181 D0.25 U0.75 
N2980 G0 X216.485 Y86.579 
N2985 ; DEPOSITION ON 
N2990 G180 D0.25 U0.75 
N2995 G1 X240.072 Y62.993 F508 
N3000 ; DEPOSITION OFF 
N3005 G181 D0.25 U0.75 
N3010 X237.694 Y60.616 
N3015 ; DEPOSITION ON 
N3020 G180 D0.25 U0.75 
N3025 X214.108 Y84.202 
N3030 ; DEPOSITION OFF 
N3035 G181 D0.25 U0.75 
N3040 G0 X55.536 Y242.774 
N3045 ; DEPOSITION ON 
N3050 G180 D0.25 U0.75 
N3055 G1 X35.634 Y262.676 F508 
N3060 ; DEPOSITION OFF 
N3065 G181 D0.25 U0.75 
N3070 X33.257 Y260.299 
N3075 ; DEPOSITION ON 
N3080 G180 D0.25 U0.75 
N3085 X53.159 Y240.397 
N3090 ; DEPOSITION OFF 
N3095 G181 D0.25 U0.75 
N3100 G0 X211.731 Y81.825 
N3105 ; DEPOSITION ON 
N3110 G180 D0.25 U0.75 
N3115 G1 X235.317 Y58.239 F508 
N3120 ; DEPOSITION OFF 
N3125 G181 D0.25 U0.75 
N3130 X232.94 Y55.861 
N3135 ; DEPOSITION ON 
N3140 G180 D0.25 U0.75 
N3145 X209.354 Y79.448 
N3150 ; DEPOSITION OFF 
N3155 G181 D0.25 U0.75 
N3160 G0 X50.781 Y238.02 
N3165 ; DEPOSITION ON 
N3170 G180 D0.25 U0.75 
N3175 G1 X30.88 Y257.921 F508 
N3180 ; DEPOSITION OFF 
N3185 G181 D0.25 U0.75 
N3190 X28.503 Y255.544 
N3195 ; DEPOSITION ON 
N3200 G180 D0.25 U0.75 
N3205 X48.404 Y235.643 
N3210 ; DEPOSITION OFF 
N3215 G181 D0.25 U0.75 
N3220 G0 X206.977 Y77.071 
N3225 ; DEPOSITION ON 
N3230 G180 D0.25 U0.75 
N3235 G1 X230.563 Y53.484 F508 
N3240 ; DEPOSITION OFF 
N3245 G181 D0.25 U0.75 
N3250 X228.186 Y51.107 
N3255 ; DEPOSITION ON 
N3260 G180 D0.25 U0.75 
N3265 X204.599 Y74.693 
N3270 ; DEPOSITION OFF 
N3275 G181 D0.25 U0.75 
N3280 G0 X46.027 Y233.266 
N3285 ; DEPOSITION ON 
N3290 G180 D0.25 U0.75 
N3295 G1 X26.126 Y253.167 F508 
N3300 ; DEPOSITION OFF 
N3305 G181 D0.25 U0.75 
N3310 X23.748 Y250.79 
N3315 ; DEPOSITION ON 
N3320 G180 D0.25 U0.75 
N3325 X43.65 Y230.889 
N3330 ; DEPOSITION OFF 
N3335 G181 D0.25 U0.75 
N3340 G0 X202.222 Y72.316 
N3345 ; DEPOSITION ON 
N3350 G180 D0.25 U0.75 
N3355 G1 X225.808 Y48.73 F508 
N3360 ; DEPOSITION OFF 
N3365 G181 D0.25 U0.75 
N3370 X223.431 Y46.353 
N3375 ; DEPOSITION ON 
N3380 G180 D0.25 U0.75 
N3385 X21.371 Y248.413 
N3390 ; DEPOSITION OFF 
N3395 G181 D0.25 U0.75 
N3400 X18.994 Y246.036 
N3405 ; DEPOSITION ON 
N3410 G180 D0.25 U0.75 
N3415 X221.054 Y43.976 
N3420 ; DEPOSITION OFF 
N3425 G181 D0.25 U0.75 
N3430 X218.677 Y41.598 
N3435 ; DEPOSITION ON 
N3440 G180 D0.25 U0.75 
N3445 X16.617 Y243.658 
N3450 ; DEPOSITION OFF 
N3455 G181 D0.25 U0.75 
N3460 X14.24 Y241.281 
N3465 ; DEPOSITION ON 
N3470 G180 D0.25 U0.75 
N3475 X216.3 Y39.221 
N3480 ; DEPOSITION OFF 
N3485 G181 D0.25 U0.75 
N3490 X213.923 Y36.844 
N3495 ; DEPOSITION ON 
N3500 G180 D0.25 U0.75 
N3505 X11.863 Y238.904 
N3510 ; DEPOSITION OFF 
N3515 G181 D0.25 U0.75 
N3520 G0 X187.959 Y58.053 
N3525 ; DEPOSITION ON 
N3530 G180 D0.25 U0.75 
N3535 G1 X211.545 Y34.467 F508 
N3540 ; DEPOSITION OFF 
N3545 G181 D0.25 U0.75 
N3550 X209.168 Y32.09 
N3555 ; DEPOSITION ON 
N3560 G180 D0.25 U0.75 
N3565 X185.582 Y55.676 
N3570 G181 D0.25 U0.75 
N3575 V.P.layer_num = 3 
N3580 P12011=0 
N3585 #PCALL decking.nc P1 = V.P.layer_num 
N3590 P12012= 3 
N3595 P12011=1 
N3600 ; LAYER 3 END 
N3605 ; DEPOSITION OFF 
N3610 G181 D0.25 U0.75 
N3615 G0 Z8 
N3620 X271.319 Y93.018 
N3625 ; LAYER 4 START 
N3630 ; DEPOSITION ON 
N3635 G180 D0.25 U0.75 
N3640 G1 X247.122 Y117.215 F508 
N3645 ; DEPOSITION OFF 
N3650 G181 D0.25 U0.75 
N3655 X244.765 Y114.859 
N3660 ; DEPOSITION ON 
N3665 G180 D0.25 U0.75 
N3670 X268.963 Y90.661 
N3675 ; DEPOSITION OFF 
N3680 G181 D0.25 U0.75 
N3685 X266.606 Y88.305 
N3690 ; DEPOSITION ON 
N3695 G180 D0.25 U0.75 
N3700 X242.408 Y112.502 
N3705 ; DEPOSITION OFF 
N3710 G181 D0.25 U0.75 
N3715 X240.052 Y110.146 
N3720 ; DEPOSITION ON 
N3725 G180 D0.25 U0.75 
N3730 X264.249 Y85.948 
N3735 ; DEPOSITION OFF 
N3740 G181 D0.25 U0.75 
N3745 X261.893 Y83.591 
N3750 ; DEPOSITION ON 
N3755 G180 D0.25 U0.75 
N3760 X237.695 Y107.789 
N3765 ; DEPOSITION OFF 
N3770 G181 D0.25 U0.75 
N3775 X235.338 Y105.432 
N3780 ; DEPOSITION ON 
N3785 G180 D0.25 U0.75 
N3790 X259.536 Y81.235 
N3795 ; DEPOSITION OFF 
N3800 G181 D0.25 U0.75 
N3805 X257.179 Y78.878 
N3810 ; DEPOSITION ON 
N3815 G180 D0.25 U0.75 
N3820 X232.982 Y103.076 
N3825 ; DEPOSITION OFF 
N3830 G181 D0.25 U0.75 
N3835 G0 X52.151 Y279.193 
N3840 ; DEPOSITION ON 
N3845 G180 D0.25 U0.75 
N3850 G1 X254.823 Y76.521 F508 
N3855 ; DEPOSITION OFF 
N3860 G181 D0.25 U0.75 
N3865 X252.466 Y74.165 
N3870 ; DEPOSITION ON 
N3875 G180 D0.25 U0.75 
N3880 X49.795 Y276.836 
N3885 ; DEPOSITION OFF 
N3890 G181 D0.25 U0.75 
N3895 X47.438 Y274.479 
N3900 ; DEPOSITION ON 
N3905 G180 D0.25 U0.75 
N3910 X250.109 Y71.808 
N3915 ; DEPOSITION OFF 
N3920 G181 D0.25 U0.75 
N3925 X247.753 Y69.451 
N3930 ; DEPOSITION ON 
N3935 G180 D0.25 U0.75 
N3940 X223.555 Y93.649 
N3945 ; DEPOSITION OFF 
N3950 G181 D0.25 U0.75 
N3955 G0 X64.983 Y252.221 
N3960 ; DEPOSITION ON 
N3965 G180 D0.25 U0.75 
N3970 G1 X45.081 Y272.123 F508 
N3975 ; DEPOSITION OFF 
N3980 G181 D0.25 U0.75 
N3985 X42.725 Y269.766 
N3990 ; DEPOSITION ON 
N3995 G180 D0.25 U0.75 
N4000 X62.626 Y249.865 
N4005 ; DEPOSITION OFF 
N4010 G181 D0.25 U0.75 
N4015 G0 X221.199 Y91.292 
N4020 ; DEPOSITION ON 
N4025 G180 D0.25 U0.75 
N4030 G1 X245.396 Y67.095 F508 
N4035 ; DEPOSITION OFF 
N4040 G181 D0.25 U0.75 
N4045 X243.04 Y64.738 
N4050 ; DEPOSITION ON 
N4055 G180 D0.25 U0.75 
N4060 X218.842 Y88.936 
N4065 ; DEPOSITION OFF 
N4070 G181 D0.25 U0.75 
N4075 G0 X60.27 Y247.508 
N4080 ; DEPOSITION ON 
N4085 G180 D0.25 U0.75 
N4090 G1 X40.368 Y267.41 F508 
N4095 ; DEPOSITION OFF 
N4100 G181 D0.25 U0.75 
N4105 X38.012 Y265.053 
N4110 ; DEPOSITION ON 
N4115 G180 D0.25 U0.75 
N4120 X57.913 Y245.152 
N4125 ; DEPOSITION OFF 
N4130 G181 D0.25 U0.75 
N4135 G0 X216.485 Y86.579 
N4140 ; DEPOSITION ON 
N4145 G180 D0.25 U0.75 
N4150 G1 X240.683 Y62.382 F508 
N4155 ; DEPOSITION OFF 
N4160 G181 D0.25 U0.75 
N4165 X238.326 Y60.025 
N4170 ; DEPOSITION ON 
N4175 G180 D0.25 U0.75 
N4180 X214.129 Y84.223 
N4185 ; DEPOSITION OFF 
N4190 G181 D0.25 U0.75 
N4195 G0 X55.556 Y242.795 
N4200 ; DEPOSITION ON 
N4205 G180 D0.25 U0.75 
N4210 G1 X35.655 Y262.696 F508 
N4215 ; DEPOSITION OFF 
N4220 G181 D0.25 U0.75 
N4225 X33.298 Y260.34 
N4230 ; DEPOSITION ON 
N4235 G180 D0.25 U0.75 
N4240 X53.2 Y240.438 
N4245 ; DEPOSITION OFF 
N4250 G181 D0.25 U0.75 
N4255 G0 X211.772 Y81.866 
N4260 ; DEPOSITION ON 
N4265 G180 D0.25 U0.75 
N4270 G1 X235.97 Y57.668 F508 
N4275 ; DEPOSITION OFF 
N4280 G181 D0.25 U0.75 
N4285 X233.613 Y55.312 
N4290 ; DEPOSITION ON 
N4295 G180 D0.25 U0.75 
N4300 X209.415 Y79.509 
N4305 ; DEPOSITION OFF 
N4310 G181 D0.25 U0.75 
N4315 G0 X50.843 Y238.082 
N4320 ; DEPOSITION ON 
N4325 G180 D0.25 U0.75 
N4330 G1 X30.942 Y257.983 F508 
N4335 ; DEPOSITION OFF 
N4340 G181 D0.25 U0.75 
N4345 X28.585 Y255.626 
N4350 ; DEPOSITION ON 
N4355 G180 D0.25 U0.75 
N4360 X48.486 Y235.725 
N4365 ; DEPOSITION OFF 
N4370 G181 D0.25 U0.75 
N4375 G0 X207.059 Y77.153 
N4380 ; DEPOSITION ON 
N4385 G180 D0.25 U0.75 
N4390 G1 X231.256 Y52.955 F508 
N4395 ; DEPOSITION OFF 
N4400 G181 D0.25 U0.75 
N4405 X228.9 Y50.598 
N4410 ; DEPOSITION ON 
N4415 G180 D0.25 U0.75 
N4420 X204.702 Y74.796 
N4425 ; DEPOSITION OFF 
N4430 G181 D0.25 U0.75 
N4435 G0 X46.13 Y233.368 
N4440 ; DEPOSITION ON 
N4445 G180 D0.25 U0.75 
N4450 G1 X26.228 Y253.27 F508 
N4455 ; DEPOSITION OFF 
N4460 G181 D0.25 U0.75 
N4465 X23.872 Y250.913 
N4470 ; DEPOSITION ON 
N4475 G180 D0.25 U0.75 
N4480 X43.773 Y231.012 
N4485 ; DEPOSITION OFF 
N4490 G181 D0.25 U0.75 
N4495 G0 X202.345 Y72.439 
N4500 ; DEPOSITION ON 
N4505 G180 D0.25 U0.75 
N4510 G1 X226.543 Y48.242 F508 
N4515 ; DEPOSITION OFF 
N4520 G181 D0.25 U0.75 
N4525 X224.186 Y45.885 
N4530 ; DEPOSITION ON 
N4535 G180 D0.25 U0.75 
N4540 X21.515 Y248.556 
N4545 ; DEPOSITION OFF 
N4550 G181 D0.25 U0.75 
N4555 X19.158 Y246.2 
N4560 ; DEPOSITION ON 
N4565 G180 D0.25 U0.75 
N4570 X221.83 Y43.528 
N4575 ; DEPOSITION OFF 
N4580 G181 D0.25 U0.75 
N4585 X219.473 Y41.172 
N4590 ; DEPOSITION ON 
N4595 G180 D0.25 U0.75 
N4600 X16.802 Y243.843 
N4605 ; DEPOSITION OFF 
N4610 G181 D0.25 U0.75 
N4615 X14.445 Y241.487 
N4620 ; DEPOSITION ON 
N4625 G180 D0.25 U0.75 
N4630 X217.117 Y38.815 
N4635 ; DEPOSITION OFF 
N4640 G181 D0.25 U0.75 
N4645 X214.76 Y36.459 
N4650 ; DEPOSITION ON 
N4655 G180 D0.25 U0.75 
N4660 X12.088 Y239.13 
N4665 ; DEPOSITION OFF 
N4670 G181 D0.25 U0.75 
N4675 G0 X188.206 Y58.3 
N4680 ; DEPOSITION ON 
N4685 G180 D0.25 U0.75 
N4690 G1 X212.403 Y34.102 F508 
N4695 ; DEPOSITION OFF 
N4700 G181 D0.25 U0.75 
N4705 X210.047 Y31.745 
N4710 ; DEPOSITION ON 
N4715 G180 D0.25 U0.75 
N4720 X185.849 Y55.943 
N4725 G181 D0.25 U0.75 
N4730 V.P.layer_num = 4 
N4735 P12011=0 
N4740 #PCALL decking.nc P1 = V.P.layer_num 
N4745 P12012= 4 
N4750 P12011=1 
N4755 ; LAYER 4 END 
N4760 ; DEPOSITION OFF 
N4765 G181 D0.25 U0.75 
N4770 G0 Z10 
N4775 X272.023 Y92.499 
N4780 ; LAYER 5 START 
N4785 ; DEPOSITION ON 
N4790 G180 D0.25 U0.75 
N4795 G1 X247.214 Y117.308 F508 
N4800 ; DEPOSITION OFF 
N4805 G181 D0.25 U0.75 
N4810 X244.85 Y114.944 
N4815 ; DEPOSITION ON 
N4820 G180 D0.25 U0.75 
N4825 X269.659 Y90.135 
N4830 ; DEPOSITION OFF 
N4835 G181 D0.25 U0.75 
N4840 X267.296 Y87.771 
N4845 ; DEPOSITION ON 
N4850 G180 D0.25 U0.75 
N4855 X242.486 Y112.58 
N4860 ; DEPOSITION OFF 
N4865 G181 D0.25 U0.75 
N4870 X240.123 Y110.217 
N4875 ; DEPOSITION ON 
N4880 G180 D0.25 U0.75 
N4885 X264.932 Y85.408 
N4890 ; DEPOSITION OFF 
N4895 G181 D0.25 U0.75 
N4900 X262.568 Y83.044 
N4905 ; DEPOSITION ON 
N4910 G180 D0.25 U0.75 
N4915 X237.759 Y107.853 
N4920 ; DEPOSITION OFF 
N4925 G181 D0.25 U0.75 
N4930 X235.395 Y105.489 
N4935 ; DEPOSITION ON 
N4940 G180 D0.25 U0.75 
N4945 X260.204 Y80.68 
N4950 ; DEPOSITION OFF 
N4955 G181 D0.25 U0.75 
N4960 X257.841 Y78.316 
N4965 ; DEPOSITION ON 
N4970 G180 D0.25 U0.75 
N4975 X233.031 Y103.125 
N4980 ; DEPOSITION OFF 
N4985 G181 D0.25 U0.75 
N4990 G0 X52.194 Y279.235 
N4995 ; DEPOSITION ON 
N5000 G180 D0.25 U0.75 
N5005 G1 X255.477 Y75.953 F508 
N5010 ; DEPOSITION OFF 
N5015 G181 D0.25 U0.75 
N5020 X253.113 Y73.589 
N5025 ; DEPOSITION ON 
N5030 G180 D0.25 U0.75 
N5035 X49.83 Y276.872 
N5040 ; DEPOSITION OFF 
N5045 G181 D0.25 U0.75 
N5050 X47.466 Y274.508 
N5055 ; DEPOSITION ON 
N5060 G180 D0.25 U0.75 
N5065 X250.749 Y71.225 
N5070 ; DEPOSITION OFF 
N5075 G181 D0.25 U0.75 
N5080 X248.386 Y68.861 
N5085 ; DEPOSITION ON 
N5090 G180 D0.25 U0.75 
N5095 X223.576 Y93.67 
N5100 ; DEPOSITION OFF 
N5105 G181 D0.25 U0.75 
N5110 G0 X65.004 Y252.243 
N5115 ; DEPOSITION ON 
N5120 G180 D0.25 U0.75 
N5125 G1 X45.103 Y272.144 F508 
N5130 ; DEPOSITION OFF 
N5135 G181 D0.25 U0.75 
N5140 X42.739 Y269.78 
N5145 ; DEPOSITION ON 
N5150 G180 D0.25 U0.75 
N5155 X62.64 Y249.879 
N5160 ; DEPOSITION OFF 
N5165 G181 D0.25 U0.75 
N5170 G0 X221.213 Y91.307 
N5175 ; DEPOSITION ON 
N5180 G180 D0.25 U0.75 
N5185 G1 X246.022 Y66.498 F508 
N5190 ; DEPOSITION OFF 
N5195 G181 D0.25 U0.75 
N5200 X243.658 Y64.134 
N5205 ; DEPOSITION ON 
N5210 G180 D0.25 U0.75 
N5215 X218.849 Y88.943 
N5220 ; DEPOSITION OFF 
N5225 G181 D0.25 U0.75 
N5230 G0 X60.277 Y247.515 
N5235 ; DEPOSITION ON 
N5240 G180 D0.25 U0.75 
N5245 G1 X40.375 Y267.417 F508 
N5250 ; DEPOSITION OFF 
N5255 G181 D0.25 U0.75 
N5260 X38.012 Y265.053 
N5265 ; DEPOSITION ON 
N5270 G180 D0.25 U0.75 
N5275 X57.913 Y245.152 
N5280 ; DEPOSITION OFF 
N5285 G181 D0.25 U0.75 
N5290 G0 X216.485 Y86.579 
N5295 ; DEPOSITION ON 
N5300 G180 D0.25 U0.75 
N5305 G1 X241.294 Y61.77 F508 
N5310 ; DEPOSITION OFF 
N5315 G181 D0.25 U0.75 
N5320 X238.931 Y59.406 
N5325 ; DEPOSITION ON 
N5330 G180 D0.25 U0.75 
N5335 X214.122 Y84.215 
N5340 ; DEPOSITION OFF 
N5345 G181 D0.25 U0.75 
N5350 G0 X55.549 Y242.788 
N5355 ; DEPOSITION ON 
N5360 G180 D0.25 U0.75 
N5365 G1 X35.648 Y262.689 F508 
N5370 ; DEPOSITION OFF 
N5375 G181 D0.25 U0.75 
N5380 X33.284 Y260.325 
N5385 ; DEPOSITION ON 
N5390 G180 D0.25 U0.75 
N5395 X53.185 Y240.424 
N5400 ; DEPOSITION OFF 
N5405 G181 D0.25 U0.75 
N5410 G0 X211.758 Y81.852 
N5415 ; DEPOSITION ON 
N5420 G180 D0.25 U0.75 
N5425 G1 X236.567 Y57.043 F508 
N5430 ; DEPOSITION OFF 
N5435 G181 D0.25 U0.75 
N5440 X234.203 Y54.679 
N5445 ; DEPOSITION ON 
N5450 G180 D0.25 U0.75 
N5455 X209.394 Y79.488 
N5460 ; DEPOSITION OFF 
N5465 G181 D0.25 U0.75 
N5470 G0 X50.822 Y238.06 
N5475 ; DEPOSITION ON 
N5480 G180 D0.25 U0.75 
N5485 G1 X30.92 Y257.962 F508 
N5490 ; DEPOSITION OFF 
N5495 G181 D0.25 U0.75 
N5500 X28.557 Y255.598 
N5505 ; DEPOSITION ON 
N5510 G180 D0.25 U0.75 
N5515 X48.458 Y235.697 
N5520 ; DEPOSITION OFF 
N5525 G181 D0.25 U0.75 
N5530 G0 X207.03 Y77.124 
N5535 ; DEPOSITION ON 
N5540 G180 D0.25 U0.75 
N5545 G1 X231.839 Y52.315 F508 
N5550 ; DEPOSITION OFF 
N5555 G181 D0.25 U0.75 
N5560 X229.476 Y49.951 
N5565 ; DEPOSITION ON 
N5570 G180 D0.25 U0.75 
N5575 X204.667 Y74.76 
N5580 ; DEPOSITION OFF 
N5585 G181 D0.25 U0.75 
N5590 G0 X46.094 Y233.333 
N5595 ; DEPOSITION ON 
N5600 G180 D0.25 U0.75 
N5605 G1 X26.193 Y253.234 F508 
N5610 ; DEPOSITION OFF 
N5615 G181 D0.25 U0.75 
N5620 X23.829 Y250.87 
N5625 ; DEPOSITION ON 
N5630 G180 D0.25 U0.75 
N5635 X43.73 Y230.969 
N5640 ; DEPOSITION OFF 
N5645 G181 D0.25 U0.75 
N5650 G0 X202.303 Y72.397 
N5655 ; DEPOSITION ON 
N5660 G180 D0.25 U0.75 
N5665 G1 X227.112 Y47.588 F508 
N5670 ; DEPOSITION OFF 
N5675 G181 D0.25 U0.75 
N5680 X224.748 Y45.224 
N5685 ; DEPOSITION ON 
N5690 G180 D0.25 U0.75 
N5695 X21.465 Y248.507 
N5700 ; DEPOSITION OFF 
N5705 G181 D0.25 U0.75 
N5710 X19.102 Y246.143 
N5715 ; DEPOSITION ON 
N5720 G180 D0.25 U0.75 
N5725 X222.384 Y42.86 
N5730 ; DEPOSITION OFF 
N5735 G181 D0.25 U0.75 
N5740 X220.021 Y40.496 
N5745 ; DEPOSITION ON 
N5750 G180 D0.25 U0.75 
N5755 X16.738 Y243.779 
N5760 ; DEPOSITION OFF 
N5765 G181 D0.25 U0.75 
N5770 X14.374 Y241.415 
N5775 ; DEPOSITION ON 
N5780 G180 D0.25 U0.75 
N5785 X217.657 Y38.133 
N5790 ; DEPOSITION OFF 
N5795 G181 D0.25 U0.75 
N5800 X215.293 Y35.769 
N5805 ; DEPOSITION ON 
N5810 G180 D0.25 U0.75 
N5815 X12.01 Y239.052 
N5820 ; DEPOSITION OFF 
N5825 G181 D0.25 U0.75 
N5830 G0 X188.12 Y58.214 
N5835 ; DEPOSITION ON 
N5840 G180 D0.25 U0.75 
N5845 G1 X212.929 Y33.405 F508 
N5850 ; DEPOSITION OFF 
N5855 G181 D0.25 U0.75 
N5860 X210.566 Y31.041 
N5865 ; DEPOSITION ON 
N5870 G180 D0.25 U0.75 
N5875 X185.757 Y55.85 
N5880 G181 D0.25 U0.75 
N5885 V.P.layer_num = 5 
N5890 P12011=0 
N5895 #PCALL decking.nc P1 = V.P.layer_num 
N5900 P12012= 5 
N5905 P12011=1 
N5910 ; LAYER 5 END 
N5915 ; DEPOSITION OFF 
N5920 G181 D0.25 U0.75 
N5925 G0 Z12 
N5930 X272.727 Y91.98 
N5935 ; LAYER 6 START 
N5940 ; DEPOSITION ON 
N5945 G180 D0.25 U0.75 
N5950 G1 X247.306 Y117.4 F508 
N5955 ; DEPOSITION OFF 
N5960 G181 D0.25 U0.75 
N5965 X244.936 Y115.029 
N5970 ; DEPOSITION ON 
N5975 G180 D0.25 U0.75 
N5980 X270.356 Y89.609 
N5985 ; DEPOSITION OFF 
N5990 G181 D0.25 U0.75 
N5995 X267.985 Y87.238 
N6000 ; DEPOSITION ON 
N6005 G180 D0.25 U0.75 
N6010 X242.565 Y112.659 
N6015 ; DEPOSITION OFF 
N6020 G181 D0.25 U0.75 
N6025 X240.194 Y110.288 
N6030 ; DEPOSITION ON 
N6035 G180 D0.25 U0.75 
N6040 X265.614 Y84.867 
N6045 ; DEPOSITION OFF 
N6050 G181 D0.25 U0.75 
N6055 X263.243 Y82.496 
N6060 ; DEPOSITION ON 
N6065 G180 D0.25 U0.75 
N6070 X237.823 Y107.917 
N6075 ; DEPOSITION OFF 
N6080 G181 D0.25 U0.75 
N6085 X235.452 Y105.546 
N6090 ; DEPOSITION ON 
N6095 G180 D0.25 U0.75 
N6100 X260.873 Y80.126 
N6105 ; DEPOSITION OFF 
N6110 G181 D0.25 U0.75 
N6115 X258.502 Y77.755 
N6120 ; DEPOSITION ON 
N6125 G180 D0.25 U0.75 
N6130 X233.081 Y103.175 
N6135 ; DEPOSITION OFF 
N6140 G181 D0.25 U0.75 
N6145 G0 X52.237 Y279.278 
N6150 ; DEPOSITION ON 
N6155 G180 D0.25 U0.75 
N6160 G1 X256.131 Y75.384 F508 
N6165 ; DEPOSITION OFF 
N6170 G181 D0.25 U0.75 
N6175 X253.76 Y73.013 
N6180 ; DEPOSITION ON 
N6185 G180 D0.25 U0.75 
N6190 X49.866 Y276.907 
N6195 ; DEPOSITION OFF 
N6200 G181 D0.25 U0.75 
N6205 X47.495 Y274.536 
N6210 ; DEPOSITION ON 
N6215 G180 D0.25 U0.75 
N6220 X251.389 Y70.642 
N6225 ; DEPOSITION OFF 
N6230 G181 D0.25 U0.75 
N6235 X249.018 Y68.271 
N6240 ; DEPOSITION ON 
N6245 G180 D0.25 U0.75 
N6250 X223.598 Y93.692 
N6255 ; DEPOSITION OFF 
N6260 G181 D0.25 U0.75 
N6265 G0 X65.025 Y252.264 
N6270 ; DEPOSITION ON 
N6275 G180 D0.25 U0.75 
N6280 G1 X45.124 Y272.166 F508 
N6285 ; DEPOSITION OFF 
N6290 G181 D0.25 U0.75 
N6295 X42.753 Y269.795 
N6300 ; DEPOSITION ON 
N6305 G180 D0.25 U0.75 
N6310 X62.655 Y249.893 
N6315 ; DEPOSITION OFF 
N6320 G181 D0.25 U0.75 
N6325 G0 X221.227 Y91.321 
N6330 ; DEPOSITION ON 
N6335 G180 D0.25 U0.75 
N6340 G1 X246.647 Y65.9 F508 
N6345 ; DEPOSITION OFF 
N6350 G181 D0.25 U0.75 
N6355 X244.277 Y63.53 
N6360 ; DEPOSITION ON 
N6365 G180 D0.25 U0.75 
N6370 X218.856 Y88.95 
N6375 ; DEPOSITION OFF 
N6380 G181 D0.25 U0.75 
N6385 G0 X60.284 Y247.522 
N6390 ; DEPOSITION ON 
N6395 G180 D0.25 U0.75 
N6400 G1 X40.382 Y267.424 F508 
N6405 ; DEPOSITION OFF 
N6410 G181 D0.25 U0.75 
N6415 X38.012 Y265.053 
N6420 ; DEPOSITION ON 
N6425 G180 D0.25 U0.75 
N6430 X57.913 Y245.152 
N6435 ; DEPOSITION OFF 
N6440 G181 D0.25 U0.75 
N6445 G0 X216.485 Y86.579 
N6450 ; DEPOSITION ON 
N6455 G180 D0.25 U0.75 
N6460 G1 X241.906 Y61.159 F508 
N6465 ; DEPOSITION OFF 
N6470 G181 D0.25 U0.75 
N6475 X239.535 Y58.788 
N6480 ; DEPOSITION ON 
N6485 G180 D0.25 U0.75 
N6490 X214.114 Y84.208 
N6495 ; DEPOSITION OFF 
N6500 G181 D0.25 U0.75 
N6505 G0 X55.542 Y242.781 
N6510 ; DEPOSITION ON 
N6515 G180 D0.25 U0.75 
N6520 G1 X35.641 Y262.682 F508 
N6525 ; DEPOSITION OFF 
N6530 G181 D0.25 U0.75 
N6535 X33.27 Y260.311 
N6540 ; DEPOSITION ON 
N6545 G180 D0.25 U0.75 
N6550 X53.171 Y240.41 
N6555 ; DEPOSITION OFF 
N6560 G181 D0.25 U0.75 
N6565 G0 X211.744 Y81.837 
N6570 ; DEPOSITION ON 
N6575 G180 D0.25 U0.75 
N6580 G1 X237.164 Y56.417 F508 
N6585 ; DEPOSITION OFF 
N6590 G181 D0.25 U0.75 
N6595 X234.793 Y54.046 
N6600 ; DEPOSITION ON 
N6605 G180 D0.25 U0.75 
N6610 X209.373 Y79.467 
N6615 ; DEPOSITION OFF 
N6620 G181 D0.25 U0.75 
N6625 G0 X50.8 Y238.039 
N6630 ; DEPOSITION ON 
N6635 G180 D0.25 U0.75 
N6640 G1 X30.899 Y257.94 F508 
N6645 ; DEPOSITION OFF 
N6650 G181 D0.25 U0.75 
N6655 X28.528 Y255.57 
N6660 ; DEPOSITION ON 
N6665 G180 D0.25 U0.75 
N6670 X48.429 Y235.668 
N6675 ; DEPOSITION OFF 
N6680 G181 D0.25 U0.75 
N6685 G0 X207.002 Y77.096 
N6690 ; DEPOSITION ON 
N6695 G180 D0.25 U0.75 
N6700 G1 X232.422 Y51.675 F508 
N6705 ; DEPOSITION OFF 
N6710 G181 D0.25 U0.75 
N6715 X230.051 Y49.304 
N6720 ; DEPOSITION ON 
N6725 G180 D0.25 U0.75 
N6730 X204.631 Y74.725 
N6735 ; DEPOSITION OFF 
N6740 G181 D0.25 U0.75 
N6745 G0 X46.059 Y233.297 
N6750 ; DEPOSITION ON 
N6755 G180 D0.25 U0.75 
N6760 G1 X26.157 Y253.199 F508 
N6765 ; DEPOSITION OFF 
N6770 G181 D0.25 U0.75 
N6775 X23.786 Y250.828 
N6780 ; DEPOSITION ON 
N6785 G180 D0.25 U0.75 
N6790 X43.688 Y230.926 
N6795 ; DEPOSITION OFF 
N6800 G181 D0.25 U0.75 
N6805 G0 X202.26 Y72.354 
N6810 ; DEPOSITION ON 
N6815 G180 D0.25 U0.75 
N6820 G1 X227.681 Y46.934 F508 
N6825 ; DEPOSITION OFF 
N6830 G181 D0.25 U0.75 
N6835 X225.31 Y44.563 
N6840 ; DEPOSITION ON 
N6845 G180 D0.25 U0.75 
N6850 X21.416 Y248.457 
N6855 ; DEPOSITION OFF 
N6860 G181 D0.25 U0.75 
N6865 X19.045 Y246.086 
N6870 ; DEPOSITION ON 
N6875 G180 D0.25 U0.75 
N6880 X222.939 Y42.192 
N6885 ; DEPOSITION OFF 
N6890 G181 D0.25 U0.75 
N6895 X220.568 Y39.821 
N6900 ; DEPOSITION ON 
N6905 G180 D0.25 U0.75 
N6910 X16.674 Y243.715 
N6915 ; DEPOSITION OFF 
N6920 G181 D0.25 U0.75 
N6925 X14.303 Y241.344 
N6930 ; DEPOSITION ON 
N6935 G180 D0.25 U0.75 
N6940 X218.197 Y37.45 
N6945 ; DEPOSITION OFF 
N6950 G181 D0.25 U0.75 
N6955 X215.826 Y35.079 
N6960 ; DEPOSITION ON 
N6965 G180 D0.25 U0.75 
N6970 X11.932 Y238.974 
N6975 ; DEPOSITION OFF 
N6980 G181 D0.25 U0.75 
N6985 G0 X188.035 Y58.129 
N6990 ; DEPOSITION ON 
N6995 G180 D0.25 U0.75 
N7000 G1 X213.455 Y32.708 F508 
N7005 ; DEPOSITION OFF 
N7010 G181 D0.25 U0.75 
N7015 X211.085 Y30.338 
N7020 ; DEPOSITION ON 
N7025 G180 D0.25 U0.75 
N7030 X185.664 Y55.758 
N7035 G181 D0.25 U0.75 
N7040 V.P.layer_num = 6 
N7045 P12011=0 
N7050 #PCALL decking.nc P1 = V.P.layer_num 
N7055 P12012= 6 
N7060 P12011=1 
N7065 ; LAYER 6 END 
N7070 ; DEPOSITION OFF 
N7075 G181 D0.25 U0.75 
N7080 G0 Z14 
N7085 X273.431 Y91.461 
N7090 ; LAYER 7 START 
N7095 ; DEPOSITION ON 
N7100 G180 D0.25 U0.75 
N7105 G1 X247.399 Y117.493 F508 
N7110 ; DEPOSITION OFF 
N7115 G181 D0.25 U0.75 
N7120 X245.021 Y115.115 
N7125 ; DEPOSITION ON 
N7130 G180 D0.25 U0.75 
N7135 X271.053 Y89.083 
N7140 ; DEPOSITION OFF 
N7145 G181 D0.25 U0.75 
N7150 X268.675 Y86.705 
N7155 ; DEPOSITION ON 
N7160 G180 D0.25 U0.75 
N7165 X242.643 Y112.737 
N7170 ; DEPOSITION OFF 
N7175 G181 D0.25 U0.75 
N7180 X240.265 Y110.359 
N7185 ; DEPOSITION ON 
N7190 G180 D0.25 U0.75 
N7195 X266.297 Y84.327 
N7200 ; DEPOSITION OFF 
N7205 G181 D0.25 U0.75 
N7210 X263.919 Y81.949 
N7215 ; DEPOSITION ON 
N7220 G180 D0.25 U0.75 
N7225 X237.887 Y107.981 
N7230 ; DEPOSITION OFF 
N7235 G181 D0.25 U0.75 
N7240 X235.509 Y105.603 
N7245 ; DEPOSITION ON 
N7250 G180 D0.25 U0.75 
N7255 X261.541 Y79.571 
N7260 ; DEPOSITION OFF 
N7265 G181 D0.25 U0.75 
N7270 X259.163 Y77.193 
N7275 ; DEPOSITION ON 
N7280 G180 D0.25 U0.75 
N7285 X233.131 Y103.225 
N7290 ; DEPOSITION OFF 
N7295 G181 D0.25 U0.75 
N7300 G0 X52.279 Y279.321 
N7305 ; DEPOSITION ON 
N7310 G180 D0.25 U0.75 
N7315 G1 X256.785 Y74.815 F508 
N7320 ; DEPOSITION OFF 
N7325 G181 D0.25 U0.75 
N7330 X254.407 Y72.437 
N7335 ; DEPOSITION ON 
N7340 G180 D0.25 U0.75 
N7345 X49.901 Y276.943 
N7350 ; DEPOSITION OFF 
N7355 G181 D0.25 U0.75 
N7360 X47.523 Y274.565 
N7365 ; DEPOSITION ON 
N7370 G180 D0.25 U0.75 
N7375 X252.029 Y70.059 
N7380 ; DEPOSITION OFF 
N7385 G181 D0.25 U0.75 
N7390 X249.651 Y67.681 
N7395 ; DEPOSITION ON 
N7400 G180 D0.25 U0.75 
N7405 X223.619 Y93.713 
N7410 ; DEPOSITION OFF 
N7415 G181 D0.25 U0.75 
N7420 G0 X65.047 Y252.285 
N7425 ; DEPOSITION ON 
N7430 G180 D0.25 U0.75 
N7435 G1 X45.145 Y272.187 F508 
N7440 ; DEPOSITION OFF 
N7445 G181 D0.25 U0.75 
N7450 X42.767 Y269.809 
N7455 ; DEPOSITION ON 
N7460 G180 D0.25 U0.75 
N7465 X62.669 Y249.908 
N7470 ; DEPOSITION OFF 
N7475 G181 D0.25 U0.75 
N7480 G0 X221.241 Y91.335 
N7485 ; DEPOSITION ON 
N7490 G180 D0.25 U0.75 
N7495 G1 X247.273 Y65.303 F508 
N7500 ; DEPOSITION OFF 
N7505 G181 D0.25 U0.75 
N7510 X244.895 Y62.925 
N7515 ; DEPOSITION ON 
N7520 G180 D0.25 U0.75 
N7525 X218.863 Y88.957 
N7530 ; DEPOSITION OFF 
N7535 G181 D0.25 U0.75 
N7540 G0 X60.291 Y247.53 
N7545 ; DEPOSITION ON 
N7550 G180 D0.25 U0.75 
N7555 G1 X40.389 Y267.431 F508 
N7560 ; DEPOSITION OFF 
N7565 G181 D0.25 U0.75 
N7570 X38.012 Y265.053 
N7575 ; DEPOSITION ON 
N7580 G180 D0.25 U0.75 
N7585 X57.913 Y245.152 
N7590 ; DEPOSITION OFF 
N7595 G181 D0.25 U0.75 
N7600 G0 X216.485 Y86.579 
N7605 ; DEPOSITION ON 
N7610 G180 D0.25 U0.75 
N7615 G1 X242.517 Y60.547 F508 
N7620 ; DEPOSITION OFF 
N7625 G181 D0.25 U0.75 
N7630 X240.139 Y58.169 
N7635 ; DEPOSITION ON 
N7640 G180 D0.25 U0.75 
N7645 X214.107 Y84.201 
N7650 ; DEPOSITION OFF 
N7655 G181 D0.25 U0.75 
N7660 G0 X55.535 Y242.774 
N7665 ; DEPOSITION ON 
N7670 G180 D0.25 U0.75 
N7675 G1 X35.634 Y262.675 F508 
N7680 ; DEPOSITION OFF 
N7685 G181 D0.25 U0.75 
N7690 X33.256 Y260.297 
N7695 ; DEPOSITION ON 
N7700 G180 D0.25 U0.75 
N7705 X53.157 Y240.396 
N7710 ; DEPOSITION OFF 
N7715 G181 D0.25 U0.75 
N7720 G0 X211.729 Y81.823 
N7725 ; DEPOSITION ON 
N7730 G180 D0.25 U0.75 
N7735 G1 X237.761 Y55.791 F508 
N7740 ; DEPOSITION OFF 
N7745 G181 D0.25 U0.75 
N7750 X235.383 Y53.413 
N7755 ; DEPOSITION ON 
N7760 G180 D0.25 U0.75 
N7765 X209.351 Y79.445 
N7770 ; DEPOSITION OFF 
N7775 G181 D0.25 U0.75 
N7780 G0 X50.779 Y238.018 
N7785 ; DEPOSITION ON 
N7790 G180 D0.25 U0.75 
N7795 G1 X30.878 Y257.919 F508 
N7800 ; DEPOSITION OFF 
N7805 G181 D0.25 U0.75 
N7810 X28.5 Y255.541 
N7815 ; DEPOSITION ON 
N7820 G180 D0.25 U0.75 
N7825 X48.401 Y235.64 
N7830 ; DEPOSITION OFF 
N7835 G181 D0.25 U0.75 
N7840 G0 X206.973 Y77.067 
N7845 ; DEPOSITION ON 
N7850 G180 D0.25 U0.75 
N7855 G1 X233.005 Y51.035 F508 
N7860 ; DEPOSITION OFF 
N7865 G181 D0.25 U0.75 
N7870 X230.627 Y48.657 
N7875 ; DEPOSITION ON 
N7880 G180 D0.25 U0.75 
N7885 X204.595 Y74.689 
N7890 ; DEPOSITION OFF 
N7895 G181 D0.25 U0.75 
N7900 G0 X46.023 Y233.262 
N7905 ; DEPOSITION ON 
N7910 G180 D0.25 U0.75 
N7915 G1 X26.122 Y253.163 F508 
N7920 ; DEPOSITION OFF 
N7925 G181 D0.25 U0.75 
N7930 X23.744 Y250.785 
N7935 ; DEPOSITION ON 
N7940 G180 D0.25 U0.75 
N7945 X43.645 Y230.884 
N7950 ; DEPOSITION OFF 
N7955 G181 D0.25 U0.75 
N7960 G0 X202.217 Y72.311 
N7965 ; DEPOSITION ON 
N7970 G180 D0.25 U0.75 
N7975 G1 X228.249 Y46.279 F508 
N7980 ; DEPOSITION OFF 
N7985 G181 D0.25 U0.75 
N7990 X225.871 Y43.901 
N7995 ; DEPOSITION ON 
N8000 G180 D0.25 U0.75 
N8005 X21.366 Y248.407 
N8010 ; DEPOSITION OFF 
N8015 G181 D0.25 U0.75 
N8020 X18.988 Y246.029 
N8025 ; DEPOSITION ON 
N8030 G180 D0.25 U0.75 
N8035 X223.493 Y41.524 
N8040 ; DEPOSITION OFF 
N8045 G181 D0.25 U0.75 
N8050 X221.116 Y39.146 
N8055 ; DEPOSITION ON 
N8060 G180 D0.25 U0.75 
N8065 X16.61 Y243.651 
N8070 ; DEPOSITION OFF 
N8075 G181 D0.25 U0.75 
N8080 X14.232 Y241.273 
N8085 ; DEPOSITION ON 
N8090 G180 D0.25 U0.75 
N8095 X218.738 Y36.768 
N8100 ; DEPOSITION OFF 
N8105 G181 D0.25 U0.75 
N8110 X216.36 Y34.39 
N8115 ; DEPOSITION ON 
N8120 G180 D0.25 U0.75 
N8125 X11.854 Y238.895 
N8130 ; DEPOSITION OFF 
N8135 G181 D0.25 U0.75 
N8140 G0 X187.95 Y58.044 
N8145 ; DEPOSITION ON 
N8150 G180 D0.25 U0.75 
N8155 G1 X213.982 Y32.012 F508 
N8160 ; DEPOSITION OFF 
N8165 G181 D0.25 U0.75 
N8170 X211.604 Y29.634 
N8175 ; DEPOSITION ON 
N8180 G180 D0.25 U0.75 
N8185 X185.572 Y55.666 
N8190 G181 D0.25 U0.75 
N8195 V.P.layer_num = 7 
N8200 P12011=0 
N8205 #PCALL decking.nc P1 = V.P.layer_num 
N8210 P12012= 7 
N8215 P12011=1 
N8220 ; LAYER 7 END 
N8225 ; DEPOSITION OFF 
N8230 G181 D0.25 U0.75 
N8235 G0 Z16 
N8240 X273.778 Y90.585 
N8245 ; LAYER 8 START 
N8250 ; DEPOSITION ON 
N8255 G180 D0.25 U0.75 
N8260 G1 X247.135 Y117.229 F508 
N8265 ; DEPOSITION OFF 
N8270 G181 D0.25 U0.75 
N8275 X244.777 Y114.871 
N8280 ; DEPOSITION ON 
N8285 G180 D0.25 U0.75 
N8290 X271.421 Y88.228 
N8295 ; DEPOSITION OFF 
N8300 G181 D0.25 U0.75 
N8305 X269.063 Y85.87 
N8310 ; DEPOSITION ON 
N8315 G180 D0.25 U0.75 
N8320 X242.42 Y112.513 
N8325 ; DEPOSITION OFF 
N8330 G181 D0.25 U0.75 
N8335 X240.062 Y110.156 
N8340 ; DEPOSITION ON 
N8345 G180 D0.25 U0.75 
N8350 X266.705 Y83.512 
N8355 ; DEPOSITION OFF 
N8360 G181 D0.25 U0.75 
N8365 X264.348 Y81.155 
N8370 ; DEPOSITION ON 
N8375 G180 D0.25 U0.75 
N8380 X237.704 Y107.798 
N8385 ; DEPOSITION OFF 
N8390 G181 D0.25 U0.75 
N8395 X235.347 Y105.44 
N8400 ; DEPOSITION ON 
N8405 G180 D0.25 U0.75 
N8410 X261.99 Y78.797 
N8415 ; DEPOSITION OFF 
N8420 G181 D0.25 U0.75 
N8425 X259.632 Y76.439 
N8430 ; DEPOSITION ON 
N8435 G180 D0.25 U0.75 
N8440 X232.989 Y103.083 
N8445 ; DEPOSITION OFF 
N8450 G181 D0.25 U0.75 
N8455 G0 X52.157 Y279.199 
N8460 ; DEPOSITION ON 
N8465 G180 D0.25 U0.75 
N8470 G1 X257.275 Y74.082 F508 
N8475 ; DEPOSITION OFF 
N8480 G181 D0.25 U0.75 
N8485 X254.917 Y71.724 
N8490 ; DEPOSITION ON 
N8495 G180 D0.25 U0.75 
N8500 X49.8 Y276.841 
N8505 ; DEPOSITION OFF 
N8510 G181 D0.25 U0.75 
N8515 X47.442 Y274.484 
N8520 ; DEPOSITION ON 
N8525 G180 D0.25 U0.75 
N8530 X252.559 Y69.366 
N8535 ; DEPOSITION OFF 
N8540 G181 D0.25 U0.75 
N8545 X250.202 Y67.009 
N8550 ; DEPOSITION ON 
N8555 G180 D0.25 U0.75 
N8560 X223.558 Y93.652 
N8565 ; DEPOSITION OFF 
N8570 G181 D0.25 U0.75 
N8575 G0 X64.986 Y252.225 
N8580 ; DEPOSITION ON 
N8585 G180 D0.25 U0.75 
N8590 G1 X45.084 Y272.126 F508 
N8595 ; DEPOSITION OFF 
N8600 G181 D0.25 U0.75 
N8605 X42.727 Y269.768 
N8610 ; DEPOSITION ON 
N8615 G180 D0.25 U0.75 
N8620 X62.628 Y249.867 
N8625 ; DEPOSITION OFF 
N8630 G181 D0.25 U0.75 
N8635 G0 X221.201 Y91.295 
N8640 ; DEPOSITION ON 
N8645 G180 D0.25 U0.75 
N8650 G1 X247.844 Y64.651 F508 
N8655 ; DEPOSITION OFF 
N8660 G181 D0.25 U0.75 
N8665 X245.486 Y62.293 
N8670 ; DEPOSITION ON 
N8675 G180 D0.25 U0.75 
N8680 X218.843 Y88.937 
N8685 ; DEPOSITION OFF 
N8690 G181 D0.25 U0.75 
N8695 G0 X60.271 Y247.509 
N8700 ; DEPOSITION ON 
N8705 G180 D0.25 U0.75 
N8710 G1 X40.369 Y267.411 F508 
N8715 ; DEPOSITION OFF 
N8720 G181 D0.25 U0.75 
N8725 X38.012 Y265.053 
N8730 ; DEPOSITION ON 
N8735 G180 D0.25 U0.75 
N8740 X57.913 Y245.152 
N8745 ; DEPOSITION OFF 
N8750 G181 D0.25 U0.75 
N8755 G0 X216.485 Y86.579 
N8760 ; DEPOSITION ON 
N8765 G180 D0.25 U0.75 
N8770 G1 X243.129 Y59.936 F508 
N8775 ; DEPOSITION OFF 
N8780 G181 D0.25 U0.75 
N8785 X240.771 Y57.578 
N8790 ; DEPOSITION ON 
N8795 G180 D0.25 U0.75 
N8800 X214.128 Y84.222 
N8805 ; DEPOSITION OFF 
N8810 G181 D0.25 U0.75 
N8815 G0 X55.555 Y242.794 
N8820 ; DEPOSITION ON 
N8825 G180 D0.25 U0.75 
N8830 G1 X35.654 Y262.695 F508 
N8835 ; DEPOSITION OFF 
N8840 G181 D0.25 U0.75 
N8845 X33.296 Y260.338 
N8850 ; DEPOSITION ON 
N8855 G180 D0.25 U0.75 
N8860 X53.198 Y240.436 
N8865 ; DEPOSITION OFF 
N8870 G181 D0.25 U0.75 
N8875 G0 X211.77 Y81.864 
N8880 ; DEPOSITION ON 
N8885 G180 D0.25 U0.75 
N8890 G1 X238.413 Y55.221 F508 
N8895 ; DEPOSITION OFF 
N8900 G181 D0.25 U0.75 
N8905 X236.056 Y52.863 
N8910 ; DEPOSITION ON 
N8915 G180 D0.25 U0.75 
N8920 X209.412 Y79.506 
N8925 ; DEPOSITION OFF 
N8930 G181 D0.25 U0.75 
N8935 G0 X50.84 Y238.079 
N8940 ; DEPOSITION ON 
N8945 G180 D0.25 U0.75 
N8950 G1 X30.939 Y257.98 F508 
N8955 ; DEPOSITION OFF 
N8960 G181 D0.25 U0.75 
N8965 X28.581 Y255.622 
N8970 ; DEPOSITION ON 
N8975 G180 D0.25 U0.75 
N8980 X48.482 Y235.721 
N8985 ; DEPOSITION OFF 
N8990 G181 D0.25 U0.75 
N8995 G0 X207.055 Y77.149 
N9000 ; DEPOSITION ON 
N9005 G180 D0.25 U0.75 
N9010 G1 X233.698 Y50.505 F508 
N9015 ; DEPOSITION OFF 
N9020 G181 D0.25 U0.75 
N9025 X231.34 Y48.148 
N9030 ; DEPOSITION ON 
N9035 G180 D0.25 U0.75 
N9040 X204.697 Y74.791 
N9045 ; DEPOSITION OFF 
N9050 G181 D0.25 U0.75 
N9055 G0 X46.125 Y233.363 
N9060 ; DEPOSITION ON 
N9065 G180 D0.25 U0.75 
N9070 G1 X26.223 Y253.265 F508 
N9075 ; DEPOSITION OFF 
N9080 G181 D0.25 U0.75 
N9085 X23.866 Y250.907 
N9090 ; DEPOSITION ON 
N9095 G180 D0.25 U0.75 
N9100 X43.767 Y231.006 
N9105 ; DEPOSITION OFF 
N9110 G181 D0.25 U0.75 
N9115 G0 X202.339 Y72.433 
N9120 ; DEPOSITION ON 
N9125 G180 D0.25 U0.75 
N9130 G1 X228.983 Y45.79 F508 
N9135 ; DEPOSITION OFF 
N9140 G181 D0.25 U0.75 
N9145 X226.625 Y43.432 
N9150 ; DEPOSITION ON 
N9155 G180 D0.25 U0.75 
N9160 X21.508 Y248.549 
N9165 ; DEPOSITION OFF 
N9170 G181 D0.25 U0.75 
N9175 X19.15 Y246.192 
N9180 ; DEPOSITION ON 
N9185 G180 D0.25 U0.75 
N9190 X224.267 Y41.075 
N9195 ; DEPOSITION OFF 
N9200 G181 D0.25 U0.75 
N9205 X221.91 Y38.717 
N9210 ; DEPOSITION ON 
N9215 G180 D0.25 U0.75 
N9220 X16.793 Y243.834 
N9225 ; DEPOSITION OFF 
N9230 G181 D0.25 U0.75 
N9235 X14.435 Y241.476 
N9240 ; DEPOSITION ON 
N9245 G180 D0.25 U0.75 
N9250 X219.552 Y36.359 
N9255 ; DEPOSITION OFF 
N9260 G181 D0.25 U0.75 
N9265 X217.194 Y34.002 
N9270 ; DEPOSITION ON 
N9275 G180 D0.25 U0.75 
N9280 X12.077 Y239.119 
N9285 ; DEPOSITION OFF 
N9290 G181 D0.25 U0.75 
N9295 G0 X188.193 Y58.287 
N9300 ; DEPOSITION ON 
N9305 G180 D0.25 U0.75 
N9310 G1 X214.837 Y31.644 F508 
N9315 ; DEPOSITION OFF 
N9320 G181 D0.25 U0.75 
N9325 X212.479 Y29.286 
N9330 ; DEPOSITION ON 
N9335 G180 D0.25 U0.75 
N9340 X185.836 Y55.93 
N9345 G181 D0.25 U0.75 
N9350 V.P.layer_num = 8 
N9355 P12011=0 
N9360 #PCALL decking.nc P1 = V.P.layer_num 
N9365 P12012= 8 
N9370 P12011=1 
N9375 ; LAYER 8 END 
N9380 ; DEPOSITION OFF 
N9385 G181 D0.25 U0.75 
N9390 G0 Z18 
N9395 X274.511 Y90.095 
N9400 ; LAYER 9 START 
N9405 ; DEPOSITION ON 
N9410 G180 D0.25 U0.75 
N9415 G1 X247.256 Y117.35 F508 
N9420 ; DEPOSITION OFF 
N9425 G181 D0.25 U0.75 
N9430 X244.889 Y114.983 
N9435 ; DEPOSITION ON 
N9440 G180 D0.25 U0.75 
N9445 X272.144 Y87.728 
N9450 ; DEPOSITION OFF 
N9455 G181 D0.25 U0.75 
N9460 X269.777 Y85.361 
N9465 ; DEPOSITION ON 
N9470 G180 D0.25 U0.75 
N9475 X242.522 Y112.616 
N9480 ; DEPOSITION OFF 
N9485 G181 D0.25 U0.75 
N9490 X240.155 Y110.249 
N9495 ; DEPOSITION ON 
N9500 G180 D0.25 U0.75 
N9505 X267.41 Y82.994 
N9510 ; DEPOSITION OFF 
N9515 G181 D0.25 U0.75 
N9520 X265.043 Y80.627 
N9525 ; DEPOSITION ON 
N9530 G180 D0.25 U0.75 
N9535 X237.788 Y107.882 
N9540 ; DEPOSITION OFF 
N9545 G181 D0.25 U0.75 
N9550 X235.421 Y105.515 
N9555 ; DEPOSITION ON 
N9560 G180 D0.25 U0.75 
N9565 X262.676 Y78.26 
N9570 ; DEPOSITION OFF 
N9575 G181 D0.25 U0.75 
N9580 X260.309 Y75.893 
N9585 ; DEPOSITION ON 
N9590 G180 D0.25 U0.75 
N9595 X233.054 Y103.148 
N9600 ; DEPOSITION OFF 
N9605 G181 D0.25 U0.75 
N9610 G0 X52.012 Y279.457 
N9615 ; DEPOSITION ON 
N9620 G180 D0.25 U0.75 
N9625 G1 X257.942 Y73.526 F508 
N9630 ; DEPOSITION OFF 
N9635 G181 D0.25 U0.75 
N9640 X255.575 Y71.159 
N9645 ; DEPOSITION ON 
N9650 G180 D0.25 U0.75 
N9655 X49.645 Y277.09 
N9660 ; DEPOSITION OFF 
N9665 G181 D0.25 U0.75 
N9670 X47.278 Y274.723 
N9675 ; DEPOSITION ON 
N9680 G180 D0.25 U0.75 
N9685 X253.208 Y68.792 
N9690 ; DEPOSITION OFF 
N9695 G181 D0.25 U0.75 
N9700 X250.841 Y66.425 
N9705 ; DEPOSITION ON 
N9710 G180 D0.25 U0.75 
N9715 X223.586 Y93.68 
N9720 ; DEPOSITION OFF 
N9725 G181 D0.25 U0.75 
N9730 G0 X65.014 Y252.253 
N9735 ; DEPOSITION ON 
N9740 G180 D0.25 U0.75 
N9745 G1 X44.911 Y272.356 F508 
N9750 ; DEPOSITION OFF 
N9755 G181 D0.25 U0.75 
N9760 X42.544 Y269.989 
N9765 ; DEPOSITION ON 
N9770 G180 D0.25 U0.75 
N9775 X62.647 Y249.886 
N9780 ; DEPOSITION OFF 
N9785 G181 D0.25 U0.75 
N9790 G0 X221.219 Y91.313 
N9795 ; DEPOSITION ON 
N9800 G180 D0.25 U0.75 
N9805 G1 X248.474 Y64.058 F508 
N9810 ; DEPOSITION OFF 
N9815 G181 D0.25 U0.75 
N9820 X246.107 Y61.691 
N9825 ; DEPOSITION ON 
N9830 G180 D0.25 U0.75 
N9835 X218.852 Y88.946 
N9840 ; DEPOSITION OFF 
N9845 G181 D0.25 U0.75 
N9850 G0 X60.28 Y247.519 
N9855 ; DEPOSITION ON 
N9860 G180 D0.25 U0.75 
N9865 G1 X40.177 Y267.622 F508 
N9870 ; DEPOSITION OFF 
N9875 G181 D0.25 U0.75 
N9880 X37.81 Y265.255 
N9885 ; DEPOSITION ON 
N9890 G180 D0.25 U0.75 
N9895 X57.913 Y245.152 
N9900 ; DEPOSITION OFF 
N9905 G181 D0.25 U0.75 
N9910 G0 X216.485 Y86.579 
N9915 ; DEPOSITION ON 
N9920 G180 D0.25 U0.75 
N9925 G1 X243.74 Y59.324 F508 
N9930 ; DEPOSITION OFF 
N9935 G181 D0.25 U0.75 
N9940 X241.373 Y56.957 
N9945 ; DEPOSITION ON 
N9950 G180 D0.25 U0.75 
N9955 X214.118 Y84.212 
N9960 ; DEPOSITION OFF 
N9965 G181 D0.25 U0.75 
N9970 G0 X55.546 Y242.785 
N9975 ; DEPOSITION ON 
N9980 G180 D0.25 U0.75 
N9985 G1 X35.443 Y262.888 F508 
N9990 ; DEPOSITION OFF 
N9995 G181 D0.25 U0.75 
N10000 X33.076 Y260.521 
N10005 ; DEPOSITION ON 
N10010 G180 D0.25 U0.75 
N10015 X53.179 Y240.418 
N10020 ; DEPOSITION OFF 
N10025 G181 D0.25 U0.75 
N10030 G0 X211.751 Y81.845 
N10035 ; DEPOSITION ON 
N10040 G180 D0.25 U0.75 
N10045 G1 X239.006 Y54.59 F508 
N10050 ; DEPOSITION OFF 
N10055 G181 D0.25 U0.75 
N10060 X236.639 Y52.223 
N10065 ; DEPOSITION ON 
N10070 G180 D0.25 U0.75 
N10075 X209.384 Y79.478 
N10080 ; DEPOSITION OFF 
N10085 G181 D0.25 U0.75 
N10090 G0 X50.812 Y238.051 
N10095 ; DEPOSITION ON 
N10100 G180 D0.25 U0.75 
N10105 G1 X30.709 Y258.154 F508 
N10110 ; DEPOSITION OFF 
N10115 G181 D0.25 U0.75 
N10120 X28.342 Y255.786 
N10125 ; DEPOSITION ON 
N10130 G180 D0.25 U0.75 
N10135 X48.445 Y235.684 
N10140 ; DEPOSITION OFF 
N10145 G181 D0.25 U0.75 
N10150 G0 X207.017 Y77.111 
N10155 ; DEPOSITION ON 
N10160 G180 D0.25 U0.75 
N10165 G1 X234.272 Y49.856 F508 
N10170 ; DEPOSITION OFF 
N10175 G181 D0.25 U0.75 
N10180 X231.905 Y47.489 
N10185 ; DEPOSITION ON 
N10190 G180 D0.25 U0.75 
N10195 X204.65 Y74.744 
N10200 ; DEPOSITION OFF 
N10205 G181 D0.25 U0.75 
N10210 G0 X46.078 Y233.317 
N10215 ; DEPOSITION ON 
N10220 G180 D0.25 U0.75 
N10225 G1 X25.975 Y253.419 F508 
N10230 ; DEPOSITION OFF 
N10235 G181 D0.25 U0.75 
N10240 X23.608 Y251.052 
N10245 ; DEPOSITION ON 
N10250 G180 D0.25 U0.75 
N10255 X43.711 Y230.95 
N10260 ; DEPOSITION OFF 
N10265 G181 D0.25 U0.75 
N10270 G0 X202.283 Y72.377 
N10275 ; DEPOSITION ON 
N10280 G180 D0.25 U0.75 
N10285 G1 X229.538 Y45.122 F508 
N10290 ; DEPOSITION OFF 
N10295 G181 D0.25 U0.75 
N10300 X227.171 Y42.755 
N10305 ; DEPOSITION ON 
N10310 G180 D0.25 U0.75 
N10315 X21.241 Y248.685 
N10320 ; DEPOSITION OFF 
N10325 G181 D0.25 U0.75 
N10330 X18.874 Y246.318 
N10335 ; DEPOSITION ON 
N10340 G180 D0.25 U0.75 
N10345 X224.804 Y40.388 
N10350 ; DEPOSITION OFF 
N10355 G181 D0.25 U0.75 
N10360 X222.437 Y38.021 
N10365 ; DEPOSITION ON 
N10370 G180 D0.25 U0.75 
N10375 X16.507 Y243.951 
N10380 ; DEPOSITION OFF 
N10385 G181 D0.25 U0.75 
N10390 X14.14 Y241.584 
N10395 ; DEPOSITION ON 
N10400 G180 D0.25 U0.75 
N10405 X220.07 Y35.654 
N10410 ; DEPOSITION OFF 
N10415 G181 D0.25 U0.75 
N10420 X217.703 Y33.287 
N10425 ; DEPOSITION ON 
N10430 G180 D0.25 U0.75 
N10435 X11.773 Y239.217 
N10440 ; DEPOSITION OFF 
N10445 G181 D0.25 U0.75 
N10450 G0 X188.081 Y58.175 
N10455 ; DEPOSITION ON 
N10460 G180 D0.25 U0.75 
N10465 G1 X215.336 Y30.92 F508 
N10470 ; DEPOSITION OFF 
N10475 G181 D0.25 U0.75 
N10480 X212.969 Y28.553 
N10485 ; DEPOSITION ON 
N10490 G180 D0.25 U0.75 
N10495 X185.714 Y55.808 
N10500 G181 D0.25 U0.75 
N10505 V.P.layer_num = 9 
N10510 P12011=0 
N10515 #PCALL decking.nc P1 = V.P.layer_num 
N10520 P12012= 9 
N10525 P12011=1 
N10530 ; LAYER 9 END 
N10535 ; DEPOSITION OFF 
N10540 G181 D0.25 U0.75 
N10545 G0 Z20 
N10550 X275.256 Y89.617 
N10555 ; LAYER 10 START 
N10560 ; DEPOSITION ON 
N10565 G180 D0.25 U0.75 
N10570 G1 X247.39 Y117.483 F508 
N10575 ; DEPOSITION OFF 
N10580 G181 D0.25 U0.75 
N10585 X245.012 Y115.106 
N10590 ; DEPOSITION ON 
N10595 G180 D0.25 U0.75 
N10600 X272.878 Y87.24 
N10605 ; DEPOSITION OFF 
N10610 G181 D0.25 U0.75 
N10615 X270.501 Y84.863 
N10620 ; DEPOSITION ON 
N10625 G180 D0.25 U0.75 
N10630 X242.635 Y112.729 
N10635 ; DEPOSITION OFF 
N10640 G181 D0.25 U0.75 
N10645 X240.258 Y110.352 
N10650 ; DEPOSITION ON 
N10655 G180 D0.25 U0.75 
N10660 X268.124 Y82.485 
N10665 ; DEPOSITION OFF 
N10670 G181 D0.25 U0.75 
N10675 X265.747 Y80.108 
N10680 ; DEPOSITION ON 
N10685 G180 D0.25 U0.75 
N10690 X237.881 Y107.974 
N10695 ; DEPOSITION OFF 
N10700 G181 D0.25 U0.75 
N10705 X235.503 Y105.597 
N10710 ; DEPOSITION ON 
N10715 G180 D0.25 U0.75 
N10720 X263.369 Y77.731 
N10725 ; DEPOSITION OFF 
N10730 G181 D0.25 U0.75 
N10735 X260.992 Y75.354 
N10740 ; DEPOSITION ON 
N10745 G180 D0.25 U0.75 
N10750 X233.126 Y103.22 
N10755 ; DEPOSITION OFF 
N10760 G181 D0.25 U0.75 
N10765 G0 X51.794 Y279.798 
N10770 ; DEPOSITION ON 
N10775 G180 D0.25 U0.75 
N10780 G1 X258.615 Y72.976 F508 
N10785 ; DEPOSITION OFF 
N10790 G181 D0.25 U0.75 
N10795 X256.238 Y70.599 
N10800 ; DEPOSITION ON 
N10805 G180 D0.25 U0.75 
N10810 X49.416 Y277.421 
N10815 ; DEPOSITION OFF 
N10820 G181 D0.25 U0.75 
N10825 X47.039 Y275.043 
N10830 ; DEPOSITION ON 
N10835 G180 D0.25 U0.75 
N10840 X253.86 Y68.222 
N10845 ; DEPOSITION OFF 
N10850 G181 D0.25 U0.75 
N10855 X251.483 Y65.845 
N10860 ; DEPOSITION ON 
N10865 G180 D0.25 U0.75 
N10870 X223.617 Y93.711 
N10875 ; DEPOSITION OFF 
N10880 G181 D0.25 U0.75 
N10885 G0 X65.045 Y252.283 
N10890 ; DEPOSITION ON 
N10895 G180 D0.25 U0.75 
N10900 G1 X44.662 Y272.666 F508 
N10905 ; DEPOSITION OFF 
N10910 G181 D0.25 U0.75 
N10915 X42.285 Y270.289 
N10920 ; DEPOSITION ON 
N10925 G180 D0.25 U0.75 
N10930 X62.667 Y249.906 
N10935 ; DEPOSITION OFF 
N10940 G181 D0.25 U0.75 
N10945 G0 X221.24 Y91.334 
N10950 ; DEPOSITION ON 
N10955 G180 D0.25 U0.75 
N10960 G1 X249.106 Y63.467 F508 
N10965 ; DEPOSITION OFF 
N10970 G181 D0.25 U0.75 
N10975 X246.729 Y61.09 
N10980 ; DEPOSITION ON 
N10985 G180 D0.25 U0.75 
N10990 X218.863 Y88.956 
N10995 ; DEPOSITION OFF 
N11000 G181 D0.25 U0.75 
N11005 G0 X60.29 Y247.529 
N11010 ; DEPOSITION ON 
N11015 G180 D0.25 U0.75 
N11020 G1 X39.907 Y267.912 F508 
N11025 ; DEPOSITION OFF 
N11030 G181 D0.25 U0.75 
N11035 X37.53 Y265.534 
N11040 ; DEPOSITION ON 
N11045 G180 D0.25 U0.75 
N11050 X57.913 Y245.152 
N11055 ; DEPOSITION OFF 
N11060 G181 D0.25 U0.75 
N11065 G0 X216.485 Y86.579 
N11070 ; DEPOSITION ON 
N11075 G180 D0.25 U0.75 
N11080 G1 X244.351 Y58.713 F508 
N11085 ; DEPOSITION OFF 
N11090 G181 D0.25 U0.75 
N11095 X241.974 Y56.336 
N11100 ; DEPOSITION ON 
N11105 G180 D0.25 U0.75 
N11110 X214.108 Y84.202 
N11115 ; DEPOSITION OFF 
N11120 G181 D0.25 U0.75 
N11125 G0 X55.536 Y242.774 
N11130 ; DEPOSITION ON 
N11135 G180 D0.25 U0.75 
N11140 G1 X35.153 Y263.157 F508 
N11145 ; DEPOSITION OFF 
N11150 G181 D0.25 U0.75 
N11155 X32.776 Y260.78 
N11160 ; DEPOSITION ON 
N11165 G180 D0.25 U0.75 
N11170 X53.158 Y240.397 
N11175 ; DEPOSITION OFF 
N11180 G181 D0.25 U0.75 
N11185 G0 X211.731 Y81.825 
N11190 ; DEPOSITION ON 
N11195 G180 D0.25 U0.75 
N11200 G1 X239.597 Y53.958 F508 
N11205 ; DEPOSITION OFF 
N11210 G181 D0.25 U0.75 
N11215 X237.22 Y51.581 
N11220 ; DEPOSITION ON 
N11225 G180 D0.25 U0.75 
N11230 X209.354 Y79.447 
N11235 ; DEPOSITION OFF 
N11240 G181 D0.25 U0.75 
N11245 G0 X50.781 Y238.02 
N11250 ; DEPOSITION ON 
N11255 G180 D0.25 U0.75 
N11260 G1 X30.398 Y258.403 F508 
N11265 ; DEPOSITION OFF 
N11270 G181 D0.25 U0.75 
N11275 X28.021 Y256.025 
N11280 ; DEPOSITION ON 
N11285 G180 D0.25 U0.75 
N11290 X48.404 Y235.643 
N11295 ; DEPOSITION OFF 
N11300 G181 D0.25 U0.75 
N11305 G0 X206.976 Y77.07 
N11310 ; DEPOSITION ON 
N11315 G180 D0.25 U0.75 
N11320 G1 X234.842 Y49.204 F508 
N11325 ; DEPOSITION OFF 
N11330 G181 D0.25 U0.75 
N11335 X232.465 Y46.827 
N11340 ; DEPOSITION ON 
N11345 G180 D0.25 U0.75 
N11350 X204.599 Y74.693 
N11355 ; DEPOSITION OFF 
N11360 G181 D0.25 U0.75 
N11365 G0 X46.027 Y233.265 
N11370 ; DEPOSITION ON 
N11375 G180 D0.25 U0.75 
N11380 G1 X25.644 Y253.648 F508 
N11385 ; DEPOSITION OFF 
N11390 G181 D0.25 U0.75 
N11395 X23.267 Y251.271 
N11400 ; DEPOSITION ON 
N11405 G180 D0.25 U0.75 
N11410 X43.649 Y230.888 
N11415 ; DEPOSITION OFF 
N11420 G181 D0.25 U0.75 
N11425 G0 X202.222 Y72.316 
N11430 ; DEPOSITION ON 
N11435 G180 D0.25 U0.75 
N11440 G1 X230.088 Y44.449 F508 
N11445 ; DEPOSITION OFF 
N11450 G181 D0.25 U0.75 
N11455 X227.711 Y42.072 
N11460 ; DEPOSITION ON 
N11465 G180 D0.25 U0.75 
N11470 X20.889 Y248.894 
N11475 ; DEPOSITION OFF 
N11480 G181 D0.25 U0.75 
N11485 X18.512 Y246.516 
N11490 ; DEPOSITION ON 
N11495 G180 D0.25 U0.75 
N11500 X225.333 Y39.695 
N11505 ; DEPOSITION OFF 
N11510 G181 D0.25 U0.75 
N11515 X222.956 Y37.318 
N11520 ; DEPOSITION ON 
N11525 G180 D0.25 U0.75 
N11530 X16.135 Y244.139 
N11535 ; DEPOSITION OFF 
N11540 G181 D0.25 U0.75 
N11545 X13.758 Y241.762 
N11550 ; DEPOSITION ON 
N11555 G180 D0.25 U0.75 
N11560 X220.579 Y34.94 
N11565 ; DEPOSITION OFF 
N11570 G181 D0.25 U0.75 
N11575 X218.202 Y32.563 
N11580 ; DEPOSITION ON 
N11585 G180 D0.25 U0.75 
N11590 X11.38 Y239.385 
N11595 ; DEPOSITION OFF 
N11600 G181 D0.25 U0.75 
N11605 G0 X187.958 Y58.052 
N11610 ; DEPOSITION ON 
N11615 G180 D0.25 U0.75 
N11620 G1 X215.824 Y30.186 F508 
N11625 ; DEPOSITION OFF 
N11630 G181 D0.25 U0.75 
N11635 X213.447 Y27.809 
N11640 ; DEPOSITION ON 
N11645 G180 D0.25 U0.75 
N11650 X185.581 Y55.675 
N11655 G181 D0.25 U0.75 
N11660 V.P.layer_num = 10 
N11665 P12011=0 
N11670 #PCALL decking.nc P1 = V.P.layer_num 
N11675 P12012= 10 
N11680 P12011=1 
N11685 ; LAYER 10 END 
N11690 ; DEPOSITION OFF 
N11695 G181 D0.25 U0.75 
N11700 G0 Z22 
N11705 X275.646 Y88.785 
N11710 ; LAYER 11 START 
N11715 ; DEPOSITION ON 
N11720 G180 D0.25 U0.75 
N11725 G1 X247.169 Y117.263 F508 
N11730 ; DEPOSITION OFF 
N11735 G181 D0.25 U0.75 
N11740 X244.808 Y114.902 
N11745 ; DEPOSITION ON 
N11750 G180 D0.25 U0.75 
N11755 X273.286 Y86.425 
N11760 ; DEPOSITION OFF 
N11765 G181 D0.25 U0.75 
N11770 X270.926 Y84.064 
N11775 ; DEPOSITION ON 
N11780 G180 D0.25 U0.75 
N11785 X242.448 Y112.542 
N11790 ; DEPOSITION OFF 
N11795 G181 D0.25 U0.75 
N11800 X240.088 Y110.182 
N11805 ; DEPOSITION ON 
N11810 G180 D0.25 U0.75 
N11815 X268.565 Y81.704 
N11820 ; DEPOSITION OFF 
N11825 G181 D0.25 U0.75 
N11830 X266.205 Y79.344 
N11835 ; DEPOSITION ON 
N11840 G180 D0.25 U0.75 
N11845 X237.728 Y107.822 
N11850 ; DEPOSITION OFF 
N11855 G181 D0.25 U0.75 
N11860 X235.367 Y105.461 
N11865 ; DEPOSITION ON 
N11870 G180 D0.25 U0.75 
N11875 X263.845 Y76.984 
N11880 ; DEPOSITION OFF 
N11885 G181 D0.25 U0.75 
N11890 X261.485 Y74.623 
N11895 ; DEPOSITION ON 
N11900 G180 D0.25 U0.75 
N11905 X233.007 Y103.101 
N11910 ; DEPOSITION OFF 
N11915 G181 D0.25 U0.75 
N11920 G0 X51.421 Y279.966 
N11925 ; DEPOSITION ON 
N11930 G180 D0.25 U0.75 
N11935 G1 X259.124 Y72.263 F508 
N11940 ; DEPOSITION OFF 
N11945 G181 D0.25 U0.75 
N11950 X256.764 Y69.903 
N11955 ; DEPOSITION ON 
N11960 G180 D0.25 U0.75 
N11965 X49.061 Y277.606 
N11970 ; DEPOSITION OFF 
N11975 G181 D0.25 U0.75 
N11980 X46.701 Y275.246 
N11985 ; DEPOSITION ON 
N11990 G180 D0.25 U0.75 
N11995 X254.404 Y67.543 
N12000 ; DEPOSITION OFF 
N12005 G181 D0.25 U0.75 
N12010 X252.044 Y65.182 
N12015 ; DEPOSITION ON 
N12020 G180 D0.25 U0.75 
N12025 X223.566 Y93.66 
N12030 ; DEPOSITION OFF 
N12035 G181 D0.25 U0.75 
N12040 G0 X64.994 Y252.232 
N12045 ; DEPOSITION ON 
N12050 G180 D0.25 U0.75 
N12055 G1 X44.34 Y272.886 F508 
N12060 ; DEPOSITION OFF 
N12065 G181 D0.25 U0.75 
N12070 X41.98 Y270.525 
N12075 ; DEPOSITION ON 
N12080 G180 D0.25 U0.75 
N12085 X62.633 Y249.872 
N12090 ; DEPOSITION OFF 
N12095 G181 D0.25 U0.75 
N12100 G0 X221.206 Y91.3 
N12105 ; DEPOSITION ON 
N12110 G180 D0.25 U0.75 
N12115 G1 X249.683 Y62.822 F508 
N12120 ; DEPOSITION OFF 
N12125 G181 D0.25 U0.75 
N12130 X247.323 Y60.462 
N12135 ; DEPOSITION ON 
N12140 G180 D0.25 U0.75 
N12145 X218.846 Y88.939 
N12150 ; DEPOSITION OFF 
N12155 G181 D0.25 U0.75 
N12160 G0 X60.273 Y247.512 
N12165 ; DEPOSITION ON 
N12170 G180 D0.25 U0.75 
N12175 G1 X39.62 Y268.165 F508 
N12180 ; DEPOSITION OFF 
N12185 G181 D0.25 U0.75 
N12190 X37.26 Y265.805 
N12195 ; DEPOSITION ON 
N12200 G180 D0.25 U0.75 
N12205 X57.913 Y245.152 
N12210 ; DEPOSITION OFF 
N12215 G181 D0.25 U0.75 
N12220 G0 X216.485 Y86.579 
N12225 ; DEPOSITION ON 
N12230 G180 D0.25 U0.75 
N12235 G1 X244.963 Y58.102 F508 
N12240 ; DEPOSITION OFF 
N12245 G181 D0.25 U0.75 
N12250 X242.603 Y55.741 
N12255 ; DEPOSITION ON 
N12260 G180 D0.25 U0.75 
N12265 X214.125 Y84.219 
N12270 ; DEPOSITION OFF 
N12275 G181 D0.25 U0.75 
N12280 G0 X55.553 Y242.791 
N12285 ; DEPOSITION ON 
N12290 G180 D0.25 U0.75 
N12295 G1 X34.899 Y263.445 F508 
N12300 ; DEPOSITION OFF 
N12305 G181 D0.25 U0.75 
N12310 X32.539 Y261.084 
N12315 ; DEPOSITION ON 
N12320 G180 D0.25 U0.75 
N12325 X53.192 Y240.431 
N12330 ; DEPOSITION OFF 
N12335 G181 D0.25 U0.75 
N12340 G0 X211.765 Y81.859 
N12345 ; DEPOSITION ON 
N12350 G180 D0.25 U0.75 
N12355 G1 X240.242 Y53.381 F508 
N12360 ; DEPOSITION OFF 
N12365 G181 D0.25 U0.75 
N12370 X237.882 Y51.021 
N12375 ; DEPOSITION ON 
N12380 G180 D0.25 U0.75 
N12385 X209.404 Y79.498 
N12390 ; DEPOSITION OFF 
N12395 G181 D0.25 U0.75 
N12400 G0 X50.832 Y238.071 
N12405 ; DEPOSITION ON 
N12410 G180 D0.25 U0.75 
N12415 G1 X30.179 Y258.724 F508 
N12420 ; DEPOSITION OFF 
N12425 G181 D0.25 U0.75 
N12430 X27.819 Y256.364 
N12435 ; DEPOSITION ON 
N12440 G180 D0.25 U0.75 
N12445 X48.472 Y235.711 
N12450 ; DEPOSITION OFF 
N12455 G181 D0.25 U0.75 
N12460 G0 X207.044 Y77.138 
N12465 ; DEPOSITION ON 
N12470 G180 D0.25 U0.75 
N12475 G1 X235.522 Y48.661 F508 
N12480 ; DEPOSITION OFF 
N12485 G181 D0.25 U0.75 
N12490 X233.162 Y46.3 
N12495 ; DEPOSITION ON 
N12500 G180 D0.25 U0.75 
N12505 X204.684 Y74.778 
N12510 ; DEPOSITION OFF 
N12515 G181 D0.25 U0.75 
N12520 G0 X46.112 Y233.35 
N12525 ; DEPOSITION ON 
N12530 G180 D0.25 U0.75 
N12535 G1 X25.458 Y254.003 F508 
N12540 ; DEPOSITION OFF 
N12545 G181 D0.25 U0.75 
N12550 X23.098 Y251.643 
N12555 ; DEPOSITION ON 
N12560 G180 D0.25 U0.75 
N12565 X43.751 Y230.99 
N12570 ; DEPOSITION OFF 
N12575 G181 D0.25 U0.75 
N12580 G0 X202.324 Y72.418 
N12585 ; DEPOSITION ON 
N12590 G180 D0.25 U0.75 
N12595 G1 X230.801 Y43.94 F508 
N12600 ; DEPOSITION OFF 
N12605 G181 D0.25 U0.75 
N12610 X228.441 Y41.58 
N12615 ; DEPOSITION ON 
N12620 G180 D0.25 U0.75 
N12625 X20.738 Y249.283 
N12630 ; DEPOSITION OFF 
N12635 G181 D0.25 U0.75 
N12640 X18.378 Y246.923 
N12645 ; DEPOSITION ON 
N12650 G180 D0.25 U0.75 
N12655 X226.081 Y39.219 
N12660 ; DEPOSITION OFF 
N12665 G181 D0.25 U0.75 
N12670 X223.721 Y36.859 
N12675 ; DEPOSITION ON 
N12680 G180 D0.25 U0.75 
N12685 X16.017 Y244.562 
N12690 ; DEPOSITION OFF 
N12695 G181 D0.25 U0.75 
N12700 X13.657 Y242.202 
N12705 ; DEPOSITION ON 
N12710 G180 D0.25 U0.75 
N12715 X221.36 Y34.499 
N12720 ; DEPOSITION OFF 
N12725 G181 D0.25 U0.75 
N12730 X219 Y32.139 
N12735 ; DEPOSITION ON 
N12740 G180 D0.25 U0.75 
N12745 X11.297 Y239.842 
N12750 ; DEPOSITION OFF 
N12755 G181 D0.25 U0.75 
N12760 G0 X188.162 Y58.256 
N12765 ; DEPOSITION ON 
N12770 G180 D0.25 U0.75 
N12775 G1 X216.64 Y29.778 F508 
N12780 ; DEPOSITION OFF 
N12785 G181 D0.25 U0.75 
N12790 X214.28 Y27.418 
N12795 ; DEPOSITION ON 
N12800 G180 D0.25 U0.75 
N12805 X185.802 Y55.896 
N12810 G181 D0.25 U0.75 
N12815 V.P.layer_num = 11 
N12820 P12011=0 
N12825 #PCALL decking.nc P1 = V.P.layer_num 
N12830 P12012= 11 
N12835 P12011=1 
N12840 ; LAYER 11 END 
N12845 ; DEPOSITION OFF 
N12850 G181 D0.25 U0.75 
N12855 G0 Z24 
N12860 X276.387 Y88.302 
N12865 ; LAYER 12 START 
N12870 ; DEPOSITION ON 
N12875 G180 D0.25 U0.75 
N12880 G1 X247.297 Y117.391 F508 
N12885 ; DEPOSITION OFF 
N12890 G181 D0.25 U0.75 
N12895 X244.927 Y115.021 
N12900 ; DEPOSITION ON 
N12905 G180 D0.25 U0.75 
N12910 X274.016 Y85.932 
N12915 ; DEPOSITION OFF 
N12920 G181 D0.25 U0.75 
N12925 X271.646 Y83.562 
N12930 ; DEPOSITION ON 
N12935 G180 D0.25 U0.75 
N12940 X242.557 Y112.651 
N12945 ; DEPOSITION OFF 
N12950 G181 D0.25 U0.75 
N12955 X240.187 Y110.281 
N12960 ; DEPOSITION ON 
N12965 G180 D0.25 U0.75 
N12970 X269.276 Y81.192 
N12975 ; DEPOSITION OFF 
N12980 G181 D0.25 U0.75 
N12985 X266.906 Y78.822 
N12990 ; DEPOSITION ON 
N12995 G180 D0.25 U0.75 
N13000 X237.817 Y107.911 
N13005 ; DEPOSITION OFF 
N13010 G181 D0.25 U0.75 
N13015 X235.447 Y105.541 
N13020 ; DEPOSITION ON 
N13025 G180 D0.25 U0.75 
N13030 X264.536 Y76.451 
N13035 ; DEPOSITION OFF 
N13040 G181 D0.25 U0.75 
N13045 X262.165 Y74.081 
N13050 ; DEPOSITION ON 
N13055 G180 D0.25 U0.75 
N13060 X233.076 Y103.17 
N13065 ; DEPOSITION OFF 
N13070 G181 D0.25 U0.75 
N13075 G0 X51.22 Y280.287 
N13080 ; DEPOSITION ON 
N13085 G180 D0.25 U0.75 
N13090 G1 X259.795 Y71.711 F508 
N13095 ; DEPOSITION OFF 
N13100 G181 D0.25 U0.75 
N13105 X257.425 Y69.341 
N13110 ; DEPOSITION ON 
N13115 G180 D0.25 U0.75 
N13120 X48.85 Y277.917 
N13125 ; DEPOSITION OFF 
N13130 G181 D0.25 U0.75 
N13135 X46.479 Y275.546 
N13140 ; DEPOSITION ON 
N13145 G180 D0.25 U0.75 
N13150 X255.055 Y66.971 
N13155 ; DEPOSITION OFF 
N13160 G181 D0.25 U0.75 
N13165 X252.685 Y64.601 
N13170 ; DEPOSITION ON 
N13175 G180 D0.25 U0.75 
N13180 X223.596 Y93.69 
N13185 ; DEPOSITION OFF 
N13190 G181 D0.25 U0.75 
N13195 G0 X65.023 Y252.262 
N13200 ; DEPOSITION ON 
N13205 G180 D0.25 U0.75 
N13210 G1 X44.109 Y273.176 F508 
N13215 ; DEPOSITION OFF 
N13220 G181 D0.25 U0.75 
N13225 X41.739 Y270.806 
N13230 ; DEPOSITION ON 
N13235 G180 D0.25 U0.75 
N13240 X62.653 Y249.892 
N13245 ; DEPOSITION OFF 
N13250 G181 D0.25 U0.75 
N13255 G0 X221.226 Y91.32 
N13260 ; DEPOSITION ON 
N13265 G180 D0.25 U0.75 
N13270 G1 X250.315 Y62.23 F508 
N13275 ; DEPOSITION OFF 
N13280 G181 D0.25 U0.75 
N13285 X247.944 Y59.86 
N13290 ; DEPOSITION ON 
N13295 G180 D0.25 U0.75 
N13300 X218.855 Y88.949 
N13305 ; DEPOSITION OFF 
N13310 G181 D0.25 U0.75 
N13315 G0 X60.283 Y247.522 
N13320 ; DEPOSITION ON 
N13325 G180 D0.25 U0.75 
N13330 G1 X39.369 Y268.436 F508 
N13335 ; DEPOSITION OFF 
N13340 G181 D0.25 U0.75 
N13345 X36.999 Y266.066 
N13350 ; DEPOSITION ON 
N13355 G180 D0.25 U0.75 
N13360 X57.913 Y245.152 
N13365 ; DEPOSITION OFF 
N13370 G181 D0.25 U0.75 
N13375 G0 X216.485 Y86.579 
N13380 ; DEPOSITION ON 
N13385 G180 D0.25 U0.75 
N13390 G1 X245.574 Y57.49 F508 
N13395 ; DEPOSITION OFF 
N13400 G181 D0.25 U0.75 
N13405 X243.204 Y55.12 
N13410 ; DEPOSITION ON 
N13415 G180 D0.25 U0.75 
N13420 X214.115 Y84.209 
N13425 ; DEPOSITION OFF 
N13430 G181 D0.25 U0.75 
N13435 G0 X55.543 Y242.781 
N13440 ; DEPOSITION ON 
N13445 G180 D0.25 U0.75 
N13450 G1 X34.629 Y263.695 F508 
N13455 ; DEPOSITION OFF 
N13460 G181 D0.25 U0.75 
N13465 X32.258 Y261.325 
N13470 ; DEPOSITION ON 
N13475 G180 D0.25 U0.75 
N13480 X53.173 Y240.411 
N13485 ; DEPOSITION OFF 
N13490 G181 D0.25 U0.75 
N13495 G0 X211.745 Y81.839 
N13500 ; DEPOSITION ON 
N13505 G180 D0.25 U0.75 
N13510 G1 X240.834 Y52.75 F508 
N13515 ; DEPOSITION OFF 
N13520 G181 D0.25 U0.75 
N13525 X238.464 Y50.38 
N13530 ; DEPOSITION ON 
N13535 G180 D0.25 U0.75 
N13540 X209.375 Y79.469 
N13545 ; DEPOSITION OFF 
N13550 G181 D0.25 U0.75 
N13555 G0 X50.802 Y238.041 
N13560 ; DEPOSITION ON 
N13565 G180 D0.25 U0.75 
N13570 G1 X29.888 Y258.955 F508 
N13575 ; DEPOSITION OFF 
N13580 G181 D0.25 U0.75 
N13585 X27.518 Y256.585 
N13590 ; DEPOSITION ON 
N13595 G180 D0.25 U0.75 
N13600 X48.432 Y235.671 
N13605 ; DEPOSITION OFF 
N13610 G181 D0.25 U0.75 
N13615 G0 X207.005 Y77.099 
N13620 ; DEPOSITION ON 
N13625 G180 D0.25 U0.75 
N13630 G1 X236.094 Y48.009 F508 
N13635 ; DEPOSITION OFF 
N13640 G181 D0.25 U0.75 
N13645 X233.723 Y45.639 
N13650 ; DEPOSITION ON 
N13655 G180 D0.25 U0.75 
N13660 X204.634 Y74.728 
N13665 ; DEPOSITION OFF 
N13670 G181 D0.25 U0.75 
N13675 G0 X46.062 Y233.301 
N13680 ; DEPOSITION ON 
N13685 G180 D0.25 U0.75 
N13690 G1 X25.148 Y254.215 F508 
N13695 ; DEPOSITION OFF 
N13700 G181 D0.25 U0.75 
N13705 X22.778 Y251.845 
N13710 ; DEPOSITION ON 
N13715 G180 D0.25 U0.75 
N13720 X43.692 Y230.931 
N13725 ; DEPOSITION OFF 
N13730 G181 D0.25 U0.75 
N13735 G0 X202.264 Y72.358 
N13740 ; DEPOSITION ON 
N13745 G180 D0.25 U0.75 
N13750 G1 X231.353 Y43.269 F508 
N13755 ; DEPOSITION OFF 
N13760 G181 D0.25 U0.75 
N13765 X228.983 Y40.899 
N13770 ; DEPOSITION ON 
N13775 G180 D0.25 U0.75 
N13780 X20.408 Y249.474 
N13785 ; DEPOSITION OFF 
N13790 G181 D0.25 U0.75 
N13795 X18.037 Y247.104 
N13800 ; DEPOSITION ON 
N13805 G180 D0.25 U0.75 
N13810 X226.613 Y38.529 
N13815 ; DEPOSITION OFF 
N13820 G181 D0.25 U0.75 
N13825 X224.243 Y36.159 
N13830 ; DEPOSITION ON 
N13835 G180 D0.25 U0.75 
N13840 X15.667 Y244.734 
N13845 ; DEPOSITION OFF 
N13850 G181 D0.25 U0.75 
N13855 X13.297 Y242.364 
N13860 ; DEPOSITION ON 
N13865 G180 D0.25 U0.75 
N13870 X221.873 Y33.788 
N13875 ; DEPOSITION OFF 
N13880 G181 D0.25 U0.75 
N13885 X219.502 Y31.418 
N13890 ; DEPOSITION ON 
N13895 G180 D0.25 U0.75 
N13900 X10.927 Y239.994 
N13905 ; DEPOSITION OFF 
N13910 G181 D0.25 U0.75 
N13915 G0 X188.043 Y58.137 
N13920 ; DEPOSITION ON 
N13925 G180 D0.25 U0.75 
N13930 G1 X217.132 Y29.048 F508 
N13935 ; DEPOSITION OFF 
N13940 G181 D0.25 U0.75 
N13945 X214.762 Y26.678 
N13950 ; DEPOSITION ON 
N13955 G180 D0.25 U0.75 
N13960 X185.673 Y55.767 
N13965 G181 D0.25 U0.75 
N13970 V.P.layer_num = 12 
N13975 P12011=0 
N13980 #PCALL decking.nc P1 = V.P.layer_num 
N13985 P12012= 12 
N13990 P12011=1 
N13995 ; LAYER 12 END 
N14000 ; DEPOSITION OFF 
N14005 G181 D0.25 U0.75 
N14010 G0 Z26 
N14015 X277.125 Y87.818 
N14020 ; LAYER 13 START 
N14025 ; DEPOSITION ON 
N14030 G180 D0.25 U0.75 
N14035 G1 X247.425 Y117.519 F508 
N14040 ; DEPOSITION OFF 
N14045 G181 D0.25 U0.75 
N14050 X245.045 Y115.139 
N14055 ; DEPOSITION ON 
N14060 G180 D0.25 U0.75 
N14065 X274.745 Y85.438 
N14070 ; DEPOSITION OFF 
N14075 G181 D0.25 U0.75 
N14080 X272.365 Y83.058 
N14085 ; DEPOSITION ON 
N14090 G180 D0.25 U0.75 
N14095 X242.665 Y112.759 
N14100 ; DEPOSITION OFF 
N14105 G181 D0.25 U0.75 
N14110 X240.285 Y110.379 
N14115 ; DEPOSITION ON 
N14120 G180 D0.25 U0.75 
N14125 X269.986 Y80.678 
N14130 ; DEPOSITION OFF 
N14135 G181 D0.25 U0.75 
N14140 X267.606 Y78.298 
N14145 ; DEPOSITION ON 
N14150 G180 D0.25 U0.75 
N14155 X237.905 Y107.999 
N14160 ; DEPOSITION OFF 
N14165 G181 D0.25 U0.75 
N14170 X235.525 Y105.619 
N14175 ; DEPOSITION ON 
N14180 G180 D0.25 U0.75 
N14185 X265.226 Y75.919 
N14190 ; DEPOSITION OFF 
N14195 G181 D0.25 U0.75 
N14200 X262.846 Y73.539 
N14205 ; DEPOSITION ON 
N14210 G180 D0.25 U0.75 
N14215 X233.145 Y103.239 
N14220 ; DEPOSITION OFF 
N14225 G181 D0.25 U0.75 
N14230 G0 X51.027 Y280.597 
N14235 ; DEPOSITION ON 
N14240 G180 D0.25 U0.75 
N14245 G1 X260.466 Y71.159 F508 
N14250 ; DEPOSITION OFF 
N14255 G181 D0.25 U0.75 
N14260 X258.086 Y68.779 
N14265 ; DEPOSITION ON 
N14270 G180 D0.25 U0.75 
N14275 X48.647 Y278.217 
N14280 ; DEPOSITION OFF 
N14285 G181 D0.25 U0.75 
N14290 X46.267 Y275.837 
N14295 ; DEPOSITION ON 
N14300 G180 D0.25 U0.75 
N14305 X255.706 Y66.399 
N14310 ; DEPOSITION OFF 
N14315 G181 D0.25 U0.75 
N14320 X253.326 Y64.019 
N14325 ; DEPOSITION ON 
N14330 G180 D0.25 U0.75 
N14335 X223.625 Y93.719 
N14340 ; DEPOSITION OFF 
N14345 G181 D0.25 U0.75 
N14350 G0 X65.053 Y252.292 
N14355 ; DEPOSITION ON 
N14360 G180 D0.25 U0.75 
N14365 G1 X43.887 Y273.457 F508 
N14370 ; DEPOSITION OFF 
N14375 G181 D0.25 U0.75 
N14380 X41.507 Y271.077 
N14385 ; DEPOSITION ON 
N14390 G180 D0.25 U0.75 
N14395 X62.673 Y249.912 
N14400 ; DEPOSITION OFF 
N14405 G181 D0.25 U0.75 
N14410 G0 X221.245 Y91.339 
N14415 ; DEPOSITION ON 
N14420 G180 D0.25 U0.75 
N14425 G1 X250.946 Y61.639 F508 
N14430 ; DEPOSITION OFF 
N14435 G181 D0.25 U0.75 
N14440 X248.566 Y59.259 
N14445 ; DEPOSITION ON 
N14450 G180 D0.25 U0.75 
N14455 X218.865 Y88.959 
N14460 ; DEPOSITION OFF 
N14465 G181 D0.25 U0.75 
N14470 G0 X60.293 Y247.532 
N14475 ; DEPOSITION ON 
N14480 G180 D0.25 U0.75 
N14485 G1 X39.127 Y268.697 F508 
N14490 ; DEPOSITION OFF 
N14495 G181 D0.25 U0.75 
N14500 X36.747 Y266.317 
N14505 ; DEPOSITION ON 
N14510 G180 D0.25 U0.75 
N14515 X57.913 Y245.152 
N14520 ; DEPOSITION OFF 
N14525 G181 D0.25 U0.75 
N14530 G0 X216.485 Y86.579 
N14535 ; DEPOSITION ON 
N14540 G180 D0.25 U0.75 
N14545 G1 X246.186 Y56.879 F508 
N14550 ; DEPOSITION OFF 
N14555 G181 D0.25 U0.75 
N14560 X243.806 Y54.499 
N14565 ; DEPOSITION ON 
N14570 G180 D0.25 U0.75 
N14575 X214.105 Y84.199 
N14580 ; DEPOSITION OFF 
N14585 G181 D0.25 U0.75 
N14590 G0 X55.533 Y242.772 
N14595 ; DEPOSITION ON 
N14600 G180 D0.25 U0.75 
N14605 G1 X34.367 Y263.937 F508 
N14610 ; DEPOSITION OFF 
N14615 G181 D0.25 U0.75 
N14620 X31.987 Y261.557 
N14625 ; DEPOSITION ON 
N14630 G180 D0.25 U0.75 
N14635 X53.153 Y240.392 
N14640 ; DEPOSITION OFF 
N14645 G181 D0.25 U0.75 
N14650 G0 X211.725 Y81.819 
N14655 ; DEPOSITION ON 
N14660 G180 D0.25 U0.75 
N14665 G1 X241.426 Y52.119 F508 
N14670 ; DEPOSITION OFF 
N14675 G181 D0.25 U0.75 
N14680 X239.046 Y49.739 
N14685 ; DEPOSITION ON 
N14690 G180 D0.25 U0.75 
N14695 X209.345 Y79.439 
N14700 ; DEPOSITION OFF 
N14705 G181 D0.25 U0.75 
N14710 G0 X50.773 Y238.012 
N14715 ; DEPOSITION ON 
N14720 G180 D0.25 U0.75 
N14725 G1 X29.607 Y259.177 F508 
N14730 ; DEPOSITION OFF 
N14735 G181 D0.25 U0.75 
N14740 X27.227 Y256.797 
N14745 ; DEPOSITION ON 
N14750 G180 D0.25 U0.75 
N14755 X48.393 Y235.632 
N14760 ; DEPOSITION OFF 
N14765 G181 D0.25 U0.75 
N14770 G0 X206.965 Y77.059 
N14775 ; DEPOSITION ON 
N14780 G180 D0.25 U0.75 
N14785 G1 X236.666 Y47.359 F508 
N14790 ; DEPOSITION OFF 
N14795 G181 D0.25 U0.75 
N14800 X234.286 Y44.979 
N14805 ; DEPOSITION ON 
N14810 G180 D0.25 U0.75 
N14815 X204.585 Y74.679 
N14820 ; DEPOSITION OFF 
N14825 G181 D0.25 U0.75 
N14830 G0 X46.013 Y233.252 
N14835 ; DEPOSITION ON 
N14840 G180 D0.25 U0.75 
N14845 G1 X24.847 Y254.417 F508 
N14850 ; DEPOSITION OFF 
N14855 G181 D0.25 U0.75 
N14860 X22.467 Y252.037 
N14865 ; DEPOSITION ON 
N14870 G180 D0.25 U0.75 
N14875 X43.633 Y230.872 
N14880 ; DEPOSITION OFF 
N14885 G181 D0.25 U0.75 
N14890 G0 X202.205 Y72.299 
N14895 ; DEPOSITION ON 
N14900 G180 D0.25 U0.75 
N14905 G1 X231.906 Y42.599 F508 
N14910 ; DEPOSITION OFF 
N14915 G181 D0.25 U0.75 
N14920 X229.526 Y40.219 
N14925 ; DEPOSITION ON 
N14930 G180 D0.25 U0.75 
N14935 X20.087 Y249.657 
N14940 ; DEPOSITION OFF 
N14945 G181 D0.25 U0.75 
N14950 X17.708 Y247.277 
N14955 ; DEPOSITION ON 
N14960 G180 D0.25 U0.75 
N14965 X227.146 Y37.839 
N14970 ; DEPOSITION OFF 
N14975 G181 D0.25 U0.75 
N14980 X224.766 Y35.459 
N14985 ; DEPOSITION ON 
N14990 G180 D0.25 U0.75 
N14995 X15.328 Y244.897 
N15000 ; DEPOSITION OFF 
N15005 G181 D0.25 U0.75 
N15010 X12.948 Y242.517 
N15015 ; DEPOSITION ON 
N15020 G180 D0.25 U0.75 
N15025 X222.386 Y33.079 
N15030 ; DEPOSITION OFF 
N15035 G181 D0.25 U0.75 
N15040 X220.006 Y30.699 
N15045 ; DEPOSITION ON 
N15050 G180 D0.25 U0.75 
N15055 X10.568 Y240.137 
N15060 ; DEPOSITION OFF 
N15065 G181 D0.25 U0.75 
N15070 G0 X187.926 Y58.019 
N15075 ; DEPOSITION ON 
N15080 G180 D0.25 U0.75 
N15085 G1 X217.626 Y28.319 F508 
N15090 ; DEPOSITION OFF 
N15095 G181 D0.25 U0.75 
N15100 X215.246 Y25.939 
N15105 ; DEPOSITION ON 
N15110 G180 D0.25 U0.75 
N15115 X185.546 Y55.64 
N15120 G181 D0.25 U0.75 
N15125 V.P.layer_num = 13 
N15130 P12011=0 
N15135 #PCALL decking.nc P1 = V.P.layer_num 
N15140 P12012= 13 
N15145 P12011=1 
N15150 ; LAYER 13 END 
N15155 ; DEPOSITION OFF 
N15160 G181 D0.25 U0.75 
N15165 G0 Z28 
N15170 X277.514 Y86.984 
N15175 ; LAYER 14 START 
N15180 ; DEPOSITION ON 
N15185 G180 D0.25 U0.75 
N15190 G1 X247.202 Y117.296 F508 
N15195 ; DEPOSITION OFF 
N15200 G181 D0.25 U0.75 
N15205 X244.839 Y114.933 
N15210 ; DEPOSITION ON 
N15215 G180 D0.25 U0.75 
N15220 X275.151 Y84.621 
N15225 ; DEPOSITION OFF 
N15230 G181 D0.25 U0.75 
N15235 X272.788 Y82.258 
N15240 ; DEPOSITION ON 
N15245 G180 D0.25 U0.75 
N15250 X242.476 Y112.57 
N15255 ; DEPOSITION OFF 
N15260 G181 D0.25 U0.75 
N15265 X240.113 Y110.207 
N15270 ; DEPOSITION ON 
N15275 G180 D0.25 U0.75 
N15280 X270.425 Y79.896 
N15285 ; DEPOSITION OFF 
N15290 G181 D0.25 U0.75 
N15295 X268.063 Y77.533 
N15300 ; DEPOSITION ON 
N15305 G180 D0.25 U0.75 
N15310 X237.751 Y107.845 
N15315 ; DEPOSITION OFF 
N15320 G181 D0.25 U0.75 
N15325 X235.388 Y105.482 
N15330 ; DEPOSITION ON 
N15335 G180 D0.25 U0.75 
N15340 X265.7 Y75.17 
N15345 ; DEPOSITION OFF 
N15350 G181 D0.25 U0.75 
N15355 X263.337 Y72.807 
N15360 ; DEPOSITION ON 
N15365 G180 D0.25 U0.75 
N15370 X233.025 Y103.119 
N15375 ; DEPOSITION OFF 
N15380 G181 D0.25 U0.75 
N15385 G0 X50.682 Y280.736 
N15390 ; DEPOSITION ON 
N15395 G180 D0.25 U0.75 
N15400 G1 X260.974 Y70.444 F508 
N15405 ; DEPOSITION OFF 
N15410 G181 D0.25 U0.75 
N15415 X258.611 Y68.081 
N15420 ; DEPOSITION ON 
N15425 G180 D0.25 U0.75 
N15430 X48.319 Y278.373 
N15435 ; DEPOSITION OFF 
N15440 G181 D0.25 U0.75 
N15445 X45.957 Y276.01 
N15450 ; DEPOSITION ON 
N15455 G180 D0.25 U0.75 
N15460 X256.248 Y65.719 
N15465 ; DEPOSITION OFF 
N15470 G181 D0.25 U0.75 
N15475 X253.886 Y63.356 
N15480 ; DEPOSITION ON 
N15485 G180 D0.25 U0.75 
N15490 X223.574 Y93.668 
N15495 ; DEPOSITION OFF 
N15500 G181 D0.25 U0.75 
N15505 G0 X65.001 Y252.24 
N15510 ; DEPOSITION ON 
N15515 G180 D0.25 U0.75 
N15520 G1 X43.594 Y273.648 F508 
N15525 ; DEPOSITION OFF 
N15530 G181 D0.25 U0.75 
N15535 X41.231 Y271.285 
N15540 ; DEPOSITION ON 
N15545 G180 D0.25 U0.75 
N15550 X62.639 Y249.877 
N15555 ; DEPOSITION OFF 
N15560 G181 D0.25 U0.75 
N15565 G0 X221.211 Y91.305 
N15570 ; DEPOSITION ON 
N15575 G180 D0.25 U0.75 
N15580 G1 X251.523 Y60.993 F508 
N15585 ; DEPOSITION OFF 
N15590 G181 D0.25 U0.75 
N15595 X249.16 Y58.63 
N15600 ; DEPOSITION ON 
N15605 G180 D0.25 U0.75 
N15610 X218.848 Y88.942 
N15615 ; DEPOSITION OFF 
N15620 G181 D0.25 U0.75 
N15625 G0 X60.276 Y247.514 
N15630 ; DEPOSITION ON 
N15635 G180 D0.25 U0.75 
N15640 G1 X38.868 Y268.922 F508 
N15645 ; DEPOSITION OFF 
N15650 G181 D0.25 U0.75 
N15655 X36.505 Y266.559 
N15660 ; DEPOSITION ON 
N15665 G180 D0.25 U0.75 
N15670 X57.913 Y245.152 
N15675 ; DEPOSITION OFF 
N15680 G181 D0.25 U0.75 
N15685 G0 X216.485 Y86.579 
N15690 ; DEPOSITION ON 
N15695 G180 D0.25 U0.75 
N15700 G1 X246.797 Y56.267 F508 
N15705 ; DEPOSITION OFF 
N15710 G181 D0.25 U0.75 
N15715 X244.434 Y53.904 
N15720 ; DEPOSITION ON 
N15725 G180 D0.25 U0.75 
N15730 X214.122 Y84.216 
N15735 ; DEPOSITION OFF 
N15740 G181 D0.25 U0.75 
N15745 G0 X55.55 Y242.789 
N15750 ; DEPOSITION ON 
N15755 G180 D0.25 U0.75 
N15760 G1 X34.142 Y264.196 F508 
N15765 ; DEPOSITION OFF 
N15770 G181 D0.25 U0.75 
N15775 X31.78 Y261.834 
N15780 ; DEPOSITION ON 
N15785 G180 D0.25 U0.75 
N15790 X53.187 Y240.426 
N15795 ; DEPOSITION OFF 
N15800 G181 D0.25 U0.75 
N15805 G0 X211.76 Y81.854 
N15810 ; DEPOSITION ON 
N15815 G180 D0.25 U0.75 
N15820 G1 X242.072 Y51.542 F508 
N15825 ; DEPOSITION OFF 
N15830 G181 D0.25 U0.75 
N15835 X239.709 Y49.179 
N15840 ; DEPOSITION ON 
N15845 G180 D0.25 U0.75 
N15850 X209.397 Y79.491 
N15855 ; DEPOSITION OFF 
N15860 G181 D0.25 U0.75 
N15865 G0 X50.824 Y238.063 
N15870 ; DEPOSITION ON 
N15875 G180 D0.25 U0.75 
N15880 G1 X29.417 Y259.471 F508 
N15885 ; DEPOSITION OFF 
N15890 G181 D0.25 U0.75 
N15895 X27.054 Y257.108 
N15900 ; DEPOSITION ON 
N15905 G180 D0.25 U0.75 
N15910 X48.462 Y235.7 
N15915 ; DEPOSITION OFF 
N15920 G181 D0.25 U0.75 
N15925 G0 X207.034 Y77.128 
N15930 ; DEPOSITION ON 
N15935 G180 D0.25 U0.75 
N15940 G1 X237.346 Y46.816 F508 
N15945 ; DEPOSITION OFF 
N15950 G181 D0.25 U0.75 
N15955 X234.983 Y44.453 
N15960 ; DEPOSITION ON 
N15965 G180 D0.25 U0.75 
N15970 X204.671 Y74.765 
N15975 ; DEPOSITION OFF 
N15980 G181 D0.25 U0.75 
N15985 G0 X46.099 Y233.337 
N15990 ; DEPOSITION ON 
N15995 G180 D0.25 U0.75 
N16000 G1 X24.691 Y254.745 F508 
N16005 ; DEPOSITION OFF 
N16010 G181 D0.25 U0.75 
N16015 X22.328 Y252.382 
N16020 ; DEPOSITION ON 
N16025 G180 D0.25 U0.75 
N16030 X43.736 Y230.975 
N16035 ; DEPOSITION OFF 
N16040 G181 D0.25 U0.75 
N16045 G0 X202.308 Y72.402 
N16050 ; DEPOSITION ON 
N16055 G180 D0.25 U0.75 
N16060 G1 X232.62 Y42.09 F508 
N16065 ; DEPOSITION OFF 
N16070 G181 D0.25 U0.75 
N16075 X230.257 Y39.728 
N16080 ; DEPOSITION ON 
N16085 G180 D0.25 U0.75 
N16090 X19.965 Y250.019 
N16095 ; DEPOSITION OFF 
N16100 G181 D0.25 U0.75 
N16105 X17.603 Y247.657 
N16110 ; DEPOSITION ON 
N16115 G180 D0.25 U0.75 
N16120 X227.895 Y37.365 
N16125 ; DEPOSITION OFF 
N16130 G181 D0.25 U0.75 
N16135 X225.532 Y35.002 
N16140 ; DEPOSITION ON 
N16145 G180 D0.25 U0.75 
N16150 X15.24 Y245.294 
N16155 ; DEPOSITION OFF 
N16160 G181 D0.25 U0.75 
N16165 X12.877 Y242.931 
N16170 ; DEPOSITION ON 
N16175 G180 D0.25 U0.75 
N16180 X223.169 Y32.639 
N16185 ; DEPOSITION OFF 
N16190 G181 D0.25 U0.75 
N16195 X220.806 Y30.276 
N16200 ; DEPOSITION ON 
N16205 G180 D0.25 U0.75 
N16210 X10.514 Y240.568 
N16215 ; DEPOSITION OFF 
N16220 G181 D0.25 U0.75 
N16225 G0 X188.131 Y58.225 
N16230 ; DEPOSITION ON 
N16235 G180 D0.25 U0.75 
N16240 G1 X218.443 Y27.913 F508 
N16245 ; DEPOSITION OFF 
N16250 G181 D0.25 U0.75 
N16255 X216.08 Y25.551 
N16260 ; DEPOSITION ON 
N16265 G180 D0.25 U0.75 
N16270 X185.769 Y55.862 
N16275 G181 D0.25 U0.75 
N16280 V.P.layer_num = 14 
N16285 P12011=0 
N16290 #PCALL decking.nc P1 = V.P.layer_num 
N16295 P12012= 14 
N16300 P12011=1 
N16305 ; LAYER 14 END 
N16310 ; DEPOSITION OFF 
N16315 G181 D0.25 U0.75 
N16320 G0 Z30 
N16325 X278.249 Y86.496 
N16330 ; LAYER 15 START 
N16335 ; DEPOSITION ON 
N16340 G180 D0.25 U0.75 
N16345 G1 X247.325 Y117.419 F508 
N16350 ; DEPOSITION OFF 
N16355 G181 D0.25 U0.75 
N16360 X244.953 Y115.047 
N16365 ; DEPOSITION ON 
N16370 G180 D0.25 U0.75 
N16375 X275.876 Y84.124 
N16380 ; DEPOSITION OFF 
N16385 G181 D0.25 U0.75 
N16390 X273.504 Y81.751 
N16395 ; DEPOSITION ON 
N16400 G180 D0.25 U0.75 
N16405 X242.581 Y112.675 
N16410 ; DEPOSITION OFF 
N16415 G181 D0.25 U0.75 
N16420 X240.208 Y110.302 
N16425 ; DEPOSITION ON 
N16430 G180 D0.25 U0.75 
N16435 X271.132 Y79.379 
N16440 ; DEPOSITION OFF 
N16445 G181 D0.25 U0.75 
N16450 X268.759 Y77.007 
N16455 ; DEPOSITION ON 
N16460 G180 D0.25 U0.75 
N16465 X237.836 Y107.93 
N16470 ; DEPOSITION OFF 
N16475 G181 D0.25 U0.75 
N16480 X235.464 Y105.558 
N16485 ; DEPOSITION ON 
N16490 G180 D0.25 U0.75 
N16495 X266.387 Y74.634 
N16500 ; DEPOSITION OFF 
N16505 G181 D0.25 U0.75 
N16510 X264.015 Y72.262 
N16515 ; DEPOSITION ON 
N16520 G180 D0.25 U0.75 
N16525 X233.091 Y103.185 
N16530 ; DEPOSITION OFF 
N16535 G181 D0.25 U0.75 
N16540 G0 X50.506 Y281.026 
N16545 ; DEPOSITION ON 
N16550 G180 D0.25 U0.75 
N16555 G1 X261.642 Y69.89 F508 
N16560 ; DEPOSITION OFF 
N16565 G181 D0.25 U0.75 
N16570 X259.27 Y67.517 
N16575 ; DEPOSITION ON 
N16580 G180 D0.25 U0.75 
N16585 X48.134 Y278.653 
N16590 ; DEPOSITION OFF 
N16595 G181 D0.25 U0.75 
N16600 X45.762 Y276.281 
N16605 ; DEPOSITION ON 
N16610 G180 D0.25 U0.75 
N16615 X256.898 Y65.145 
N16620 ; DEPOSITION OFF 
N16625 G181 D0.25 U0.75 
N16630 X254.526 Y62.773 
N16635 ; DEPOSITION ON 
N16640 G180 D0.25 U0.75 
N16645 X223.602 Y93.696 
N16650 ; DEPOSITION OFF 
N16655 G181 D0.25 U0.75 
N16660 G0 X65.03 Y252.268 
N16665 ; DEPOSITION ON 
N16670 G180 D0.25 U0.75 
N16675 G1 X43.389 Y273.909 F508 
N16680 ; DEPOSITION OFF 
N16685 G181 D0.25 U0.75 
N16690 X41.017 Y271.537 
N16695 ; DEPOSITION ON 
N16700 G180 D0.25 U0.75 
N16705 X62.657 Y249.896 
N16710 ; DEPOSITION OFF 
N16715 G181 D0.25 U0.75 
N16720 G0 X221.23 Y91.324 
N16725 ; DEPOSITION ON 
N16730 G180 D0.25 U0.75 
N16735 G1 X252.153 Y60.4 F508 
N16740 ; DEPOSITION OFF 
N16745 G181 D0.25 U0.75 
N16750 X249.781 Y58.028 
N16755 ; DEPOSITION ON 
N16760 G180 D0.25 U0.75 
N16765 X218.858 Y88.951 
N16770 ; DEPOSITION OFF 
N16775 G181 D0.25 U0.75 
N16780 G0 X60.285 Y247.524 
N16785 ; DEPOSITION ON 
N16790 G180 D0.25 U0.75 
N16795 G1 X38.645 Y269.164 F508 
N16800 ; DEPOSITION OFF 
N16805 G181 D0.25 U0.75 
N16810 X36.273 Y266.792 
N16815 ; DEPOSITION ON 
N16820 G180 D0.25 U0.75 
N16825 X57.913 Y245.152 
N16830 ; DEPOSITION OFF 
N16835 G181 D0.25 U0.75 
N16840 G0 X216.485 Y86.579 
N16845 ; DEPOSITION ON 
N16850 G180 D0.25 U0.75 
N16855 G1 X247.409 Y55.656 F508 
N16860 ; DEPOSITION OFF 
N16865 G181 D0.25 U0.75 
N16870 X245.036 Y53.284 
N16875 ; DEPOSITION ON 
N16880 G180 D0.25 U0.75 
N16885 X214.113 Y84.207 
N16890 ; DEPOSITION OFF 
N16895 G181 D0.25 U0.75 
N16900 G0 X55.541 Y242.779 
N16905 ; DEPOSITION ON 
N16910 G180 D0.25 U0.75 
N16915 G1 X33.9 Y264.42 F508 
N16920 ; DEPOSITION OFF 
N16925 G181 D0.25 U0.75 
N16930 X31.528 Y262.047 
N16935 ; DEPOSITION ON 
N16940 G180 D0.25 U0.75 
N16945 X53.168 Y240.407 
N16950 ; DEPOSITION OFF 
N16955 G181 D0.25 U0.75 
N16960 G0 X211.741 Y81.835 
N16965 ; DEPOSITION ON 
N16970 G180 D0.25 U0.75 
N16975 G1 X242.664 Y50.911 F508 
N16980 ; DEPOSITION OFF 
N16985 G181 D0.25 U0.75 
N16990 X240.292 Y48.539 
N16995 ; DEPOSITION ON 
N17000 G180 D0.25 U0.75 
N17005 X209.368 Y79.462 
N17010 ; DEPOSITION OFF 
N17015 G181 D0.25 U0.75 
N17020 G0 X50.796 Y238.035 
N17025 ; DEPOSITION ON 
N17030 G180 D0.25 U0.75 
N17035 G1 X29.156 Y259.675 F508 
N17040 ; DEPOSITION OFF 
N17045 G181 D0.25 U0.75 
N17050 X26.783 Y257.303 
N17055 ; DEPOSITION ON 
N17060 G180 D0.25 U0.75 
N17065 X48.424 Y235.662 
N17070 ; DEPOSITION OFF 
N17075 G181 D0.25 U0.75 
N17080 G0 X206.996 Y77.09 
N17085 ; DEPOSITION ON 
N17090 G180 D0.25 U0.75 
N17095 G1 X237.919 Y46.167 F508 
N17100 ; DEPOSITION OFF 
N17105 G181 D0.25 U0.75 
N17110 X235.547 Y43.794 
N17115 ; DEPOSITION ON 
N17120 G180 D0.25 U0.75 
N17125 X204.624 Y74.718 
N17130 ; DEPOSITION OFF 
N17135 G181 D0.25 U0.75 
N17140 G0 X46.051 Y233.29 
N17145 ; DEPOSITION ON 
N17150 G180 D0.25 U0.75 
N17155 G1 X24.411 Y254.93 F508 
N17160 ; DEPOSITION OFF 
N17165 G181 D0.25 U0.75 
N17170 X22.039 Y252.558 
N17175 ; DEPOSITION ON 
N17180 G180 D0.25 U0.75 
N17185 X43.679 Y230.918 
N17190 ; DEPOSITION OFF 
N17195 G181 D0.25 U0.75 
N17200 G0 X202.251 Y72.345 
N17205 ; DEPOSITION ON 
N17210 G180 D0.25 U0.75 
N17215 G1 X233.175 Y41.422 F508 
N17220 ; DEPOSITION OFF 
N17225 G181 D0.25 U0.75 
N17230 X230.802 Y39.05 
N17235 ; DEPOSITION ON 
N17240 G180 D0.25 U0.75 
N17245 X19.666 Y250.186 
N17250 ; DEPOSITION OFF 
N17255 G181 D0.25 U0.75 
N17260 X17.294 Y247.813 
N17265 ; DEPOSITION ON 
N17270 G180 D0.25 U0.75 
N17275 X228.43 Y36.677 
N17280 ; DEPOSITION OFF 
N17285 G181 D0.25 U0.75 
N17290 X226.058 Y34.305 
N17295 ; DEPOSITION ON 
N17300 G180 D0.25 U0.75 
N17305 X14.922 Y245.441 
N17310 ; DEPOSITION OFF 
N17315 G181 D0.25 U0.75 
N17320 X12.549 Y243.069 
N17325 ; DEPOSITION ON 
N17330 G180 D0.25 U0.75 
N17335 X223.686 Y31.933 
N17340 ; DEPOSITION OFF 
N17345 G181 D0.25 U0.75 
N17350 X221.313 Y29.56 
N17355 ; DEPOSITION ON 
N17360 G180 D0.25 U0.75 
N17365 X10.177 Y240.697 
N17370 ; DEPOSITION OFF 
N17375 G181 D0.25 U0.75 
N17380 G0 X188.018 Y58.111 
N17385 ; DEPOSITION ON 
N17390 G180 D0.25 U0.75 
N17395 G1 X218.941 Y27.188 F508 
N17400 ; DEPOSITION OFF 
N17405 G181 D0.25 U0.75 
N17410 X216.569 Y24.816 
N17415 ; DEPOSITION ON 
N17420 G180 D0.25 U0.75 
N17425 X185.645 Y55.739 
N17430 G181 D0.25 U0.75 
N17435 V.P.layer_num = 15 
N17440 P12011=0 
N17445 #PCALL decking.nc P1 = V.P.layer_num 
N17450 P12012= 15 
N17455 P12011=1 
N17460 ; LAYER 15 END 
N17465 ; DEPOSITION OFF 
N17470 G181 D0.25 U0.75 
N17475 G0 Z32 
N17480 X278.982 Y86.006 
N17485 ; LAYER 16 START 
N17490 ; DEPOSITION ON 
N17495 G180 D0.25 U0.75 
N17500 G1 X247.447 Y117.541 F508 
N17505 ; DEPOSITION OFF 
N17510 G181 D0.25 U0.75 
N17515 X245.066 Y115.159 
N17520 ; DEPOSITION ON 
N17525 G180 D0.25 U0.75 
N17530 X276.6 Y83.625 
N17535 ; DEPOSITION OFF 
N17540 G181 D0.25 U0.75 
N17545 X274.219 Y81.243 
N17550 ; DEPOSITION ON 
N17555 G180 D0.25 U0.75 
N17560 X242.684 Y112.778 
N17565 ; DEPOSITION OFF 
N17570 G181 D0.25 U0.75 
N17575 X240.302 Y110.396 
N17580 ; DEPOSITION ON 
N17585 G180 D0.25 U0.75 
N17590 X271.837 Y78.861 
N17595 ; DEPOSITION OFF 
N17600 G181 D0.25 U0.75 
N17605 X269.455 Y76.48 
N17610 ; DEPOSITION ON 
N17615 G180 D0.25 U0.75 
N17620 X237.92 Y108.014 
N17625 ; DEPOSITION OFF 
N17630 G181 D0.25 U0.75 
N17635 X235.539 Y105.633 
N17640 ; DEPOSITION ON 
N17645 G180 D0.25 U0.75 
N17650 X267.074 Y74.098 
N17655 ; DEPOSITION OFF 
N17660 G181 D0.25 U0.75 
N17665 X264.692 Y71.716 
N17670 ; DEPOSITION ON 
N17675 G180 D0.25 U0.75 
N17680 X233.157 Y103.251 
N17685 ; DEPOSITION OFF 
N17690 G181 D0.25 U0.75 
N17695 G0 X50.339 Y281.305 
N17700 ; DEPOSITION ON 
N17705 G180 D0.25 U0.75 
N17710 G1 X262.31 Y69.335 F508 
N17715 ; DEPOSITION OFF 
N17720 G181 D0.25 U0.75 
N17725 X259.928 Y66.953 
N17730 ; DEPOSITION ON 
N17735 G180 D0.25 U0.75 
N17740 X47.958 Y278.924 
N17745 ; DEPOSITION OFF 
N17750 G181 D0.25 U0.75 
N17755 X45.576 Y276.542 
N17760 ; DEPOSITION ON 
N17765 G180 D0.25 U0.75 
N17770 X257.547 Y64.571 
N17775 ; DEPOSITION OFF 
N17780 G181 D0.25 U0.75 
N17785 X255.165 Y62.189 
N17790 ; DEPOSITION ON 
N17795 G180 D0.25 U0.75 
N17800 X223.63 Y93.724 
N17805 ; DEPOSITION OFF 
N17810 G181 D0.25 U0.75 
N17815 G0 X65.058 Y252.297 
N17820 ; DEPOSITION ON 
N17825 G180 D0.25 U0.75 
N17830 G1 X43.194 Y274.16 F508 
N17835 ; DEPOSITION OFF 
N17840 G181 D0.25 U0.75 
N17845 X40.813 Y271.779 
N17850 ; DEPOSITION ON 
N17855 G180 D0.25 U0.75 
N17860 X62.676 Y249.915 
N17865 ; DEPOSITION OFF 
N17870 G181 D0.25 U0.75 
N17875 G0 X221.249 Y91.343 
N17880 ; DEPOSITION ON 
N17885 G180 D0.25 U0.75 
N17890 G1 X252.783 Y59.808 F508 
N17895 ; DEPOSITION OFF 
N17900 G181 D0.25 U0.75 
N17905 X250.402 Y57.426 
N17910 ; DEPOSITION ON 
N17915 G180 D0.25 U0.75 
N17920 X218.867 Y88.961 
N17925 ; DEPOSITION OFF 
N17930 G181 D0.25 U0.75 
N17935 G0 X60.295 Y247.533 
N17940 ; DEPOSITION ON 
N17945 G180 D0.25 U0.75 
N17950 G1 X38.431 Y269.397 F508 
N17955 ; DEPOSITION OFF 
N17960 G181 D0.25 U0.75 
N17965 X36.049 Y267.015 
N17970 ; DEPOSITION ON 
N17975 G180 D0.25 U0.75 
N17980 X57.913 Y245.152 
N17985 ; DEPOSITION OFF 
N17990 G181 D0.25 U0.75 
N17995 G0 X216.485 Y86.579 
N18000 ; DEPOSITION ON 
N18005 G180 D0.25 U0.75 
N18010 G1 X248.02 Y55.044 F508 
N18015 ; DEPOSITION OFF 
N18020 G181 D0.25 U0.75 
N18025 X245.638 Y52.663 
N18030 ; DEPOSITION ON 
N18035 G180 D0.25 U0.75 
N18040 X214.104 Y84.198 
N18045 ; DEPOSITION OFF 
N18050 G181 D0.25 U0.75 
N18055 G0 X55.531 Y242.77 
N18060 ; DEPOSITION ON 
N18065 G180 D0.25 U0.75 
N18070 G1 X33.667 Y264.634 F508 
N18075 ; DEPOSITION OFF 
N18080 G181 D0.25 U0.75 
N18085 X31.286 Y262.252 
N18090 ; DEPOSITION ON 
N18095 G180 D0.25 U0.75 
N18100 X53.15 Y240.388 
N18105 ; DEPOSITION OFF 
N18110 G181 D0.25 U0.75 
N18115 G0 X211.722 Y81.816 
N18120 ; DEPOSITION ON 
N18125 G180 D0.25 U0.75 
N18130 G1 X243.257 Y50.281 F508 
N18135 ; DEPOSITION OFF 
N18140 G181 D0.25 U0.75 
N18145 X240.875 Y47.899 
N18150 ; DEPOSITION ON 
N18155 G180 D0.25 U0.75 
N18160 X209.34 Y79.434 
N18165 ; DEPOSITION OFF 
N18170 G181 D0.25 U0.75 
N18175 G0 X50.768 Y238.007 
N18180 ; DEPOSITION ON 
N18185 G180 D0.25 U0.75 
N18190 G1 X28.904 Y259.87 F508 
N18195 ; DEPOSITION OFF 
N18200 G181 D0.25 U0.75 
N18205 X26.522 Y257.489 
N18210 ; DEPOSITION ON 
N18215 G180 D0.25 U0.75 
N18220 X48.386 Y235.625 
N18225 ; DEPOSITION OFF 
N18230 G181 D0.25 U0.75 
N18235 G0 X206.959 Y77.052 
N18240 ; DEPOSITION ON 
N18245 G180 D0.25 U0.75 
N18250 G1 X238.493 Y45.518 F508 
N18255 ; DEPOSITION OFF 
N18260 G181 D0.25 U0.75 
N18265 X236.112 Y43.136 
N18270 ; DEPOSITION ON 
N18275 G180 D0.25 U0.75 
N18280 X204.577 Y74.671 
N18285 ; DEPOSITION OFF 
N18290 G181 D0.25 U0.75 
N18295 G0 X46.004 Y233.243 
N18300 ; DEPOSITION ON 
N18305 G180 D0.25 U0.75 
N18310 G1 X24.141 Y255.107 F508 
N18315 ; DEPOSITION OFF 
N18320 G181 D0.25 U0.75 
N18325 X21.759 Y252.725 
N18330 ; DEPOSITION ON 
N18335 G180 D0.25 U0.75 
N18340 X43.623 Y230.861 
N18345 ; DEPOSITION OFF 
N18350 G181 D0.25 U0.75 
N18355 G0 X202.195 Y72.289 
N18360 ; DEPOSITION ON 
N18365 G180 D0.25 U0.75 
N18370 G1 X233.73 Y40.754 F508 
N18375 ; DEPOSITION OFF 
N18380 G181 D0.25 U0.75 
N18385 X231.348 Y38.373 
N18390 ; DEPOSITION ON 
N18395 G180 D0.25 U0.75 
N18400 X19.377 Y250.343 
N18405 ; DEPOSITION OFF 
N18410 G181 D0.25 U0.75 
N18415 X16.996 Y247.962 
N18420 ; DEPOSITION ON 
N18425 G180 D0.25 U0.75 
N18430 X228.967 Y35.991 
N18435 ; DEPOSITION OFF 
N18440 G181 D0.25 U0.75 
N18445 X226.585 Y33.609 
N18450 ; DEPOSITION ON 
N18455 G180 D0.25 U0.75 
N18460 X14.614 Y245.58 
N18465 ; DEPOSITION OFF 
N18470 G181 D0.25 U0.75 
N18475 X12.232 Y243.198 
N18480 ; DEPOSITION ON 
N18485 G180 D0.25 U0.75 
N18490 X224.203 Y31.228 
N18495 ; DEPOSITION OFF 
N18500 G181 D0.25 U0.75 
N18505 X221.821 Y28.846 
N18510 ; DEPOSITION ON 
N18515 G180 D0.25 U0.75 
N18520 X9.851 Y240.817 
N18525 ; DEPOSITION OFF 
N18530 G181 D0.25 U0.75 
N18535 G0 X187.905 Y57.999 
N18540 ; DEPOSITION ON 
N18545 G180 D0.25 U0.75 
N18550 G1 X219.44 Y26.464 F508 
N18555 ; DEPOSITION OFF 
N18560 G181 D0.25 U0.75 
N18565 X217.058 Y24.082 
N18570 ; DEPOSITION ON 
N18575 G180 D0.25 U0.75 
N18580 X185.523 Y55.617 
N18585 G181 D0.25 U0.75 
N18590 V.P.layer_num = 16 
N18595 P12011=0 
N18600 #PCALL decking.nc P1 = V.P.layer_num 
N18605 P12012= 16 
N18610 P12011=1 
N18615 ; LAYER 16 END 
N18620 ; DEPOSITION OFF 
N18625 G181 D0.25 U0.75 
N18630 G0 Z34 
N18635 X265.62 Y71.422 
N18640 ; LAYER 17 START 
N18645 ; DEPOSITION ON 
N18650 G180 D0.25 U0.75 
N18655 G1 X233.474 Y103.568 F508 
N18660 ; DEPOSITION OFF 
N18665 G181 D0.25 U0.75 
N18670 G0 X50.46 Y281.854 
N18675 ; DEPOSITION ON 
N18680 G180 D0.25 U0.75 
N18685 G1 X263.256 Y69.058 F508 
N18690 ; DEPOSITION OFF 
N18695 G181 D0.25 U0.75 
N18700 X260.892 Y66.693 
N18705 ; DEPOSITION ON 
N18710 G180 D0.25 U0.75 
N18715 X48.095 Y279.489 
N18720 ; DEPOSITION OFF 
N18725 G181 D0.25 U0.75 
N18730 X45.731 Y277.125 
N18735 ; DEPOSITION ON 
N18740 G180 D0.25 U0.75 
N18745 X258.527 Y64.329 
N18750 ; DEPOSITION OFF 
N18755 G181 D0.25 U0.75 
N18760 X256.163 Y61.964 
N18765 ; DEPOSITION ON 
N18770 G180 D0.25 U0.75 
N18775 X224.017 Y94.111 
N18780 ; DEPOSITION OFF 
N18785 G181 D0.25 U0.75 
N18790 G0 X65.444 Y252.683 
N18795 ; DEPOSITION ON 
N18800 G180 D0.25 U0.75 
N18805 G1 X43.366 Y274.761 F508 
N18810 ; DEPOSITION OFF 
N18815 G181 D0.25 U0.75 
N18820 X41.002 Y272.396 
N18825 ; DEPOSITION ON 
N18830 G180 D0.25 U0.75 
N18835 X63.08 Y250.318 
N18840 ; DEPOSITION OFF 
N18845 G181 D0.25 U0.75 
N18850 G0 X221.652 Y91.746 
N18855 ; DEPOSITION ON 
N18860 G180 D0.25 U0.75 
N18865 G1 X253.798 Y59.6 F508 
N18870 ; DEPOSITION OFF 
N18875 G181 D0.25 U0.75 
N18880 X251.434 Y57.236 
N18885 ; DEPOSITION ON 
N18890 G180 D0.25 U0.75 
N18895 X219.288 Y89.382 
N18900 ; DEPOSITION OFF 
N18905 G181 D0.25 U0.75 
N18910 G0 X60.715 Y247.954 
N18915 ; DEPOSITION ON 
N18920 G180 D0.25 U0.75 
N18925 G1 X38.638 Y270.032 F508 
N18930 ; DEPOSITION OFF 
N18935 G181 D0.25 U0.75 
N18940 X36.273 Y267.667 
N18945 ; DEPOSITION ON 
N18950 G180 D0.25 U0.75 
N18955 X58.351 Y245.59 
N18960 ; DEPOSITION OFF 
N18965 G181 D0.25 U0.75 
N18970 G0 X216.923 Y87.017 
N18975 ; DEPOSITION ON 
N18980 G180 D0.25 U0.75 
N18985 G1 X249.07 Y54.871 F508 
N18990 ; DEPOSITION OFF 
N18995 G181 D0.25 U0.75 
N19000 X246.705 Y52.507 
N19005 ; DEPOSITION ON 
N19010 G180 D0.25 U0.75 
N19015 X214.559 Y84.653 
N19020 ; DEPOSITION OFF 
N19025 G181 D0.25 U0.75 
N19030 G0 X55.987 Y243.225 
N19035 ; DEPOSITION ON 
N19040 G180 D0.25 U0.75 
N19045 G1 X33.909 Y265.303 F508 
N19050 ; DEPOSITION OFF 
N19055 G181 D0.25 U0.75 
N19060 X29.18 Y260.574 
N19065 ; DEPOSITION ON 
N19070 G180 D0.25 U0.75 
N19075 X51.258 Y238.497 
N19080 ; DEPOSITION OFF 
N19085 G181 D0.25 U0.75 
N19090 G0 X31.544 Y262.939 
N19095 ; DEPOSITION ON 
N19100 G180 D0.25 U0.75 
N19105 G1 X53.622 Y240.861 F508 
N19110 ; DEPOSITION OFF 
N19115 G181 D0.25 U0.75 
N19120 G0 X212.195 Y82.289 
N19125 ; DEPOSITION ON 
N19130 G180 D0.25 U0.75 
N19135 G1 X244.341 Y50.142 F508 
N19140 ; DEPOSITION OFF 
N19145 G181 D0.25 U0.75 
N19150 G0 X48.893 Y236.132 
N19155 ; DEPOSITION ON 
N19160 G180 D0.25 U0.75 
N19165 G1 X26.816 Y258.21 F508 
N19170 ; DEPOSITION OFF 
N19175 G181 D0.25 U0.75 
N19180 X24.451 Y255.845 
N19185 ; DEPOSITION ON 
N19190 G180 D0.25 U0.75 
N19195 X46.529 Y233.768 
N19200 ; DEPOSITION OFF 
N19205 G181 D0.25 U0.75 
N19210 G0 X205.101 Y75.195 
N19215 ; DEPOSITION ON 
N19220 G180 D0.25 U0.75 
N19225 G1 X237.248 Y43.049 F508 
N19230 ; DEPOSITION OFF 
N19235 G181 D0.25 U0.75 
N19240 X234.883 Y40.685 
N19245 ; DEPOSITION ON 
N19250 G180 D0.25 U0.75 
N19255 X202.737 Y72.831 
N19260 ; DEPOSITION OFF 
N19265 G181 D0.25 U0.75 
N19270 G0 X44.165 Y231.403 
N19275 ; DEPOSITION ON 
N19280 G180 D0.25 U0.75 
N19285 G1 X22.087 Y253.481 F508 
N19290 ; DEPOSITION OFF 
N19295 G181 D0.25 U0.75 
N19300 X19.722 Y251.117 
N19305 ; DEPOSITION ON 
N19310 G180 D0.25 U0.75 
N19315 X232.519 Y38.32 
N19320 ; DEPOSITION OFF 
N19325 G181 D0.25 U0.75 
N19330 X230.154 Y35.956 
N19335 ; DEPOSITION ON 
N19340 G180 D0.25 U0.75 
N19345 X17.358 Y248.752 
N19350 ; DEPOSITION OFF 
N19355 G181 D0.25 U0.75 
N19360 X14.994 Y246.388 
N19365 ; DEPOSITION ON 
N19370 G180 D0.25 U0.75 
N19375 X227.79 Y33.592 
N19380 ; DEPOSITION OFF 
N19385 G181 D0.25 U0.75 
N19390 X225.426 Y31.227 
N19395 ; DEPOSITION ON 
N19400 G180 D0.25 U0.75 
N19405 X12.629 Y244.023 
N19410 ; DEPOSITION OFF 
N19415 G181 D0.25 U0.75 
N19420 X10.265 Y241.659 
N19425 ; DEPOSITION ON 
N19430 G180 D0.25 U0.75 
N19435 X223.061 Y28.863 
N19440 ; DEPOSITION OFF 
N19445 G181 D0.25 U0.75 
N19450 X220.697 Y26.498 
N19455 ; DEPOSITION ON 
N19460 G180 D0.25 U0.75 
N19465 X188.551 Y58.645 
N19470 ; DEPOSITION OFF 
N19475 G181 D0.25 U0.75 
N19480 X186.186 Y56.28 
N19485 ; DEPOSITION ON 
N19490 G180 D0.25 U0.75 
N19495 X218.332 Y24.134 
N19500 ; DEPOSITION OFF 
N19505 G181 D0.25 U0.75 
N19510 G0 X279.692 Y85.493 
N19515 ; DEPOSITION ON 
N19520 G180 D0.25 U0.75 
N19525 G1 X247.545 Y117.639 F508 
N19530 G181 D0.25 U0.75 
N19535 V.P.layer_num = 17 
N19540 P12011=0 
N19545 #PCALL decking.nc P1 = V.P.layer_num 
N19550 P12012= 17 
N19555 P12011=1 
N19560 ; LAYER 17 END 
N19565 ; DEPOSITION OFF 
N19570 G181 D0.25 U0.75 
N19575 G0 Z36 
N19580 X265.608 Y70.187 
N19585 ; LAYER 18 START 
N19590 ; DEPOSITION ON 
N19595 G180 D0.25 U0.75 
N19600 G1 X232.85 Y102.944 F508 
N19605 ; DEPOSITION OFF 
N19610 G181 D0.25 U0.75 
N19615 G0 X49.622 Y281.426 
N19620 ; DEPOSITION ON 
N19625 G180 D0.25 U0.75 
N19630 G1 X263.235 Y67.813 F508 
N19635 ; DEPOSITION OFF 
N19640 G181 D0.25 U0.75 
N19645 X260.861 Y65.44 
N19650 ; DEPOSITION ON 
N19655 G180 D0.25 U0.75 
N19660 X47.249 Y279.052 
N19665 ; DEPOSITION OFF 
N19670 G181 D0.25 U0.75 
N19675 X44.875 Y276.679 
N19680 ; DEPOSITION ON 
N19685 G180 D0.25 U0.75 
N19690 X258.488 Y63.066 
N19695 ; DEPOSITION OFF 
N19700 G181 D0.25 U0.75 
N19705 X256.114 Y60.693 
N19710 ; DEPOSITION ON 
N19715 G180 D0.25 U0.75 
N19720 X223.357 Y93.451 
N19725 ; DEPOSITION OFF 
N19730 G181 D0.25 U0.75 
N19735 G0 X64.784 Y252.023 
N19740 ; DEPOSITION ON 
N19745 G180 D0.25 U0.75 
N19750 G1 X42.502 Y274.305 F508 
N19755 ; DEPOSITION OFF 
N19760 G181 D0.25 U0.75 
N19765 X40.128 Y271.932 
N19770 ; DEPOSITION ON 
N19775 G180 D0.25 U0.75 
N19780 X62.411 Y249.649 
N19785 ; DEPOSITION OFF 
N19790 G181 D0.25 U0.75 
N19795 G0 X220.983 Y91.077 
N19800 ; DEPOSITION ON 
N19805 G180 D0.25 U0.75 
N19810 G1 X253.741 Y58.319 F508 
N19815 ; DEPOSITION OFF 
N19820 G181 D0.25 U0.75 
N19825 X251.367 Y55.946 
N19830 ; DEPOSITION ON 
N19835 G180 D0.25 U0.75 
N19840 X218.61 Y88.704 
N19845 ; DEPOSITION OFF 
N19850 G181 D0.25 U0.75 
N19855 G0 X60.037 Y247.276 
N19860 ; DEPOSITION ON 
N19865 G180 D0.25 U0.75 
N19870 G1 X37.755 Y269.559 F508 
N19875 ; DEPOSITION OFF 
N19880 G181 D0.25 U0.75 
N19885 X35.381 Y267.185 
N19890 ; DEPOSITION ON 
N19895 G180 D0.25 U0.75 
N19900 X57.664 Y244.903 
N19905 ; DEPOSITION OFF 
N19910 G181 D0.25 U0.75 
N19915 G0 X216.236 Y86.33 
N19920 ; DEPOSITION ON 
N19925 G180 D0.25 U0.75 
N19930 G1 X248.994 Y53.573 F508 
N19935 ; DEPOSITION OFF 
N19940 G181 D0.25 U0.75 
N19945 X246.62 Y51.199 
N19950 ; DEPOSITION ON 
N19955 G180 D0.25 U0.75 
N19960 X213.863 Y83.957 
N19965 ; DEPOSITION OFF 
N19970 G181 D0.25 U0.75 
N19975 G0 X55.29 Y242.529 
N19980 ; DEPOSITION ON 
N19985 G180 D0.25 U0.75 
N19990 G1 X33.008 Y264.812 F508 
N19995 ; DEPOSITION OFF 
N20000 G181 D0.25 U0.75 
N20005 G0 X52.917 Y240.156 
N20010 ; DEPOSITION ON 
N20015 G180 D0.25 U0.75 
N20020 G1 X30.634 Y262.438 F508 
N20025 ; DEPOSITION OFF 
N20030 G181 D0.25 U0.75 
N20035 X28.261 Y260.065 
N20040 ; DEPOSITION ON 
N20045 G180 D0.25 U0.75 
N20050 X50.543 Y237.782 
N20055 ; DEPOSITION OFF 
N20060 G181 D0.25 U0.75 
N20065 X48.17 Y235.409 
N20070 ; DEPOSITION ON 
N20075 G180 D0.25 U0.75 
N20080 X25.887 Y257.691 
N20085 ; DEPOSITION OFF 
N20090 G181 D0.25 U0.75 
N20095 X23.514 Y255.318 
N20100 ; DEPOSITION ON 
N20105 G180 D0.25 U0.75 
N20110 X45.797 Y233.035 
N20115 ; DEPOSITION OFF 
N20120 G181 D0.25 U0.75 
N20125 G0 X234.753 Y39.332 
N20130 ; DEPOSITION ON 
N20135 G180 D0.25 U0.75 
N20140 G1 X201.995 Y72.089 F508 
N20145 ; DEPOSITION OFF 
N20150 G181 D0.25 U0.75 
N20155 G0 X43.423 Y230.662 
N20160 ; DEPOSITION ON 
N20165 G180 D0.25 U0.75 
N20170 G1 X21.141 Y252.944 F508 
N20175 ; DEPOSITION OFF 
N20180 G181 D0.25 U0.75 
