halfofpart
N10 ; MACHINE
N15 ;   VENDOR AUTODESK
N20 ;   MODEL GENERIC DED
N25 ;   DESCRIPTION GENERIC DIRECT ENERGY DEPOSITION MACHINE WITH EXPORT TO SIMULATION AND POWERMILL
N30 ; T1  D=0 CR=0 - ZMIN=2 - ELECTRIC ARC WIRE
N35 #MCS OFF
N40 #CS OFF
N45 G71 G80 G90
N50 G17 G40
N55 G53
N60 ; PROCESS ON
N65 ; PROCESS OFF
N70 ; PROCESS ON
N75 ; PROCESS OFF
N80 G0 G53 Z609.6
N85 X0 Y0
N90 G53 A0. C0.
N95 ; FEATURE CONSTRUCTION4
N100 T1 M6
N105 S0
N110 M3
N115 G4 K3
N120 G0
N125 G54
;(ORGX58=0,ORGY58=0,ORGZ58=0)
N130 G58
N135 D1
N140 G0 X270.975 Y93.896
N145 G43 Z313.058
N150 G0 Z2
N155 ; LAYER 1 START
N160 ; DEPOSITION ON
N165 G180 D0.25 U0.75
N170 G94 G1 X247.388 Y117.482 F508
N175 ; DEPOSITION OFF
N180 G181 D0.25 U0.75
N185 X245.011 Y115.105
N190 ; DEPOSITION ON
N195 G180 D0.25 U0.75
N200 X268.598 Y91.519
N205 ; DEPOSITION OFF
N210 G181 D0.25 U0.75
N215 X266.22 Y89.142
N220 ; DEPOSITION ON
N225 G180 D0.25 U0.75
N230 X242.634 Y112.728
N235 ; DEPOSITION OFF
N240 G181 D0.25 U0.75
N245 X240.257 Y110.351
N250 ; DEPOSITION ON
N255 G180 D0.25 U0.75
N260 X263.843 Y86.765
N265 ; DEPOSITION OFF
N270 G181 D0.25 U0.75
N275 X261.466 Y84.387
N280 ; DEPOSITION ON
N285 G180 D0.25 U0.75
N290 X237.88 Y107.974
N295 ; DEPOSITION OFF
N300 G181 D0.25 U0.75
N305 X235.503 Y105.597
N310 ; DEPOSITION ON
N315 G180 D0.25 U0.75
N320 X259.089 Y82.01
N325 ; DEPOSITION OFF
N330 G181 D0.25 U0.75
N335 X256.712 Y79.633
N340 ; DEPOSITION ON
N345 G180 D0.25 U0.75
N350 X233.125 Y103.219
N355 ; DEPOSITION OFF
N360 G181 D0.25 U0.75
N365 G0 X52.275 Y279.316
N370 ; DEPOSITION ON
N375 G180 D0.25 U0.75
N380 G1 X254.335 Y77.256 F508
N385 ; DEPOSITION OFF
N390 G181 D0.25 U0.75
N395 X251.957 Y74.879
N400 ; DEPOSITION ON
N405 G180 D0.25 U0.75
N410 X49.897 Y276.939
N415 ; DEPOSITION OFF
N420 G181 D0.25 U0.75
N425 X47.52 Y274.562
N430 ; DEPOSITION ON
N435 G180 D0.25 U0.75
N440 X249.58 Y72.502
N445 ; DEPOSITION OFF
N450 G181 D0.25 U0.75
N455 X247.203 Y70.124
N460 ; DEPOSITION ON
N465 G180 D0.25 U0.75
N470 X223.617 Y93.711
N475 ; DEPOSITION OFF
N480 G181 D0.25 U0.75
N485 G0 X65.044 Y252.283
N490 ; DEPOSITION ON
N495 G180 D0.25 U0.75
N500 G1 X45.143 Y272.184 F508
N505 ; DEPOSITION OFF
N510 G181 D0.25 U0.75
N515 X42.766 Y269.807
N520 ; DEPOSITION ON
N525 G180 D0.25 U0.75
N530 X62.667 Y249.906
N535 ; DEPOSITION OFF
N540 G181 D0.25 U0.75
N545 G0 X221.24 Y91.334
N550 ; DEPOSITION ON
N555 G180 D0.25 U0.75
N560 G1 X244.826 Y67.747 F508
N565 ; DEPOSITION OFF
N570 G181 D0.25 U0.75
N575 X242.449 Y65.37
N580 ; DEPOSITION ON
N585 G180 D0.25 U0.75
N590 X218.862 Y88.956
N595 ; DEPOSITION OFF
N600 G181 D0.25 U0.75
N605 G0 X60.29 Y247.529
N610 ; DEPOSITION ON
N615 G180 D0.25 U0.75
N620 G1 X40.389 Y267.43 F508
N625 ; DEPOSITION OFF
N630 G181 D0.25 U0.75
N635 X38.012 Y265.053
N640 ; DEPOSITION ON
N645 G180 D0.25 U0.75
N650 X57.913 Y245.152
N655 ; DEPOSITION OFF
N660 G181 D0.25 U0.75
N665 G0 X216.485 Y86.579
N670 ; DEPOSITION ON
N675 G180 D0.25 U0.75
N680 G1 X240.072 Y62.993 F508
N685 ; DEPOSITION OFF
N690 G181 D0.25 U0.75
N695 X237.694 Y60.616
N700 ; DEPOSITION ON
N705 G180 D0.25 U0.75
N710 X214.108 Y84.202
N715 ; DEPOSITION OFF
N720 G181 D0.25 U0.75
N725 G0 X55.536 Y242.774
N730 ; DEPOSITION ON
N735 G180 D0.25 U0.75
N740 G1 X35.634 Y262.676 F508
N745 ; DEPOSITION OFF
N750 G181 D0.25 U0.75
N755 X33.257 Y260.299
N760 ; DEPOSITION ON
N765 G180 D0.25 U0.75
N770 X53.159 Y240.397
N775 ; DEPOSITION OFF
N780 G181 D0.25 U0.75
N785 G0 X211.731 Y81.825
N790 ; DEPOSITION ON
N795 G180 D0.25 U0.75
N800 G1 X235.317 Y58.239 F508
N805 ; DEPOSITION OFF
N810 G181 D0.25 U0.75
N815 X232.94 Y55.861
N820 ; DEPOSITION ON
N825 G180 D0.25 U0.75
N830 X209.354 Y79.448
N835 ; DEPOSITION OFF
N840 G181 D0.25 U0.75
N845 G0 X50.781 Y238.02
N850 ; DEPOSITION ON
N855 G180 D0.25 U0.75
N860 G1 X30.88 Y257.921 F508
N865 ; DEPOSITION OFF
N870 G181 D0.25 U0.75
N875 X28.503 Y255.544
N880 ; DEPOSITION ON
N885 G180 D0.25 U0.75
N890 X48.404 Y235.643
N895 ; DEPOSITION OFF
N900 G181 D0.25 U0.75
N905 G0 X206.977 Y77.071
N910 ; DEPOSITION ON
N915 G180 D0.25 U0.75
N920 G1 X230.563 Y53.484 F508
N925 ; DEPOSITION OFF
N930 G181 D0.25 U0.75
N935 X228.186 Y51.107
N940 ; DEPOSITION ON
N945 G180 D0.25 U0.75
N950 X204.599 Y74.693
N955 ; DEPOSITION OFF
N960 G181 D0.25 U0.75
N965 G0 X46.027 Y233.266
N970 ; DEPOSITION ON
N975 G180 D0.25 U0.75
N980 G1 X26.126 Y253.167 F508
N985 ; DEPOSITION OFF
N990 G181 D0.25 U0.75
N995 X23.748 Y250.79
N1000 ; DEPOSITION ON
N1005 G180 D0.25 U0.75
N1010 X43.65 Y230.889
N1015 ; DEPOSITION OFF
N1020 G181 D0.25 U0.75
N1025 G0 X202.222 Y72.316
N1030 ; DEPOSITION ON
N1035 G180 D0.25 U0.75
N1040 G1 X225.808 Y48.73 F508
N1045 ; DEPOSITION OFF
N1050 G181 D0.25 U0.75
N1055 X223.431 Y46.353
N1060 ; DEPOSITION ON
N1065 G180 D0.25 U0.75
N1070 X21.371 Y248.413
N1075 ; DEPOSITION OFF
N1080 G181 D0.25 U0.75
N1085 X18.994 Y246.036
N1090 ; DEPOSITION ON
N1095 G180 D0.25 U0.75
N1100 X221.054 Y43.976
N1105 ; DEPOSITION OFF
N1110 G181 D0.25 U0.75
N1115 X218.677 Y41.598
N1120 ; DEPOSITION ON
N1125 G180 D0.25 U0.75
N1130 X16.617 Y243.658
N1135 ; DEPOSITION OFF
N1140 G181 D0.25 U0.75
N1145 X14.24 Y241.281
N1150 ; DEPOSITION ON
N1155 G180 D0.25 U0.75
N1160 X216.3 Y39.221
N1165 ; DEPOSITION OFF
N1170 G181 D0.25 U0.75
N1175 X213.923 Y36.844
N1180 ; DEPOSITION ON
N1185 G180 D0.25 U0.75
N1190 X11.863 Y238.904
N1195 ; DEPOSITION OFF
N1200 G181 D0.25 U0.75
N1205 G0 X187.959 Y58.053
N1210 ; DEPOSITION ON
N1215 G180 D0.25 U0.75
N1220 G1 X211.545 Y34.467 F508
N1225 ; DEPOSITION OFF
N1230 G181 D0.25 U0.75
N1235 X209.168 Y32.09
N1240 ; DEPOSITION ON
N1245 G180 D0.25 U0.75
N1250 X185.582 Y55.676
N1255 G181 D0.25 U0.75
N1260 V.P.layer_num = 1
N1265 P12011=0
N1270 #PCALL decking.nc P1 = V.P.layer_num
N1275 P12012= 1
N1280 P12011=1
N1285 ; LAYER 1  END
N1290 ; DEPOSITION OFF
N1295 G181 D0.25 U0.75
N1300 G0 Z4
N1305 X270.975 Y93.896
N1310 ; LAYER 2 START
N1315 ; DEPOSITION ON
N1320 G180 D0.25 U0.75
N1325 G1 X247.388 Y117.482 F508
N1330 ; DEPOSITION OFF
N1335 G181 D0.25 U0.75
N1340 X245.011 Y115.105
N1345 ; DEPOSITION ON
N1350 G180 D0.25 U0.75
N1355 X268.598 Y91.519
N1360 ; DEPOSITION OFF
N1365 G181 D0.25 U0.75
N1370 X266.22 Y89.142
N1375 ; DEPOSITION ON
N1380 G180 D0.25 U0.75
N1385 X242.634 Y112.728
N1390 ; DEPOSITION OFF
N1395 G181 D0.25 U0.75
N1400 X240.257 Y110.351
N1405 ; DEPOSITION ON
N1410 G180 D0.25 U0.75
N1415 X263.843 Y86.765
N1420 ; DEPOSITION OFF
N1425 G181 D0.25 U0.75
N1430 X261.466 Y84.387
N1435 ; DEPOSITION ON
N1440 G180 D0.25 U0.75
N1445 X237.88 Y107.974
N1450 ; DEPOSITION OFF
N1455 G181 D0.25 U0.75
N1460 X235.503 Y105.597
N1465 ; DEPOSITION ON
N1470 G180 D0.25 U0.75
N1475 X259.089 Y82.01
N1480 ; DEPOSITION OFF
N1485 G181 D0.25 U0.75
N1490 X256.712 Y79.633
N1495 ; DEPOSITION ON
N1500 G180 D0.25 U0.75
N1505 X233.125 Y103.219
N1510 ; DEPOSITION OFF
N1515 G181 D0.25 U0.75
N1520 G0 X52.275 Y279.316
N1525 ; DEPOSITION ON
N1530 G180 D0.25 U0.75
N1535 G1 X254.335 Y77.256 F508
N1540 ; DEPOSITION OFF
N1545 G181 D0.25 U0.75
N1550 X251.957 Y74.879
N1555 ; DEPOSITION ON
N1560 G180 D0.25 U0.75
N1565 X49.897 Y276.939
N1570 ; DEPOSITION OFF
N1575 G181 D0.25 U0.75
N1580 X47.52 Y274.562
N1585 ; DEPOSITION ON
N1590 G180 D0.25 U0.75
N1595 X249.58 Y72.502
N1600 ; DEPOSITION OFF
N1605 G181 D0.25 U0.75
N1610 X247.203 Y70.124
N1615 ; DEPOSITION ON
N1620 G180 D0.25 U0.75
N1625 X223.617 Y93.711
N1630 ; DEPOSITION OFF
N1635 G181 D0.25 U0.75
N1640 G0 X65.044 Y252.283
N1645 ; DEPOSITION ON
N1650 G180 D0.25 U0.75
N1655 G1 X45.143 Y272.184 F508
N1660 ; DEPOSITION OFF
N1665 G181 D0.25 U0.75
N1670 X42.766 Y269.807
N1675 ; DEPOSITION ON
N1680 G180 D0.25 U0.75
N1685 X62.667 Y249.906
N1690 ; DEPOSITION OFF
N1695 G181 D0.25 U0.75
N1700 G0 X221.24 Y91.334
N1705 ; DEPOSITION ON
N1710 G180 D0.25 U0.75
N1715 G1 X244.826 Y67.747 F508
N1720 ; DEPOSITION OFF
N1725 G181 D0.25 U0.75
N1730 X242.449 Y65.37
N1735 ; DEPOSITION ON
N1740 G180 D0.25 U0.75
N1745 X218.862 Y88.956
N1750 ; DEPOSITION OFF
N1755 G181 D0.25 U0.75
N1760 G0 X60.29 Y247.529
N1765 ; DEPOSITION ON
N1770 G180 D0.25 U0.75
N1775 G1 X40.389 Y267.43 F508
N1780 ; DEPOSITION OFF
N1785 G181 D0.25 U0.75
N1790 X38.012 Y265.053
N1795 ; DEPOSITION ON
N1800 G180 D0.25 U0.75
N1805 X57.913 Y245.152
N1810 ; DEPOSITION OFF
N1815 G181 D0.25 U0.75
N1820 G0 X216.485 Y86.579
N1825 ; DEPOSITION ON
N1830 G180 D0.25 U0.75
N1835 G1 X240.072 Y62.993 F508
N1840 ; DEPOSITION OFF
N1845 G181 D0.25 U0.75
N1850 X237.694 Y60.616
N1855 ; DEPOSITION ON
N1860 G180 D0.25 U0.75
N1865 X214.108 Y84.202
N1870 ; DEPOSITION OFF
N1875 G181 D0.25 U0.75
N1880 G0 X55.536 Y242.774
N1885 ; DEPOSITION ON
N1890 G180 D0.25 U0.75
N1895 G1 X35.634 Y262.676 F508
N1900 ; DEPOSITION OFF
N1905 G181 D0.25 U0.75
N1910 X33.257 Y260.299
N1915 ; DEPOSITION ON
N1920 G180 D0.25 U0.75
N1925 X53.159 Y240.397
N1930 ; DEPOSITION OFF
N1935 G181 D0.25 U0.75
N1940 G0 X211.731 Y81.825
N1945 ; DEPOSITION ON
N1950 G180 D0.25 U0.75
N1955 G1 X235.317 Y58.239 F508
N1960 ; DEPOSITION OFF
N1965 G181 D0.25 U0.75
N1970 X232.94 Y55.861
N1975 ; DEPOSITION ON
N1980 G180 D0.25 U0.75
N1985 X209.354 Y79.448
N1990 ; DEPOSITION OFF
N1995 G181 D0.25 U0.75
N2000 G0 X50.781 Y238.02
N2005 ; DEPOSITION ON
N2010 G180 D0.25 U0.75
N2015 G1 X30.88 Y257.921 F508
N2020 ; DEPOSITION OFF
N2025 G181 D0.25 U0.75
N2030 X28.503 Y255.544
N2035 ; DEPOSITION ON
N2040 G180 D0.25 U0.75
N2045 X48.404 Y235.643
N2050 ; DEPOSITION OFF
N2055 G181 D0.25 U0.75
N2060 G0 X206.977 Y77.071
N2065 ; DEPOSITION ON
N2070 G180 D0.25 U0.75
N2075 G1 X230.563 Y53.484 F508
N2080 ; DEPOSITION OFF
N2085 G181 D0.25 U0.75
N2090 X228.186 Y51.107
N2095 ; DEPOSITION ON
N2100 G180 D0.25 U0.75
N2105 X204.599 Y74.693
N2110 ; DEPOSITION OFF
N2115 G181 D0.25 U0.75
N2120 G0 X46.027 Y233.266
N2125 ; DEPOSITION ON
N2130 G180 D0.25 U0.75
N2135 G1 X26.126 Y253.167 F508
N2140 ; DEPOSITION OFF
N2145 G181 D0.25 U0.75
N2150 X23.748 Y250.79
N2155 ; DEPOSITION ON
N2160 G180 D0.25 U0.75
N2165 X43.65 Y230.889
N2170 ; DEPOSITION OFF
N2175 G181 D0.25 U0.75
N2180 G0 X202.222 Y72.316
N2185 ; DEPOSITION ON
N2190 G180 D0.25 U0.75
N2195 G1 X225.808 Y48.73 F508
N2200 ; DEPOSITION OFF
N2205 G181 D0.25 U0.75
N2210 X223.431 Y46.353
N2215 ; DEPOSITION ON
N2220 G180 D0.25 U0.75
N2225 X21.371 Y248.413
N2230 ; DEPOSITION OFF
N2235 G181 D0.25 U0.75
N2240 X18.994 Y246.036
N2245 ; DEPOSITION ON
N2250 G180 D0.25 U0.75
N2255 X221.054 Y43.976
N2260 ; DEPOSITION OFF
N2265 G181 D0.25 U0.75
N2270 X218.677 Y41.598
N2275 ; DEPOSITION ON
N2280 G180 D0.25 U0.75
N2285 X16.617 Y243.658
N2290 ; DEPOSITION OFF
N2295 G181 D0.25 U0.75
N2300 X14.24 Y241.281
N2305 ; DEPOSITION ON
N2310 G180 D0.25 U0.75
N2315 X216.3 Y39.221
N2320 ; DEPOSITION OFF
N2325 G181 D0.25 U0.75
N2330 X213.923 Y36.844
N2335 ; DEPOSITION ON
N2340 G180 D0.25 U0.75
N2345 X11.863 Y238.904
N2350 ; DEPOSITION OFF
N2355 G181 D0.25 U0.75
N2360 G0 X187.959 Y58.053
N2365 ; DEPOSITION ON
N2370 G180 D0.25 U0.75
N2375 G1 X211.545 Y34.467 F508
N2380 ; DEPOSITION OFF
N2385 G181 D0.25 U0.75
N2390 X209.168 Y32.09
N2395 ; DEPOSITION ON
N2400 G180 D0.25 U0.75
N2405 X185.582 Y55.676
N2410 G181 D0.25 U0.75
N2415 V.P.layer_num = 2
N2420 P12011=0
N2425 #PCALL decking.nc P1 = V.P.layer_num
N2430 P12012= 2
N2435 P12011=1
N2440 ; LAYER 2  END
N2445 ; DEPOSITION OFF
N2450 G181 D0.25 U0.75
N2455 G0 Z5.99
N2460 X270.975 Y93.896
N2465 ; LAYER 3 START
N2470 ; DEPOSITION ON
N2475 G180 D0.25 U0.75
N2480 G1 X247.388 Y117.482 F508
N2485 ; DEPOSITION OFF
N2490 G181 D0.25 U0.75
N2495 X245.011 Y115.105
N2500 ; DEPOSITION ON
N2505 G180 D0.25 U0.75
N2510 X268.598 Y91.519
N2515 ; DEPOSITION OFF
N2520 G181 D0.25 U0.75
N2525 X266.22 Y89.142
N2530 ; DEPOSITION ON
N2535 G180 D0.25 U0.75
N2540 X242.634 Y112.728
N2545 ; DEPOSITION OFF
N2550 G181 D0.25 U0.75
N2555 X240.257 Y110.351
N2560 ; DEPOSITION ON
N2565 G180 D0.25 U0.75
N2570 X263.843 Y86.765
N2575 ; DEPOSITION OFF
N2580 G181 D0.25 U0.75
N2585 X261.466 Y84.387
N2590 ; DEPOSITION ON
N2595 G180 D0.25 U0.75
N2600 X237.88 Y107.974
N2605 ; DEPOSITION OFF
N2610 G181 D0.25 U0.75
N2615 X235.503 Y105.597
N2620 ; DEPOSITION ON
N2625 G180 D0.25 U0.75
N2630 X259.089 Y82.01
N2635 ; DEPOSITION OFF
N2640 G181 D0.25 U0.75
N2645 X256.712 Y79.633
N2650 ; DEPOSITION ON
N2655 G180 D0.25 U0.75
N2660 X233.125 Y103.219
N2665 ; DEPOSITION OFF
N2670 G181 D0.25 U0.75
N2675 G0 X52.275 Y279.316
N2680 ; DEPOSITION ON
N2685 G180 D0.25 U0.75
N2690 G1 X254.335 Y77.256 F508
N2695 ; DEPOSITION OFF
N2700 G181 D0.25 U0.75
N2705 X251.957 Y74.879
N2710 ; DEPOSITION ON
N2715 G180 D0.25 U0.75
N2720 X49.897 Y276.939
N2725 ; DEPOSITION OFF
N2730 G181 D0.25 U0.75
N2735 X47.52 Y274.562
N2740 ; DEPOSITION ON
N2745 G180 D0.25 U0.75
N2750 X249.58 Y72.502
N2755 ; DEPOSITION OFF
N2760 G181 D0.25 U0.75
N2765 X247.203 Y70.124
N2770 ; DEPOSITION ON
N2775 G180 D0.25 U0.75
N2780 X223.617 Y93.711
N2785 ; DEPOSITION OFF
N2790 G181 D0.25 U0.75
N2795 G0 X65.044 Y252.283
N2800 ; DEPOSITION ON
N2805 G180 D0.25 U0.75
N2810 G1 X45.143 Y272.184 F508
N2815 ; DEPOSITION OFF
N2820 G181 D0.25 U0.75
N2825 X42.766 Y269.807
N2830 ; DEPOSITION ON
N2835 G180 D0.25 U0.75
N2840 X62.667 Y249.906
N2845 ; DEPOSITION OFF
N2850 G181 D0.25 U0.75
N2855 G0 X221.24 Y91.334
N2860 ; DEPOSITION ON
N2865 G180 D0.25 U0.75
N2870 G1 X244.826 Y67.747 F508
N2875 ; DEPOSITION OFF
N2880 G181 D0.25 U0.75
N2885 X242.449 Y65.37
N2890 ; DEPOSITION ON
N2895 G180 D0.25 U0.75
N2900 X218.862 Y88.956
N2905 ; DEPOSITION OFF
N2910 G181 D0.25 U0.75
N2915 G0 X60.29 Y247.529
N2920 ; DEPOSITION ON
N2925 G180 D0.25 U0.75
N2930 G1 X40.389 Y267.43 F508
N2935 ; DEPOSITION OFF
N2940 G181 D0.25 U0.75
N2945 X38.012 Y265.053
N2950 ; DEPOSITION ON
N2955 G180 D0.25 U0.75
N2960 X57.913 Y245.152
N2965 ; DEPOSITION OFF
N2970 G181 D0.25 U0.75
N2975 G0 X216.485 Y86.579
N2980 ; DEPOSITION ON
N2985 G180 D0.25 U0.75
N2990 G1 X240.072 Y62.993 F508
N2995 ; DEPOSITION OFF
N3000 G181 D0.25 U0.75
N3005 X237.694 Y60.616
N3010 ; DEPOSITION ON
N3015 G180 D0.25 U0.75
N3020 X214.108 Y84.202
N3025 ; DEPOSITION OFF
N3030 G181 D0.25 U0.75
N3035 G0 X55.536 Y242.774
N3040 ; DEPOSITION ON
N3045 G180 D0.25 U0.75
N3050 G1 X35.634 Y262.676 F508
N3055 ; DEPOSITION OFF
N3060 G181 D0.25 U0.75
N3065 X33.257 Y260.299
N3070 ; DEPOSITION ON
N3075 G180 D0.25 U0.75
N3080 X53.159 Y240.397
N3085 ; DEPOSITION OFF
N3090 G181 D0.25 U0.75
N3095 G0 X211.731 Y81.825
N3100 ; DEPOSITION ON
N3105 G180 D0.25 U0.75
N3110 G1 X235.317 Y58.239 F508
N3115 ; DEPOSITION OFF
N3120 G181 D0.25 U0.75
N3125 X232.94 Y55.861
N3130 ; DEPOSITION ON
N3135 G180 D0.25 U0.75
N3140 X209.354 Y79.448
N3145 ; DEPOSITION OFF
N3150 G181 D0.25 U0.75
N3155 G0 X50.781 Y238.02
N3160 ; DEPOSITION ON
N3165 G180 D0.25 U0.75
N3170 G1 X30.88 Y257.921 F508
N3175 ; DEPOSITION OFF
N3180 G181 D0.25 U0.75
N3185 X28.503 Y255.544
N3190 ; DEPOSITION ON
N3195 G180 D0.25 U0.75
N3200 X48.404 Y235.643
N3205 ; DEPOSITION OFF
N3210 G181 D0.25 U0.75
N3215 G0 X206.977 Y77.071
N3220 ; DEPOSITION ON
N3225 G180 D0.25 U0.75
N3230 G1 X230.563 Y53.484 F508
N3235 ; DEPOSITION OFF
N3240 G181 D0.25 U0.75
N3245 X228.186 Y51.107
N3250 ; DEPOSITION ON
N3255 G180 D0.25 U0.75
N3260 X204.599 Y74.693
N3265 ; DEPOSITION OFF
N3270 G181 D0.25 U0.75
N3275 G0 X46.027 Y233.266
N3280 ; DEPOSITION ON
N3285 G180 D0.25 U0.75
N3290 G1 X26.126 Y253.167 F508
N3295 ; DEPOSITION OFF
N3300 G181 D0.25 U0.75
N3305 X23.748 Y250.79
N3310 ; DEPOSITION ON
N3315 G180 D0.25 U0.75
N3320 X43.65 Y230.889
N3325 ; DEPOSITION OFF
N3330 G181 D0.25 U0.75
N3335 G0 X202.222 Y72.316
N3340 ; DEPOSITION ON
N3345 G180 D0.25 U0.75
N3350 G1 X225.808 Y48.73 F508
N3355 ; DEPOSITION OFF
N3360 G181 D0.25 U0.75
N3365 X223.431 Y46.353
N3370 ; DEPOSITION ON
N3375 G180 D0.25 U0.75
N3380 X21.371 Y248.413
N3385 ; DEPOSITION OFF
N3390 G181 D0.25 U0.75
N3395 X18.994 Y246.036
N3400 ; DEPOSITION ON
N3405 G180 D0.25 U0.75
N3410 X221.054 Y43.976
N3415 ; DEPOSITION OFF
N3420 G181 D0.25 U0.75
N3425 X218.677 Y41.598
N3430 ; DEPOSITION ON
N3435 G180 D0.25 U0.75
N3440 X16.617 Y243.658
N3445 ; DEPOSITION OFF
N3450 G181 D0.25 U0.75
N3455 X14.24 Y241.281
N3460 ; DEPOSITION ON
N3465 G180 D0.25 U0.75
N3470 X216.3 Y39.221
N3475 ; DEPOSITION OFF
N3480 G181 D0.25 U0.75
N3485 X213.923 Y36.844
N3490 ; DEPOSITION ON
N3495 G180 D0.25 U0.75
N3500 X11.863 Y238.904
N3505 ; DEPOSITION OFF
N3510 G181 D0.25 U0.75
N3515 G0 X187.959 Y58.053
N3520 ; DEPOSITION ON
N3525 G180 D0.25 U0.75
N3530 G1 X211.545 Y34.467 F508
N3535 ; DEPOSITION OFF
N3540 G181 D0.25 U0.75
N3545 X209.168 Y32.09
N3550 ; DEPOSITION ON
N3555 G180 D0.25 U0.75
N3560 X185.582 Y55.676
N3565 G181 D0.25 U0.75
N3570 V.P.layer_num = 3
N3575 P12011=0
N3580 #PCALL decking.nc P1 = V.P.layer_num
N3585 P12012= 3
N3590 P12011=1
N3595 ; LAYER 3  END
N3600 ; DEPOSITION OFF
N3605 G181 D0.25 U0.75
N3610 G0 Z8
N3615 X271.319 Y93.018
N3620 ; LAYER 4 START
N3625 ; DEPOSITION ON
N3630 G180 D0.25 U0.75
N3635 G1 X247.122 Y117.215 F508
N3640 ; DEPOSITION OFF
N3645 G181 D0.25 U0.75
N3650 X244.765 Y114.859
N3655 ; DEPOSITION ON
N3660 G180 D0.25 U0.75
N3665 X268.963 Y90.661
N3670 ; DEPOSITION OFF
N3675 G181 D0.25 U0.75
N3680 X266.606 Y88.305
N3685 ; DEPOSITION ON
N3690 G180 D0.25 U0.75
N3695 X242.408 Y112.502
N3700 ; DEPOSITION OFF
N3705 G181 D0.25 U0.75
N3710 X240.052 Y110.146
N3715 ; DEPOSITION ON
N3720 G180 D0.25 U0.75
N3725 X264.249 Y85.948
N3730 ; DEPOSITION OFF
N3735 G181 D0.25 U0.75
N3740 X261.893 Y83.591
N3745 ; DEPOSITION ON
N3750 G180 D0.25 U0.75
N3755 X237.695 Y107.789
N3760 ; DEPOSITION OFF
N3765 G181 D0.25 U0.75
N3770 X235.338 Y105.432
N3775 ; DEPOSITION ON
N3780 G180 D0.25 U0.75
N3785 X259.536 Y81.235
N3790 ; DEPOSITION OFF
N3795 G181 D0.25 U0.75
N3800 X257.179 Y78.878
N3805 ; DEPOSITION ON
N3810 G180 D0.25 U0.75
N3815 X232.982 Y103.076
N3820 ; DEPOSITION OFF
N3825 G181 D0.25 U0.75
N3830 G0 X52.151 Y279.193
N3835 ; DEPOSITION ON
N3840 G180 D0.25 U0.75
N3845 G1 X254.823 Y76.521 F508
N3850 ; DEPOSITION OFF
N3855 G181 D0.25 U0.75
N3860 X252.466 Y74.165
N3865 ; DEPOSITION ON
N3870 G180 D0.25 U0.75
N3875 X49.795 Y276.836
N3880 ; DEPOSITION OFF
N3885 G181 D0.25 U0.75
N3890 X47.438 Y274.479
N3895 ; DEPOSITION ON
N3900 G180 D0.25 U0.75
N3905 X250.109 Y71.808
N3910 ; DEPOSITION OFF
N3915 G181 D0.25 U0.75
N3920 X247.753 Y69.451
N3925 ; DEPOSITION ON
N3930 G180 D0.25 U0.75
N3935 X223.555 Y93.649
N3940 ; DEPOSITION OFF
N3945 G181 D0.25 U0.75
N3950 G0 X64.983 Y252.221
N3955 ; DEPOSITION ON
N3960 G180 D0.25 U0.75
N3965 G1 X45.081 Y272.123 F508
N3970 ; DEPOSITION OFF
N3975 G181 D0.25 U0.75
N3980 X42.725 Y269.766
N3985 ; DEPOSITION ON
N3990 G180 D0.25 U0.75
N3995 X62.626 Y249.865
N4000 ; DEPOSITION OFF
N4005 G181 D0.25 U0.75
N4010 G0 X221.199 Y91.292
N4015 ; DEPOSITION ON
N4020 G180 D0.25 U0.75
N4025 G1 X245.396 Y67.095 F508
N4030 ; DEPOSITION OFF
N4035 G181 D0.25 U0.75
N4040 X243.04 Y64.738
N4045 ; DEPOSITION ON
N4050 G180 D0.25 U0.75
N4055 X218.842 Y88.936
N4060 ; DEPOSITION OFF
N4065 G181 D0.25 U0.75
N4070 G0 X60.27 Y247.508
N4075 ; DEPOSITION ON
N4080 G180 D0.25 U0.75
N4085 G1 X40.368 Y267.41 F508
N4090 ; DEPOSITION OFF
N4095 G181 D0.25 U0.75
N4100 X38.012 Y265.053
N4105 ; DEPOSITION ON
N4110 G180 D0.25 U0.75
N4115 X57.913 Y245.152
N4120 ; DEPOSITION OFF
N4125 G181 D0.25 U0.75
N4130 G0 X216.485 Y86.579
N4135 ; DEPOSITION ON
N4140 G180 D0.25 U0.75
N4145 G1 X240.683 Y62.382 F508
N4150 ; DEPOSITION OFF
N4155 G181 D0.25 U0.75
N4160 X238.326 Y60.025
N4165 ; DEPOSITION ON
N4170 G180 D0.25 U0.75
N4175 X214.129 Y84.223
N4180 ; DEPOSITION OFF
N4185 G181 D0.25 U0.75
N4190 G0 X55.556 Y242.795
N4195 ; DEPOSITION ON
N4200 G180 D0.25 U0.75
N4205 G1 X35.655 Y262.696 F508
N4210 ; DEPOSITION OFF
N4215 G181 D0.25 U0.75
N4220 X33.298 Y260.34
N4225 ; DEPOSITION ON
N4230 G180 D0.25 U0.75
N4235 X53.2 Y240.438
N4240 ; DEPOSITION OFF
N4245 G181 D0.25 U0.75
N4250 G0 X211.772 Y81.866
N4255 ; DEPOSITION ON
N4260 G180 D0.25 U0.75
N4265 G1 X235.97 Y57.668 F508
N4270 ; DEPOSITION OFF
N4275 G181 D0.25 U0.75
N4280 X233.613 Y55.312
N4285 ; DEPOSITION ON
N4290 G180 D0.25 U0.75
N4295 X209.415 Y79.509
N4300 ; DEPOSITION OFF
N4305 G181 D0.25 U0.75
N4310 G0 X50.843 Y238.082
N4315 ; DEPOSITION ON
N4320 G180 D0.25 U0.75
N4325 G1 X30.942 Y257.983 F508
N4330 ; DEPOSITION OFF
N4335 G181 D0.25 U0.75
N4340 X28.585 Y255.626
N4345 ; DEPOSITION ON
N4350 G180 D0.25 U0.75
N4355 X48.486 Y235.725
N4360 ; DEPOSITION OFF
N4365 G181 D0.25 U0.75
N4370 G0 X207.059 Y77.153
N4375 ; DEPOSITION ON
N4380 G180 D0.25 U0.75
N4385 G1 X231.256 Y52.955 F508
N4390 ; DEPOSITION OFF
N4395 G181 D0.25 U0.75
N4400 X228.9 Y50.598
N4405 ; DEPOSITION ON
N4410 G180 D0.25 U0.75
N4415 X204.702 Y74.796
N4420 ; DEPOSITION OFF
N4425 G181 D0.25 U0.75
N4430 G0 X46.13 Y233.368
N4435 ; DEPOSITION ON
N4440 G180 D0.25 U0.75
N4445 G1 X26.228 Y253.27 F508
N4450 ; DEPOSITION OFF
N4455 G181 D0.25 U0.75
N4460 X23.872 Y250.913
N4465 ; DEPOSITION ON
N4470 G180 D0.25 U0.75
N4475 X43.773 Y231.012
N4480 ; DEPOSITION OFF
N4485 G181 D0.25 U0.75
N4490 G0 X202.345 Y72.439
N4495 ; DEPOSITION ON
N4500 G180 D0.25 U0.75
N4505 G1 X226.543 Y48.242 F508
N4510 ; DEPOSITION OFF
N4515 G181 D0.25 U0.75
N4520 X224.186 Y45.885
N4525 ; DEPOSITION ON
N4530 G180 D0.25 U0.75
N4535 X21.515 Y248.556
N4540 ; DEPOSITION OFF
N4545 G181 D0.25 U0.75
N4550 X19.158 Y246.2
N4555 ; DEPOSITION ON
N4560 G180 D0.25 U0.75
N4565 X221.83 Y43.528
N4570 ; DEPOSITION OFF
N4575 G181 D0.25 U0.75
N4580 X219.473 Y41.172
N4585 ; DEPOSITION ON
N4590 G180 D0.25 U0.75
N4595 X16.802 Y243.843
N4600 ; DEPOSITION OFF
N4605 G181 D0.25 U0.75
N4610 X14.445 Y241.487
N4615 ; DEPOSITION ON
N4620 G180 D0.25 U0.75
N4625 X217.117 Y38.815
N4630 ; DEPOSITION OFF
N4635 G181 D0.25 U0.75
N4640 X214.76 Y36.459
N4645 ; DEPOSITION ON
N4650 G180 D0.25 U0.75
N4655 X12.088 Y239.13
N4660 ; DEPOSITION OFF
N4665 G181 D0.25 U0.75
N4670 G0 X188.206 Y58.3
N4675 ; DEPOSITION ON
N4680 G180 D0.25 U0.75
N4685 G1 X212.403 Y34.102 F508
N4690 ; DEPOSITION OFF
N4695 G181 D0.25 U0.75
N4700 X210.047 Y31.745
N4705 ; DEPOSITION ON
N4710 G180 D0.25 U0.75
N4715 X185.849 Y55.943
N4720 G181 D0.25 U0.75
N4725 V.P.layer_num = 4
N4730 P12011=0
N4735 #PCALL decking.nc P1 = V.P.layer_num
N4740 P12012= 4
N4745 P12011=1
N4750 ; LAYER 4  END
N4755 ; DEPOSITION OFF
N4760 G181 D0.25 U0.75
N4765 G0 Z10
N4770 X272.023 Y92.499
N4775 ; LAYER 5 START
N4780 ; DEPOSITION ON
N4785 G180 D0.25 U0.75
N4790 G1 X247.214 Y117.308 F508
N4795 ; DEPOSITION OFF
N4800 G181 D0.25 U0.75
N4805 X244.85 Y114.944
N4810 ; DEPOSITION ON
N4815 G180 D0.25 U0.75
N4820 X269.659 Y90.135
N4825 ; DEPOSITION OFF
N4830 G181 D0.25 U0.75
N4835 X267.296 Y87.771
N4840 ; DEPOSITION ON
N4845 G180 D0.25 U0.75
N4850 X242.486 Y112.58
N4855 ; DEPOSITION OFF
N4860 G181 D0.25 U0.75
N4865 X240.123 Y110.217
N4870 ; DEPOSITION ON
N4875 G180 D0.25 U0.75
N4880 X264.932 Y85.408
N4885 ; DEPOSITION OFF
N4890 G181 D0.25 U0.75
N4895 X262.568 Y83.044
N4900 ; DEPOSITION ON
N4905 G180 D0.25 U0.75
N4910 X237.759 Y107.853
N4915 ; DEPOSITION OFF
N4920 G181 D0.25 U0.75
N4925 X235.395 Y105.489
N4930 ; DEPOSITION ON
N4935 G180 D0.25 U0.75
N4940 X260.204 Y80.68
N4945 ; DEPOSITION OFF
N4950 G181 D0.25 U0.75
N4955 X257.841 Y78.316
N4960 ; DEPOSITION ON
N4965 G180 D0.25 U0.75
N4970 X233.031 Y103.125
N4975 ; DEPOSITION OFF
N4980 G181 D0.25 U0.75
N4985 G0 X52.194 Y279.235
N4990 ; DEPOSITION ON
N4995 G180 D0.25 U0.75
N5000 G1 X255.477 Y75.953 F508
N5005 ; DEPOSITION OFF
N5010 G181 D0.25 U0.75
N5015 X253.113 Y73.589
N5020 ; DEPOSITION ON
N5025 G180 D0.25 U0.75
N5030 X49.83 Y276.872
N5035 ; DEPOSITION OFF
N5040 G181 D0.25 U0.75
N5045 X47.466 Y274.508
N5050 ; DEPOSITION ON
N5055 G180 D0.25 U0.75
N5060 X250.749 Y71.225
N5065 ; DEPOSITION OFF
N5070 G181 D0.25 U0.75
N5075 X248.386 Y68.861
N5080 ; DEPOSITION ON
N5085 G180 D0.25 U0.75
N5090 X223.576 Y93.67
N5095 ; DEPOSITION OFF
N5100 G181 D0.25 U0.75
N5105 G0 X65.004 Y252.243
N5110 ; DEPOSITION ON
N5115 G180 D0.25 U0.75
N5120 G1 X45.103 Y272.144 F508
N5125 ; DEPOSITION OFF
N5130 G181 D0.25 U0.75
N5135 X42.739 Y269.78
N5140 ; DEPOSITION ON
N5145 G180 D0.25 U0.75
N5150 X62.64 Y249.879
N5155 ; DEPOSITION OFF
N5160 G181 D0.25 U0.75
N5165 G0 X221.213 Y91.307
N5170 ; DEPOSITION ON
N5175 G180 D0.25 U0.75
N5180 G1 X246.022 Y66.498 F508
N5185 ; DEPOSITION OFF
N5190 G181 D0.25 U0.75
N5195 X243.658 Y64.134
N5200 ; DEPOSITION ON
N5205 G180 D0.25 U0.75
N5210 X218.849 Y88.943
N5215 ; DEPOSITION OFF
N5220 G181 D0.25 U0.75
N5225 G0 X60.277 Y247.515
N5230 ; DEPOSITION ON
N5235 G180 D0.25 U0.75
N5240 G1 X40.375 Y267.417 F508
N5245 ; DEPOSITION OFF
N5250 G181 D0.25 U0.75
N5255 X38.012 Y265.053
N5260 ; DEPOSITION ON
N5265 G180 D0.25 U0.75
N5270 X57.913 Y245.152
N5275 ; DEPOSITION OFF
N5280 G181 D0.25 U0.75
N5285 G0 X216.485 Y86.579
N5290 ; DEPOSITION ON
N5295 G180 D0.25 U0.75
N5300 G1 X241.294 Y61.77 F508
N5305 ; DEPOSITION OFF
N5310 G181 D0.25 U0.75
N5315 X238.931 Y59.406
N5320 ; DEPOSITION ON
N5325 G180 D0.25 U0.75
N5330 X214.122 Y84.215
N5335 ; DEPOSITION OFF
N5340 G181 D0.25 U0.75
N5345 G0 X55.549 Y242.788
N5350 ; DEPOSITION ON
N5355 G180 D0.25 U0.75
N5360 G1 X35.648 Y262.689 F508
N5365 ; DEPOSITION OFF
N5370 G181 D0.25 U0.75
N5375 X33.284 Y260.325
N5380 ; DEPOSITION ON
N5385 G180 D0.25 U0.75
N5390 X53.185 Y240.424
N5395 ; DEPOSITION OFF
N5400 G181 D0.25 U0.75
N5405 G0 X211.758 Y81.852
N5410 ; DEPOSITION ON
N5415 G180 D0.25 U0.75
N5420 G1 X236.567 Y57.043 F508
N5425 ; DEPOSITION OFF
N5430 G181 D0.25 U0.75
N5435 X234.203 Y54.679
N5440 ; DEPOSITION ON
N5445 G180 D0.25 U0.75
N5450 X209.394 Y79.488
N5455 ; DEPOSITION OFF
N5460 G181 D0.25 U0.75
N5465 G0 X50.822 Y238.06
N5470 ; DEPOSITION ON
N5475 G180 D0.25 U0.75
N5480 G1 X30.92 Y257.962 F508
N5485 ; DEPOSITION OFF
N5490 G181 D0.25 U0.75
N5495 X28.557 Y255.598
N5500 ; DEPOSITION ON
N5505 G180 D0.25 U0.75
N5510 X48.458 Y235.697
N5515 ; DEPOSITION OFF
N5520 G181 D0.25 U0.75
N5525 G0 X207.03 Y77.124
N5530 ; DEPOSITION ON
N5535 G180 D0.25 U0.75
N5540 G1 X231.839 Y52.315 F508
N5545 ; DEPOSITION OFF
N5550 G181 D0.25 U0.75
N5555 X229.476 Y49.951
N5560 ; DEPOSITION ON
N5565 G180 D0.25 U0.75
N5570 X204.667 Y74.76
N5575 ; DEPOSITION OFF
N5580 G181 D0.25 U0.75
N5585 G0 X46.094 Y233.333
N5590 ; DEPOSITION ON
N5595 G180 D0.25 U0.75
N5600 G1 X26.193 Y253.234 F508
N5605 ; DEPOSITION OFF
N5610 G181 D0.25 U0.75
N5615 X23.829 Y250.87
N5620 ; DEPOSITION ON
N5625 G180 D0.25 U0.75
N5630 X43.73 Y230.969
N5635 ; DEPOSITION OFF
N5640 G181 D0.25 U0.75
N5645 G0 X202.303 Y72.397
N5650 ; DEPOSITION ON
N5655 G180 D0.25 U0.75
N5660 G1 X227.112 Y47.588 F508
N5665 ; DEPOSITION OFF
N5670 G181 D0.25 U0.75
N5675 X224.748 Y45.224
N5680 ; DEPOSITION ON
N5685 G180 D0.25 U0.75
N5690 X21.465 Y248.507
N5695 ; DEPOSITION OFF
N5700 G181 D0.25 U0.75
N5705 X19.102 Y246.143
N5710 ; DEPOSITION ON
N5715 G180 D0.25 U0.75
N5720 X222.384 Y42.86
N5725 ; DEPOSITION OFF
N5730 G181 D0.25 U0.75
N5735 X220.021 Y40.496
N5740 ; DEPOSITION ON
N5745 G180 D0.25 U0.75
N5750 X16.738 Y243.779
N5755 ; DEPOSITION OFF
N5760 G181 D0.25 U0.75
N5765 X14.374 Y241.415
N5770 ; DEPOSITION ON
N5775 G180 D0.25 U0.75
N5780 X217.657 Y38.133
N5785 ; DEPOSITION OFF
N5790 G181 D0.25 U0.75
N5795 X215.293 Y35.769
N5800 ; DEPOSITION ON
N5805 G180 D0.25 U0.75
N5810 X12.01 Y239.052
N5815 ; DEPOSITION OFF
N5820 G181 D0.25 U0.75
N5825 G0 X188.12 Y58.214
N5830 ; DEPOSITION ON
N5835 G180 D0.25 U0.75
N5840 G1 X212.929 Y33.405 F508
N5845 ; DEPOSITION OFF
N5850 G181 D0.25 U0.75
N5855 X210.566 Y31.041
N5860 ; DEPOSITION ON
N5865 G180 D0.25 U0.75
N5870 X185.757 Y55.85
N5875 G181 D0.25 U0.75
N5880 V.P.layer_num = 5
N5885 P12011=0
N5890 #PCALL decking.nc P1 = V.P.layer_num
N5895 P12012= 5
N5900 P12011=1
N5905 ; LAYER 5  END
N5910 ; DEPOSITION OFF
N5915 G181 D0.25 U0.75
N5920 G0 Z12
N5925 X272.727 Y91.98
N5930 ; LAYER 6 START
N5935 ; DEPOSITION ON
N5940 G180 D0.25 U0.75
N5945 G1 X247.306 Y117.4 F508
N5950 ; DEPOSITION OFF
N5955 G181 D0.25 U0.75
N5960 X244.936 Y115.029
N5965 ; DEPOSITION ON
N5970 G180 D0.25 U0.75
N5975 X270.356 Y89.609
N5980 ; DEPOSITION OFF
N5985 G181 D0.25 U0.75
N5990 X267.985 Y87.238
N5995 ; DEPOSITION ON
N6000 G180 D0.25 U0.75
N6005 X242.565 Y112.659
N6010 ; DEPOSITION OFF
N6015 G181 D0.25 U0.75
N6020 X240.194 Y110.288
N6025 ; DEPOSITION ON
N6030 G180 D0.25 U0.75
N6035 X265.614 Y84.867
N6040 ; DEPOSITION OFF
N6045 G181 D0.25 U0.75
N6050 X263.243 Y82.496
N6055 ; DEPOSITION ON
N6060 G180 D0.25 U0.75
N6065 X237.823 Y107.917
N6070 ; DEPOSITION OFF
N6075 G181 D0.25 U0.75
N6080 X235.452 Y105.546
N6085 ; DEPOSITION ON
N6090 G180 D0.25 U0.75
N6095 X260.873 Y80.126
N6100 ; DEPOSITION OFF
N6105 G181 D0.25 U0.75
N6110 X258.502 Y77.755
N6115 ; DEPOSITION ON
N6120 G180 D0.25 U0.75
N6125 X233.081 Y103.175
N6130 ; DEPOSITION OFF
N6135 G181 D0.25 U0.75
N6140 G0 X52.237 Y279.278
N6145 ; DEPOSITION ON
N6150 G180 D0.25 U0.75
N6155 G1 X256.131 Y75.384 F508
N6160 ; DEPOSITION OFF
N6165 G181 D0.25 U0.75
N6170 X253.76 Y73.013
N6175 ; DEPOSITION ON
N6180 G180 D0.25 U0.75
N6185 X49.866 Y276.907
N6190 ; DEPOSITION OFF
N6195 G181 D0.25 U0.75
N6200 X47.495 Y274.536
N6205 ; DEPOSITION ON
N6210 G180 D0.25 U0.75
N6215 X251.389 Y70.642
N6220 ; DEPOSITION OFF
N6225 G181 D0.25 U0.75
N6230 X249.018 Y68.271
N6235 ; DEPOSITION ON
N6240 G180 D0.25 U0.75
N6245 X223.598 Y93.692
N6250 ; DEPOSITION OFF
N6255 G181 D0.25 U0.75
N6260 G0 X65.025 Y252.264
N6265 ; DEPOSITION ON
N6270 G180 D0.25 U0.75
N6275 G1 X45.124 Y272.166 F508
N6280 ; DEPOSITION OFF
N6285 G181 D0.25 U0.75
N6290 X42.753 Y269.795
N6295 ; DEPOSITION ON
N6300 G180 D0.25 U0.75
N6305 X62.655 Y249.893
N6310 ; DEPOSITION OFF
N6315 G181 D0.25 U0.75
N6320 G0 X221.227 Y91.321
N6325 ; DEPOSITION ON
N6330 G180 D0.25 U0.75
N6335 G1 X246.647 Y65.9 F508
N6340 ; DEPOSITION OFF
N6345 G181 D0.25 U0.75
N6350 X244.277 Y63.53
N6355 ; DEPOSITION ON
N6360 G180 D0.25 U0.75
N6365 X218.856 Y88.95
N6370 ; DEPOSITION OFF
N6375 G181 D0.25 U0.75
N6380 G0 X60.284 Y247.522
N6385 ; DEPOSITION ON
N6390 G180 D0.25 U0.75
N6395 G1 X40.382 Y267.424 F508
N6400 ; DEPOSITION OFF
N6405 G181 D0.25 U0.75
N6410 X38.012 Y265.053
N6415 ; DEPOSITION ON
N6420 G180 D0.25 U0.75
N6425 X57.913 Y245.152
N6430 ; DEPOSITION OFF
N6435 G181 D0.25 U0.75
N6440 G0 X216.485 Y86.579
N6445 ; DEPOSITION ON
N6450 G180 D0.25 U0.75
N6455 G1 X241.906 Y61.159 F508
N6460 ; DEPOSITION OFF
N6465 G181 D0.25 U0.75
N6470 X239.535 Y58.788
N6475 ; DEPOSITION ON
N6480 G180 D0.25 U0.75
N6485 X214.114 Y84.208
N6490 ; DEPOSITION OFF
N6495 G181 D0.25 U0.75
N6500 G0 X55.542 Y242.781
N6505 ; DEPOSITION ON
N6510 G180 D0.25 U0.75
N6515 G1 X35.641 Y262.682 F508
N6520 ; DEPOSITION OFF
N6525 G181 D0.25 U0.75
N6530 X33.27 Y260.311
N6535 ; DEPOSITION ON
N6540 G180 D0.25 U0.75
N6545 X53.171 Y240.41
N6550 ; DEPOSITION OFF
N6555 G181 D0.25 U0.75
N6560 G0 X211.744 Y81.837
N6565 ; DEPOSITION ON
N6570 G180 D0.25 U0.75
N6575 G1 X237.164 Y56.417 F508
N6580 ; DEPOSITION OFF
N6585 G181 D0.25 U0.75
N6590 X234.793 Y54.046
N6595 ; DEPOSITION ON
N6600 G180 D0.25 U0.75
N6605 X209.373 Y79.467
N6610 ; DEPOSITION OFF
N6615 G181 D0.25 U0.75
N6620 G0 X50.8 Y238.039
N6625 ; DEPOSITION ON
N6630 G180 D0.25 U0.75
N6635 G1 X30.899 Y257.94 F508
N6640 ; DEPOSITION OFF
N6645 G181 D0.25 U0.75
N6650 X28.528 Y255.57
N6655 ; DEPOSITION ON
N6660 G180 D0.25 U0.75
N6665 X48.429 Y235.668
N6670 ; DEPOSITION OFF
N6675 G181 D0.25 U0.75
N6680 G0 X207.002 Y77.096
N6685 ; DEPOSITION ON
N6690 G180 D0.25 U0.75
N6695 G1 X232.422 Y51.675 F508
N6700 ; DEPOSITION OFF
N6705 G181 D0.25 U0.75
N6710 X230.051 Y49.304
N6715 ; DEPOSITION ON
N6720 G180 D0.25 U0.75
N6725 X204.631 Y74.725
N6730 ; DEPOSITION OFF
N6735 G181 D0.25 U0.75
N6740 G0 X46.059 Y233.297
N6745 ; DEPOSITION ON
N6750 G180 D0.25 U0.75
N6755 G1 X26.157 Y253.199 F508
N6760 ; DEPOSITION OFF
N6765 G181 D0.25 U0.75
N6770 X23.786 Y250.828
N6775 ; DEPOSITION ON
N6780 G180 D0.25 U0.75
N6785 X43.688 Y230.926
N6790 ; DEPOSITION OFF
N6795 G181 D0.25 U0.75
N6800 G0 X202.26 Y72.354
N6805 ; DEPOSITION ON
N6810 G180 D0.25 U0.75
N6815 G1 X227.681 Y46.934 F508
N6820 ; DEPOSITION OFF
N6825 G181 D0.25 U0.75
N6830 X225.31 Y44.563
N6835 ; DEPOSITION ON
N6840 G180 D0.25 U0.75
N6845 X21.416 Y248.457
N6850 ; DEPOSITION OFF
N6855 G181 D0.25 U0.75
N6860 X19.045 Y246.086
N6865 ; DEPOSITION ON
N6870 G180 D0.25 U0.75
N6875 X222.939 Y42.192
N6880 ; DEPOSITION OFF
N6885 G181 D0.25 U0.75
N6890 X220.568 Y39.821
N6895 ; DEPOSITION ON
N6900 G180 D0.25 U0.75
N6905 X16.674 Y243.715
N6910 ; DEPOSITION OFF
N6915 G181 D0.25 U0.75
N6920 X14.303 Y241.344
N6925 ; DEPOSITION ON
N6930 G180 D0.25 U0.75
N6935 X218.197 Y37.45
N6940 ; DEPOSITION OFF
N6945 G181 D0.25 U0.75
N6950 X215.826 Y35.079
N6955 ; DEPOSITION ON
N6960 G180 D0.25 U0.75
N6965 X11.932 Y238.974
N6970 ; DEPOSITION OFF
N6975 G181 D0.25 U0.75
N6980 G0 X188.035 Y58.129
N6985 ; DEPOSITION ON
N6990 G180 D0.25 U0.75
N6995 G1 X213.455 Y32.708 F508
N7000 ; DEPOSITION OFF
N7005 G181 D0.25 U0.75
N7010 X211.085 Y30.338
N7015 ; DEPOSITION ON
N7020 G180 D0.25 U0.75
N7025 X185.664 Y55.758
N7030 G181 D0.25 U0.75
N7035 V.P.layer_num = 6
N7040 P12011=0
N7045 #PCALL decking.nc P1 = V.P.layer_num
N7050 P12012= 6
N7055 P12011=1
N7060 ; LAYER 6  END
N7065 ; DEPOSITION OFF
N7070 G181 D0.25 U0.75
N7075 G0 Z14
N7080 X273.431 Y91.461
N7085 ; LAYER 7 START
N7090 ; DEPOSITION ON
N7095 G180 D0.25 U0.75
N7100 G1 X247.399 Y117.493 F508
N7105 ; DEPOSITION OFF
N7110 G181 D0.25 U0.75
N7115 X245.021 Y115.115
N7120 ; DEPOSITION ON
N7125 G180 D0.25 U0.75
N7130 X271.053 Y89.083
N7135 ; DEPOSITION OFF
N7140 G181 D0.25 U0.75
N7145 X268.675 Y86.705
N7150 ; DEPOSITION ON
N7155 G180 D0.25 U0.75
N7160 X242.643 Y112.737
N7165 ; DEPOSITION OFF
N7170 G181 D0.25 U0.75
N7175 X240.265 Y110.359
N7180 ; DEPOSITION ON
N7185 G180 D0.25 U0.75
N7190 X266.297 Y84.327
N7195 ; DEPOSITION OFF
N7200 G181 D0.25 U0.75
N7205 X263.919 Y81.949
N7210 ; DEPOSITION ON
N7215 G180 D0.25 U0.75
N7220 X237.887 Y107.981
N7225 ; DEPOSITION OFF
N7230 G181 D0.25 U0.75
N7235 X235.509 Y105.603
N7240 ; DEPOSITION ON
N7245 G180 D0.25 U0.75
N7250 X261.541 Y79.571
N7255 ; DEPOSITION OFF
N7260 G181 D0.25 U0.75
N7265 X259.163 Y77.193
N7270 ; DEPOSITION ON
N7275 G180 D0.25 U0.75
N7280 X233.131 Y103.225
N7285 ; DEPOSITION OFF
N7290 G181 D0.25 U0.75
N7295 G0 X52.279 Y279.321
N7300 ; DEPOSITION ON
N7305 G180 D0.25 U0.75
N7310 G1 X256.785 Y74.815 F508
N7315 ; DEPOSITION OFF
N7320 G181 D0.25 U0.75
N7325 X254.407 Y72.437
N7330 ; DEPOSITION ON
N7335 G180 D0.25 U0.75
N7340 X49.901 Y276.943
N7345 ; DEPOSITION OFF
N7350 G181 D0.25 U0.75
N7355 X47.523 Y274.565
N7360 ; DEPOSITION ON
N7365 G180 D0.25 U0.75
N7370 X252.029 Y70.059
N7375 ; DEPOSITION OFF
N7380 G181 D0.25 U0.75
N7385 X249.651 Y67.681
N7390 ; DEPOSITION ON
N7395 G180 D0.25 U0.75
N7400 X223.619 Y93.713
N7405 ; DEPOSITION OFF
N7410 G181 D0.25 U0.75
N7415 G0 X65.047 Y252.285
N7420 ; DEPOSITION ON
N7425 G180 D0.25 U0.75
N7430 G1 X45.145 Y272.187 F508
N7435 ; DEPOSITION OFF
N7440 G181 D0.25 U0.75
N7445 X42.767 Y269.809
N7450 ; DEPOSITION ON
N7455 G180 D0.25 U0.75
N7460 X62.669 Y249.908
N7465 ; DEPOSITION OFF
N7470 G181 D0.25 U0.75
N7475 G0 X221.241 Y91.335
N7480 ; DEPOSITION ON
N7485 G180 D0.25 U0.75
N7490 G1 X247.273 Y65.303 F508
N7495 ; DEPOSITION OFF
N7500 G181 D0.25 U0.75
N7505 X244.895 Y62.925
N7510 ; DEPOSITION ON
N7515 G180 D0.25 U0.75
N7520 X218.863 Y88.957
N7525 ; DEPOSITION OFF
N7530 G181 D0.25 U0.75
N7535 G0 X60.291 Y247.53
N7540 ; DEPOSITION ON
N7545 G180 D0.25 U0.75
N7550 G1 X40.389 Y267.431 F508
N7555 ; DEPOSITION OFF
N7560 G181 D0.25 U0.75
N7565 X38.012 Y265.053
N7570 ; DEPOSITION ON
N7575 G180 D0.25 U0.75
N7580 X57.913 Y245.152
N7585 ; DEPOSITION OFF
N7590 G181 D0.25 U0.75
N7595 G0 X216.485 Y86.579
N7600 ; DEPOSITION ON
N7605 G180 D0.25 U0.75
N7610 G1 X242.517 Y60.547 F508
N7615 ; DEPOSITION OFF
N7620 G181 D0.25 U0.75
N7625 X240.139 Y58.169
N7630 ; DEPOSITION ON
N7635 G180 D0.25 U0.75
N7640 X214.107 Y84.201
N7645 ; DEPOSITION OFF
N7650 G181 D0.25 U0.75
N7655 G0 X55.535 Y242.774
N7660 ; DEPOSITION ON
N7665 G180 D0.25 U0.75
N7670 G1 X35.634 Y262.675 F508
N7675 ; DEPOSITION OFF
N7680 G181 D0.25 U0.75
N7685 X33.256 Y260.297
N7690 ; DEPOSITION ON
N7695 G180 D0.25 U0.75
N7700 X53.157 Y240.396
N7705 ; DEPOSITION OFF
N7710 G181 D0.25 U0.75
N7715 G0 X211.729 Y81.823
N7720 ; DEPOSITION ON
N7725 G180 D0.25 U0.75
N7730 G1 X237.761 Y55.791 F508
N7735 ; DEPOSITION OFF
N7740 G181 D0.25 U0.75
N7745 X235.383 Y53.413
N7750 ; DEPOSITION ON
N7755 G180 D0.25 U0.75
N7760 X209.351 Y79.445
N7765 ; DEPOSITION OFF
N7770 G181 D0.25 U0.75
N7775 G0 X50.779 Y238.018
N7780 ; DEPOSITION ON
N7785 G180 D0.25 U0.75
N7790 G1 X30.878 Y257.919 F508
N7795 ; DEPOSITION OFF
N7800 G181 D0.25 U0.75
N7805 X28.5 Y255.541
N7810 ; DEPOSITION ON
N7815 G180 D0.25 U0.75
N7820 X48.401 Y235.64
N7825 ; DEPOSITION OFF
N7830 G181 D0.25 U0.75
N7835 G0 X206.973 Y77.067
N7840 ; DEPOSITION ON
N7845 G180 D0.25 U0.75
N7850 G1 X233.005 Y51.035 F508
N7855 ; DEPOSITION OFF
N7860 G181 D0.25 U0.75
N7865 X230.627 Y48.657
N7870 ; DEPOSITION ON
N7875 G180 D0.25 U0.75
N7880 X204.595 Y74.689
N7885 ; DEPOSITION OFF
N7890 G181 D0.25 U0.75
N7895 G0 X46.023 Y233.262
N7900 ; DEPOSITION ON
N7905 G180 D0.25 U0.75
N7910 G1 X26.122 Y253.163 F508
N7915 ; DEPOSITION OFF
N7920 G181 D0.25 U0.75
N7925 X23.744 Y250.785
N7930 ; DEPOSITION ON
N7935 G180 D0.25 U0.75
N7940 X43.645 Y230.884
N7945 ; DEPOSITION OFF
N7950 G181 D0.25 U0.75
N7955 G0 X202.217 Y72.311
N7960 ; DEPOSITION ON
N7965 G180 D0.25 U0.75
N7970 G1 X228.249 Y46.279 F508
N7975 ; DEPOSITION OFF
N7980 G181 D0.25 U0.75
N7985 X225.871 Y43.901
N7990 ; DEPOSITION ON
N7995 G180 D0.25 U0.75
N8000 X21.366 Y248.407
N8005 ; DEPOSITION OFF
N8010 G181 D0.25 U0.75
N8015 X18.988 Y246.029
N8020 ; DEPOSITION ON
N8025 G180 D0.25 U0.75
N8030 X223.493 Y41.524
N8035 ; DEPOSITION OFF
N8040 G181 D0.25 U0.75
N8045 X221.116 Y39.146
N8050 ; DEPOSITION ON
N8055 G180 D0.25 U0.75
N8060 X16.61 Y243.651
N8065 ; DEPOSITION OFF
N8070 G181 D0.25 U0.75
N8075 X14.232 Y241.273
N8080 ; DEPOSITION ON
N8085 G180 D0.25 U0.75
N8090 X218.738 Y36.768
N8095 ; DEPOSITION OFF
N8100 G181 D0.25 U0.75
N8105 X216.36 Y34.39
N8110 ; DEPOSITION ON
N8115 G180 D0.25 U0.75
N8120 X11.854 Y238.895
N8125 ; DEPOSITION OFF
N8130 G181 D0.25 U0.75
N8135 G0 X187.95 Y58.044
N8140 ; DEPOSITION ON
N8145 G180 D0.25 U0.75
N8150 G1 X213.982 Y32.012 F508
N8155 ; DEPOSITION OFF
N8160 G181 D0.25 U0.75
N8165 X211.604 Y29.634
N8170 ; DEPOSITION ON
N8175 G180 D0.25 U0.75
N8180 X185.572 Y55.666
N8185 G181 D0.25 U0.75
N8190 V.P.layer_num = 7
N8195 P12011=0
N8200 #PCALL decking.nc P1 = V.P.layer_num
N8205 P12012= 7
N8210 P12011=1
N8215 ; LAYER 7  END
N8220 ; DEPOSITION OFF
N8225 G181 D0.25 U0.75
N8230 G0 Z16
N8235 X273.778 Y90.585
N8240 ; LAYER 8 START
N8245 ; DEPOSITION ON
N8250 G180 D0.25 U0.75
N8255 G1 X247.135 Y117.229 F508
N8260 ; DEPOSITION OFF
N8265 G181 D0.25 U0.75
N8270 X244.777 Y114.871
N8275 ; DEPOSITION ON
N8280 G180 D0.25 U0.75
N8285 X271.421 Y88.228
N8290 ; DEPOSITION OFF
N8295 G181 D0.25 U0.75
N8300 X269.063 Y85.87
N8305 ; DEPOSITION ON
N8310 G180 D0.25 U0.75
N8315 X242.42 Y112.513
N8320 ; DEPOSITION OFF
N8325 G181 D0.25 U0.75
N8330 X240.062 Y110.156
N8335 ; DEPOSITION ON
N8340 G180 D0.25 U0.75
N8345 X266.705 Y83.512
N8350 ; DEPOSITION OFF
N8355 G181 D0.25 U0.75
N8360 X264.348 Y81.155
N8365 ; DEPOSITION ON
N8370 G180 D0.25 U0.75
N8375 X237.704 Y107.798
N8380 ; DEPOSITION OFF
N8385 G181 D0.25 U0.75
N8390 X235.347 Y105.44
N8395 ; DEPOSITION ON
N8400 G180 D0.25 U0.75
N8405 X261.99 Y78.797
N8410 ; DEPOSITION OFF
N8415 G181 D0.25 U0.75
N8420 X259.632 Y76.439
N8425 ; DEPOSITION ON
N8430 G180 D0.25 U0.75
N8435 X232.989 Y103.083
N8440 ; DEPOSITION OFF
N8445 G181 D0.25 U0.75
N8450 G0 X52.157 Y279.199
N8455 ; DEPOSITION ON
N8460 G180 D0.25 U0.75
N8465 G1 X257.275 Y74.082 F508
N8470 ; DEPOSITION OFF
N8475 G181 D0.25 U0.75
N8480 X254.917 Y71.724
N8485 ; DEPOSITION ON
N8490 G180 D0.25 U0.75
N8495 X49.8 Y276.841
N8500 ; DEPOSITION OFF
N8505 G181 D0.25 U0.75
N8510 X47.442 Y274.484
N8515 ; DEPOSITION ON
N8520 G180 D0.25 U0.75
N8525 X252.559 Y69.366
N8530 ; DEPOSITION OFF
N8535 G181 D0.25 U0.75
N8540 X250.202 Y67.009
N8545 ; DEPOSITION ON
N8550 G180 D0.25 U0.75
N8555 X223.558 Y93.652
N8560 ; DEPOSITION OFF
N8565 G181 D0.25 U0.75
N8570 G0 X64.986 Y252.225
N8575 ; DEPOSITION ON
N8580 G180 D0.25 U0.75
N8585 G1 X45.084 Y272.126 F508
N8590 ; DEPOSITION OFF
N8595 G181 D0.25 U0.75
N8600 X42.727 Y269.768
N8605 ; DEPOSITION ON
N8610 G180 D0.25 U0.75
N8615 X62.628 Y249.867
N8620 ; DEPOSITION OFF
N8625 G181 D0.25 U0.75
N8630 G0 X221.201 Y91.295
N8635 ; DEPOSITION ON
N8640 G180 D0.25 U0.75
N8645 G1 X247.844 Y64.651 F508
N8650 ; DEPOSITION OFF
N8655 G181 D0.25 U0.75
N8660 X245.486 Y62.293
N8665 ; DEPOSITION ON
N8670 G180 D0.25 U0.75
N8675 X218.843 Y88.937
N8680 ; DEPOSITION OFF
N8685 G181 D0.25 U0.75
N8690 G0 X60.271 Y247.509
N8695 ; DEPOSITION ON
N8700 G180 D0.25 U0.75
N8705 G1 X40.369 Y267.411 F508
N8710 ; DEPOSITION OFF
N8715 G181 D0.25 U0.75
N8720 X38.012 Y265.053
N8725 ; DEPOSITION ON
N8730 G180 D0.25 U0.75
N8735 X57.913 Y245.152
N8740 ; DEPOSITION OFF
N8745 G181 D0.25 U0.75
N8750 G0 X216.485 Y86.579
N8755 ; DEPOSITION ON
N8760 G180 D0.25 U0.75
N8765 G1 X243.129 Y59.936 F508
N8770 ; DEPOSITION OFF
N8775 G181 D0.25 U0.75
N8780 X240.771 Y57.578
N8785 ; DEPOSITION ON
N8790 G180 D0.25 U0.75
N8795 X214.128 Y84.222
N8800 ; DEPOSITION OFF
N8805 G181 D0.25 U0.75
N8810 G0 X55.555 Y242.794
N8815 ; DEPOSITION ON
N8820 G180 D0.25 U0.75
N8825 G1 X35.654 Y262.695 F508
N8830 ; DEPOSITION OFF
N8835 G181 D0.25 U0.75
N8840 X33.296 Y260.338
N8845 ; DEPOSITION ON
N8850 G180 D0.25 U0.75
N8855 X53.198 Y240.436
N8860 ; DEPOSITION OFF
N8865 G181 D0.25 U0.75
N8870 G0 X211.77 Y81.864
N8875 ; DEPOSITION ON
N8880 G180 D0.25 U0.75
N8885 G1 X238.413 Y55.221 F508
N8890 ; DEPOSITION OFF
N8895 G181 D0.25 U0.75
N8900 X236.056 Y52.863
N8905 ; DEPOSITION ON
N8910 G180 D0.25 U0.75
N8915 X209.412 Y79.506
N8920 ; DEPOSITION OFF
N8925 G181 D0.25 U0.75
N8930 G0 X50.84 Y238.079
N8935 ; DEPOSITION ON
N8940 G180 D0.25 U0.75
N8945 G1 X30.939 Y257.98 F508
N8950 ; DEPOSITION OFF
N8955 G181 D0.25 U0.75
N8960 X28.581 Y255.622
N8965 ; DEPOSITION ON
N8970 G180 D0.25 U0.75
N8975 X48.482 Y235.721
N8980 ; DEPOSITION OFF
N8985 G181 D0.25 U0.75
N8990 G0 X207.055 Y77.149
N8995 ; DEPOSITION ON
N9000 G180 D0.25 U0.75
N9005 G1 X233.698 Y50.505 F508
N9010 ; DEPOSITION OFF
N9015 G181 D0.25 U0.75
N9020 X231.34 Y48.148
N9025 ; DEPOSITION ON
N9030 G180 D0.25 U0.75
N9035 X204.697 Y74.791
N9040 ; DEPOSITION OFF
N9045 G181 D0.25 U0.75
N9050 G0 X46.125 Y233.363
N9055 ; DEPOSITION ON
N9060 G180 D0.25 U0.75
N9065 G1 X26.223 Y253.265 F508
N9070 ; DEPOSITION OFF
N9075 G181 D0.25 U0.75
N9080 X23.866 Y250.907
N9085 ; DEPOSITION ON
N9090 G180 D0.25 U0.75
N9095 X43.767 Y231.006
N9100 ; DEPOSITION OFF
N9105 G181 D0.25 U0.75
N9110 G0 X202.339 Y72.433
N9115 ; DEPOSITION ON
N9120 G180 D0.25 U0.75
N9125 G1 X228.983 Y45.79 F508
N9130 ; DEPOSITION OFF
N9135 G181 D0.25 U0.75
N9140 X226.625 Y43.432
N9145 ; DEPOSITION ON
N9150 G180 D0.25 U0.75
N9155 X21.508 Y248.549
N9160 ; DEPOSITION OFF
N9165 G181 D0.25 U0.75
N9170 X19.15 Y246.192
N9175 ; DEPOSITION ON
N9180 G180 D0.25 U0.75
N9185 X224.267 Y41.075
N9190 ; DEPOSITION OFF
N9195 G181 D0.25 U0.75
N9200 X221.91 Y38.717
N9205 ; DEPOSITION ON
N9210 G180 D0.25 U0.75
N9215 X16.793 Y243.834
N9220 ; DEPOSITION OFF
N9225 G181 D0.25 U0.75
N9230 X14.435 Y241.476
N9235 ; DEPOSITION ON
N9240 G180 D0.25 U0.75
N9245 X219.552 Y36.359
N9250 ; DEPOSITION OFF
N9255 G181 D0.25 U0.75
N9260 X217.194 Y34.002
N9265 ; DEPOSITION ON
N9270 G180 D0.25 U0.75
N9275 X12.077 Y239.119
N9280 ; DEPOSITION OFF
N9285 G181 D0.25 U0.75
N9290 G0 X188.193 Y58.287
N9295 ; DEPOSITION ON
N9300 G180 D0.25 U0.75
N9305 G1 X214.837 Y31.644 F508
N9310 ; DEPOSITION OFF
N9315 G181 D0.25 U0.75
N9320 X212.479 Y29.286
N9325 ; DEPOSITION ON
N9330 G180 D0.25 U0.75
N9335 X185.836 Y55.93
N9340 G181 D0.25 U0.75
N9345 V.P.layer_num = 8
N9350 P12011=0
N9355 #PCALL decking.nc P1 = V.P.layer_num
N9360 P12012= 8
N9365 P12011=1
N9370 ; LAYER 8  END
N9375 ; DEPOSITION OFF
N9380 G181 D0.25 U0.75
N9385 G0 Z18
N9390 X274.511 Y90.095
N9395 ; LAYER 9 START
N9400 ; DEPOSITION ON
N9405 G180 D0.25 U0.75
N9410 G1 X247.256 Y117.35 F508
N9415 ; DEPOSITION OFF
N9420 G181 D0.25 U0.75
N9425 X244.889 Y114.983
N9430 ; DEPOSITION ON
N9435 G180 D0.25 U0.75
N9440 X272.144 Y87.728
N9445 ; DEPOSITION OFF
N9450 G181 D0.25 U0.75
N9455 X269.777 Y85.361
N9460 ; DEPOSITION ON
N9465 G180 D0.25 U0.75
N9470 X242.522 Y112.616
N9475 ; DEPOSITION OFF
N9480 G181 D0.25 U0.75
N9485 X240.155 Y110.249
N9490 ; DEPOSITION ON
N9495 G180 D0.25 U0.75
N9500 X267.41 Y82.994
N9505 ; DEPOSITION OFF
N9510 G181 D0.25 U0.75
N9515 X265.043 Y80.627
N9520 ; DEPOSITION ON
N9525 G180 D0.25 U0.75
N9530 X237.788 Y107.882
N9535 ; DEPOSITION OFF
N9540 G181 D0.25 U0.75
N9545 X235.421 Y105.515
N9550 ; DEPOSITION ON
N9555 G180 D0.25 U0.75
N9560 X262.676 Y78.26
N9565 ; DEPOSITION OFF
N9570 G181 D0.25 U0.75
N9575 X260.309 Y75.893
N9580 ; DEPOSITION ON
N9585 G180 D0.25 U0.75
N9590 X233.054 Y103.148
N9595 ; DEPOSITION OFF
N9600 G181 D0.25 U0.75
N9605 G0 X52.012 Y279.457
N9610 ; DEPOSITION ON
N9615 G180 D0.25 U0.75
N9620 G1 X257.942 Y73.526 F508
N9625 ; DEPOSITION OFF
N9630 G181 D0.25 U0.75
N9635 X255.575 Y71.159
N9640 ; DEPOSITION ON
N9645 G180 D0.25 U0.75
N9650 X49.645 Y277.09
N9655 ; DEPOSITION OFF
N9660 G181 D0.25 U0.75
N9665 X47.278 Y274.723
N9670 ; DEPOSITION ON
N9675 G180 D0.25 U0.75
N9680 X253.208 Y68.792
N9685 ; DEPOSITION OFF
N9690 G181 D0.25 U0.75
N9695 X250.841 Y66.425
N9700 ; DEPOSITION ON
N9705 G180 D0.25 U0.75
N9710 X223.586 Y93.68
N9715 ; DEPOSITION OFF
N9720 G181 D0.25 U0.75
N9725 G0 X65.014 Y252.253
N9730 ; DEPOSITION ON
N9735 G180 D0.25 U0.75
N9740 G1 X44.911 Y272.356 F508
N9745 ; DEPOSITION OFF
N9750 G181 D0.25 U0.75
N9755 X42.544 Y269.989
N9760 ; DEPOSITION ON
N9765 G180 D0.25 U0.75
N9770 X62.647 Y249.886
N9775 ; DEPOSITION OFF
N9780 G181 D0.25 U0.75
N9785 G0 X221.219 Y91.313
N9790 ; DEPOSITION ON
N9795 G180 D0.25 U0.75
N9800 G1 X248.474 Y64.058 F508
N9805 ; DEPOSITION OFF
N9810 G181 D0.25 U0.75
N9815 X246.107 Y61.691
N9820 ; DEPOSITION ON
N9825 G180 D0.25 U0.75
N9830 X218.852 Y88.946
N9835 ; DEPOSITION OFF
N9840 G181 D0.25 U0.75
N9845 G0 X60.28 Y247.519
N9850 ; DEPOSITION ON
N9855 G180 D0.25 U0.75
N9860 G1 X40.177 Y267.622 F508
N9865 ; DEPOSITION OFF
N9870 G181 D0.25 U0.75
N9875 X37.81 Y265.255
N9880 ; DEPOSITION ON
N9885 G180 D0.25 U0.75
N9890 X57.913 Y245.152
N9895 ; DEPOSITION OFF
N9900 G181 D0.25 U0.75
N9905 G0 X216.485 Y86.579
N9910 ; DEPOSITION ON
N9915 G180 D0.25 U0.75
N9920 G1 X243.74 Y59.324 F508
N9925 ; DEPOSITION OFF
N9930 G181 D0.25 U0.75
N9935 X241.373 Y56.957
N9940 ; DEPOSITION ON
N9945 G180 D0.25 U0.75
N9950 X214.118 Y84.212
N9955 ; DEPOSITION OFF
N9960 G181 D0.25 U0.75
N9965 G0 X55.546 Y242.785
N9970 ; DEPOSITION ON
N9975 G180 D0.25 U0.75
N9980 G1 X35.443 Y262.888 F508
N9985 ; DEPOSITION OFF
N9990 G181 D0.25 U0.75
N9995 X33.076 Y260.521
N10000 ; DEPOSITION ON
N10005 G180 D0.25 U0.75
N10010 X53.179 Y240.418
N10015 ; DEPOSITION OFF
N10020 G181 D0.25 U0.75
N10025 G0 X211.751 Y81.845
N10030 ; DEPOSITION ON
N10035 G180 D0.25 U0.75
N10040 G1 X239.006 Y54.59 F508
N10045 ; DEPOSITION OFF
N10050 G181 D0.25 U0.75
N10055 X236.639 Y52.223
N10060 ; DEPOSITION ON
N10065 G180 D0.25 U0.75
N10070 X209.384 Y79.478
N10075 ; DEPOSITION OFF
N10080 G181 D0.25 U0.75
N10085 G0 X50.812 Y238.051
N10090 ; DEPOSITION ON
N10095 G180 D0.25 U0.75
N10100 G1 X30.709 Y258.154 F508
N10105 ; DEPOSITION OFF
N10110 G181 D0.25 U0.75
N10115 X28.342 Y255.786
N10120 ; DEPOSITION ON
N10125 G180 D0.25 U0.75
N10130 X48.445 Y235.684
N10135 ; DEPOSITION OFF
N10140 G181 D0.25 U0.75
N10145 G0 X207.017 Y77.111
N10150 ; DEPOSITION ON
N10155 G180 D0.25 U0.75
N10160 G1 X234.272 Y49.856 F508
N10165 ; DEPOSITION OFF
N10170 G181 D0.25 U0.75
N10175 X231.905 Y47.489
N10180 ; DEPOSITION ON
N10185 G180 D0.25 U0.75
N10190 X204.65 Y74.744
N10195 ; DEPOSITION OFF
N10200 G181 D0.25 U0.75
N10205 G0 X46.078 Y233.317
N10210 ; DEPOSITION ON
N10215 G180 D0.25 U0.75
N10220 G1 X25.975 Y253.419 F508
N10225 ; DEPOSITION OFF
N10230 G181 D0.25 U0.75
N10235 X23.608 Y251.052
N10240 ; DEPOSITION ON
N10245 G180 D0.25 U0.75
N10250 X43.711 Y230.95
N10255 ; DEPOSITION OFF
N10260 G181 D0.25 U0.75
N10265 G0 X202.283 Y72.377
N10270 ; DEPOSITION ON
N10275 G180 D0.25 U0.75
N10280 G1 X229.538 Y45.122 F508
N10285 ; DEPOSITION OFF
N10290 G181 D0.25 U0.75
N10295 X227.171 Y42.755
N10300 ; DEPOSITION ON
N10305 G180 D0.25 U0.75
N10310 X21.241 Y248.685
N10315 ; DEPOSITION OFF
N10320 G181 D0.25 U0.75
N10325 X18.874 Y246.318
N10330 ; DEPOSITION ON
N10335 G180 D0.25 U0.75
N10340 X224.804 Y40.388
N10345 ; DEPOSITION OFF
N10350 G181 D0.25 U0.75
N10355 X222.437 Y38.021
N10360 ; DEPOSITION ON
N10365 G180 D0.25 U0.75
N10370 X16.507 Y243.951
N10375 ; DEPOSITION OFF
N10380 G181 D0.25 U0.75
N10385 X14.14 Y241.584
N10390 ; DEPOSITION ON
N10395 G180 D0.25 U0.75
N10400 X220.07 Y35.654
N10405 ; DEPOSITION OFF
N10410 G181 D0.25 U0.75
N10415 X217.703 Y33.287
N10420 ; DEPOSITION ON
N10425 G180 D0.25 U0.75
N10430 X11.773 Y239.217
N10435 ; DEPOSITION OFF
N10440 G181 D0.25 U0.75
N10445 G0 X188.081 Y58.175
N10450 ; DEPOSITION ON
N10455 G180 D0.25 U0.75
N10460 G1 X215.336 Y30.92 F508
N10465 ; DEPOSITION OFF
N10470 G181 D0.25 U0.75
N10475 X212.969 Y28.553
N10480 ; DEPOSITION ON
N10485 G180 D0.25 U0.75
N10490 X185.714 Y55.808
N10495 G181 D0.25 U0.75
N10500 V.P.layer_num = 9
N10505 P12011=0
N10510 #PCALL decking.nc P1 = V.P.layer_num
N10515 P12012= 9
N10520 P12011=1
N10525 ; LAYER 9  END
N10530 ; DEPOSITION OFF
N10535 G181 D0.25 U0.75
N10540 G0 Z20
N10545 X275.256 Y89.617
N10550 ; LAYER 10 START
N10555 ; DEPOSITION ON
N10560 G180 D0.25 U0.75
N10565 G1 X247.39 Y117.483 F508
N10570 ; DEPOSITION OFF
N10575 G181 D0.25 U0.75
N10580 X245.012 Y115.106
N10585 ; DEPOSITION ON
N10590 G180 D0.25 U0.75
N10595 X272.878 Y87.24
N10600 ; DEPOSITION OFF
N10605 G181 D0.25 U0.75
N10610 X270.501 Y84.863
N10615 ; DEPOSITION ON
N10620 G180 D0.25 U0.75
N10625 X242.635 Y112.729
N10630 ; DEPOSITION OFF
N10635 G181 D0.25 U0.75
N10640 X240.258 Y110.352
N10645 ; DEPOSITION ON
N10650 G180 D0.25 U0.75
N10655 X268.124 Y82.485
N10660 ; DEPOSITION OFF
N10665 G181 D0.25 U0.75
N10670 X265.747 Y80.108
N10675 ; DEPOSITION ON
N10680 G180 D0.25 U0.75
N10685 X237.881 Y107.974
N10690 ; DEPOSITION OFF
N10695 G181 D0.25 U0.75
N10700 X235.503 Y105.597
N10705 ; DEPOSITION ON
N10710 G180 D0.25 U0.75
N10715 X263.369 Y77.731
N10720 ; DEPOSITION OFF
N10725 G181 D0.25 U0.75
N10730 X260.992 Y75.354
N10735 ; DEPOSITION ON
N10740 G180 D0.25 U0.75
N10745 X233.126 Y103.22
N10750 ; DEPOSITION OFF
N10755 G181 D0.25 U0.75
N10760 G0 X51.794 Y279.798
N10765 ; DEPOSITION ON
N10770 G180 D0.25 U0.75
N10775 G1 X258.615 Y72.976 F508
N10780 ; DEPOSITION OFF
N10785 G181 D0.25 U0.75
N10790 X256.238 Y70.599
N10795 ; DEPOSITION ON
N10800 G180 D0.25 U0.75
N10805 X49.416 Y277.421
N10810 ; DEPOSITION OFF
N10815 G181 D0.25 U0.75
N10820 X47.039 Y275.043
N10825 ; DEPOSITION ON
N10830 G180 D0.25 U0.75
N10835 X253.86 Y68.222
N10840 ; DEPOSITION OFF
N10845 G181 D0.25 U0.75
N10850 X251.483 Y65.845
N10855 ; DEPOSITION ON
N10860 G180 D0.25 U0.75
N10865 X223.617 Y93.711
N10870 ; DEPOSITION OFF
N10875 G181 D0.25 U0.75
N10880 G0 X65.045 Y252.283
N10885 ; DEPOSITION ON
N10890 G180 D0.25 U0.75
N10895 G1 X44.662 Y272.666 F508
N10900 ; DEPOSITION OFF
N10905 G181 D0.25 U0.75
N10910 X42.285 Y270.289
N10915 ; DEPOSITION ON
N10920 G180 D0.25 U0.75
N10925 X62.667 Y249.906
N10930 ; DEPOSITION OFF
N10935 G181 D0.25 U0.75
N10940 G0 X221.24 Y91.334
N10945 ; DEPOSITION ON
N10950 G180 D0.25 U0.75
N10955 G1 X249.106 Y63.467 F508
N10960 ; DEPOSITION OFF
N10965 G181 D0.25 U0.75
N10970 X246.729 Y61.09
N10975 ; DEPOSITION ON
N10980 G180 D0.25 U0.75
N10985 X218.863 Y88.956
N10990 ; DEPOSITION OFF
N10995 G181 D0.25 U0.75
N11000 G0 X60.29 Y247.529
N11005 ; DEPOSITION ON
N11010 G180 D0.25 U0.75
N11015 G1 X39.907 Y267.912 F508
N11020 ; DEPOSITION OFF
N11025 G181 D0.25 U0.75
N11030 X37.53 Y265.534
N11035 ; DEPOSITION ON
N11040 G180 D0.25 U0.75
N11045 X57.913 Y245.152
N11050 ; DEPOSITION OFF
N11055 G181 D0.25 U0.75
N11060 G0 X216.485 Y86.579
N11065 ; DEPOSITION ON
N11070 G180 D0.25 U0.75
N11075 G1 X244.351 Y58.713 F508
N11080 ; DEPOSITION OFF
N11085 G181 D0.25 U0.75
N11090 X241.974 Y56.336
N11095 ; DEPOSITION ON
N11100 G180 D0.25 U0.75
N11105 X214.108 Y84.202
N11110 ; DEPOSITION OFF
N11115 G181 D0.25 U0.75
N11120 G0 X55.536 Y242.774
N11125 ; DEPOSITION ON
N11130 G180 D0.25 U0.75
N11135 G1 X35.153 Y263.157 F508
N11140 ; DEPOSITION OFF
N11145 G181 D0.25 U0.75
N11150 X32.776 Y260.78
N11155 ; DEPOSITION ON
N11160 G180 D0.25 U0.75
N11165 X53.158 Y240.397
N11170 ; DEPOSITION OFF
N11175 G181 D0.25 U0.75
N11180 G0 X211.731 Y81.825
N11185 ; DEPOSITION ON
N11190 G180 D0.25 U0.75
N11195 G1 X239.597 Y53.958 F508
N11200 ; DEPOSITION OFF
N11205 G181 D0.25 U0.75
N11210 X237.22 Y51.581
N11215 ; DEPOSITION ON
N11220 G180 D0.25 U0.75
N11225 X209.354 Y79.447
N11230 ; DEPOSITION OFF
N11235 G181 D0.25 U0.75
N11240 G0 X50.781 Y238.02
N11245 ; DEPOSITION ON
N11250 G180 D0.25 U0.75
N11255 G1 X30.398 Y258.403 F508
N11260 ; DEPOSITION OFF
N11265 G181 D0.25 U0.75
N11270 X28.021 Y256.025
N11275 ; DEPOSITION ON
N11280 G180 D0.25 U0.75
N11285 X48.404 Y235.643
N11290 ; DEPOSITION OFF
N11295 G181 D0.25 U0.75
N11300 G0 X206.976 Y77.07
N11305 ; DEPOSITION ON
N11310 G180 D0.25 U0.75
N11315 G1 X234.842 Y49.204 F508
N11320 ; DEPOSITION OFF
N11325 G181 D0.25 U0.75
N11330 X232.465 Y46.827
N11335 ; DEPOSITION ON
N11340 G180 D0.25 U0.75
N11345 X204.599 Y74.693
N11350 ; DEPOSITION OFF
N11355 G181 D0.25 U0.75
N11360 G0 X46.027 Y233.265
N11365 ; DEPOSITION ON
N11370 G180 D0.25 U0.75
N11375 G1 X25.644 Y253.648 F508
N11380 ; DEPOSITION OFF
N11385 G181 D0.25 U0.75
N11390 X23.267 Y251.271
N11395 ; DEPOSITION ON
N11400 G180 D0.25 U0.75
N11405 X43.649 Y230.888
N11410 ; DEPOSITION OFF
N11415 G181 D0.25 U0.75
N11420 G0 X202.222 Y72.316
N11425 ; DEPOSITION ON
N11430 G180 D0.25 U0.75
N11435 G1 X230.088 Y44.449 F508
N11440 ; DEPOSITION OFF
N11445 G181 D0.25 U0.75
N11450 X227.711 Y42.072
N11455 ; DEPOSITION ON
N11460 G180 D0.25 U0.75
N11465 X20.889 Y248.894
N11470 ; DEPOSITION OFF
N11475 G181 D0.25 U0.75
N11480 X18.512 Y246.516
N11485 ; DEPOSITION ON
N11490 G180 D0.25 U0.75
N11495 X225.333 Y39.695
N11500 ; DEPOSITION OFF
N11505 G181 D0.25 U0.75
N11510 X222.956 Y37.318
N11515 ; DEPOSITION ON
N11520 G180 D0.25 U0.75
N11525 X16.135 Y244.139
N11530 ; DEPOSITION OFF
N11535 G181 D0.25 U0.75
N11540 X13.758 Y241.762
N11545 ; DEPOSITION ON
N11550 G180 D0.25 U0.75
N11555 X220.579 Y34.94
N11560 ; DEPOSITION OFF
N11565 G181 D0.25 U0.75
N11570 X218.202 Y32.563
N11575 ; DEPOSITION ON
N11580 G180 D0.25 U0.75
N11585 X11.38 Y239.385
N11590 ; DEPOSITION OFF
N11595 G181 D0.25 U0.75
N11600 G0 X187.958 Y58.052
N11605 ; DEPOSITION ON
N11610 G180 D0.25 U0.75
N11615 G1 X215.824 Y30.186 F508
N11620 ; DEPOSITION OFF
N11625 G181 D0.25 U0.75
N11630 X213.447 Y27.809
N11635 ; DEPOSITION ON
N11640 G180 D0.25 U0.75
N11645 X185.581 Y55.675
N11650 G181 D0.25 U0.75
N11655 V.P.layer_num = 10
N11660 P12011=0
N11665 #PCALL decking.nc P1 = V.P.layer_num
N11670 P12012= 10
N11675 P12011=1
N11680 ; LAYER 10  END
N11685 ; DEPOSITION OFF
N11690 G181 D0.25 U0.75
N11695 G0 Z22
N11700 X275.646 Y88.785
N11705 ; LAYER 11 START
N11710 ; DEPOSITION ON
N11715 G180 D0.25 U0.75
N11720 G1 X247.169 Y117.263 F508
N11725 ; DEPOSITION OFF
N11730 G181 D0.25 U0.75
N11735 X244.808 Y114.902
N11740 ; DEPOSITION ON
N11745 G180 D0.25 U0.75
N11750 X273.286 Y86.425
N11755 ; DEPOSITION OFF
N11760 G181 D0.25 U0.75
N11765 X270.926 Y84.064
N11770 ; DEPOSITION ON
N11775 G180 D0.25 U0.75
N11780 X242.448 Y112.542
N11785 ; DEPOSITION OFF
N11790 G181 D0.25 U0.75
N11795 X240.088 Y110.182
N11800 ; DEPOSITION ON
N11805 G180 D0.25 U0.75
N11810 X268.565 Y81.704
N11815 ; DEPOSITION OFF
N11820 G181 D0.25 U0.75
N11825 X266.205 Y79.344
N11830 ; DEPOSITION ON
N11835 G180 D0.25 U0.75
N11840 X237.728 Y107.822
N11845 ; DEPOSITION OFF
N11850 G181 D0.25 U0.75
N11855 X235.367 Y105.461
N11860 ; DEPOSITION ON
N11865 G180 D0.25 U0.75
N11870 X263.845 Y76.984
N11875 ; DEPOSITION OFF
N11880 G181 D0.25 U0.75
N11885 X261.485 Y74.623
N11890 ; DEPOSITION ON
N11895 G180 D0.25 U0.75
N11900 X233.007 Y103.101
N11905 ; DEPOSITION OFF
N11910 G181 D0.25 U0.75
N11915 G0 X51.421 Y279.966
N11920 ; DEPOSITION ON
N11925 G180 D0.25 U0.75
N11930 G1 X259.124 Y72.263 F508
N11935 ; DEPOSITION OFF
N11940 G181 D0.25 U0.75
N11945 X256.764 Y69.903
N11950 ; DEPOSITION ON
N11955 G180 D0.25 U0.75
N11960 X49.061 Y277.606
N11965 ; DEPOSITION OFF
N11970 G181 D0.25 U0.75
N11975 X46.701 Y275.246
N11980 ; DEPOSITION ON
N11985 G180 D0.25 U0.75
N11990 X254.404 Y67.543
N11995 ; DEPOSITION OFF
N12000 G181 D0.25 U0.75
N12005 X252.044 Y65.182
N12010 ; DEPOSITION ON
N12015 G180 D0.25 U0.75
N12020 X223.566 Y93.66
N12025 ; DEPOSITION OFF
N12030 G181 D0.25 U0.75
N12035 G0 X64.994 Y252.232
N12040 ; DEPOSITION ON
N12045 G180 D0.25 U0.75
N12050 G1 X44.34 Y272.886 F508
N12055 ; DEPOSITION OFF
N12060 G181 D0.25 U0.75
N12065 X41.98 Y270.525
N12070 ; DEPOSITION ON
N12075 G180 D0.25 U0.75
N12080 X62.633 Y249.872
N12085 ; DEPOSITION OFF
N12090 G181 D0.25 U0.75
N12095 G0 X221.206 Y91.3
N12100 ; DEPOSITION ON
N12105 G180 D0.25 U0.75
N12110 G1 X249.683 Y62.822 F508
N12115 ; DEPOSITION OFF
N12120 G181 D0.25 U0.75
N12125 X247.323 Y60.462
N12130 ; DEPOSITION ON
N12135 G180 D0.25 U0.75
N12140 X218.846 Y88.939
N12145 ; DEPOSITION OFF
N12150 G181 D0.25 U0.75
N12155 G0 X60.273 Y247.512
N12160 ; DEPOSITION ON
N12165 G180 D0.25 U0.75
N12170 G1 X39.62 Y268.165 F508
N12175 ; DEPOSITION OFF
N12180 G181 D0.25 U0.75
N12185 X37.26 Y265.805
N12190 ; DEPOSITION ON
N12195 G180 D0.25 U0.75
N12200 X57.913 Y245.152
N12205 ; DEPOSITION OFF
N12210 G181 D0.25 U0.75
N12215 G0 X216.485 Y86.579
N12220 ; DEPOSITION ON
N12225 G180 D0.25 U0.75
N12230 G1 X244.963 Y58.102 F508
N12235 ; DEPOSITION OFF
N12240 G181 D0.25 U0.75
N12245 X242.603 Y55.741
N12250 ; DEPOSITION ON
N12255 G180 D0.25 U0.75
N12260 X214.125 Y84.219
N12265 ; DEPOSITION OFF
N12270 G181 D0.25 U0.75
N12275 G0 X55.553 Y242.791
N12280 ; DEPOSITION ON
N12285 G180 D0.25 U0.75
N12290 G1 X34.899 Y263.445 F508
N12295 ; DEPOSITION OFF
N12300 G181 D0.25 U0.75
N12305 X32.539 Y261.084
N12310 ; DEPOSITION ON
N12315 G180 D0.25 U0.75
N12320 X53.192 Y240.431
N12325 ; DEPOSITION OFF
N12330 G181 D0.25 U0.75
N12335 G0 X211.765 Y81.859
N12340 ; DEPOSITION ON
N12345 G180 D0.25 U0.75
N12350 G1 X240.242 Y53.381 F508
N12355 ; DEPOSITION OFF
N12360 G181 D0.25 U0.75
N12365 X237.882 Y51.021
N12370 ; DEPOSITION ON
N12375 G180 D0.25 U0.75
N12380 X209.404 Y79.498
N12385 ; DEPOSITION OFF
N12390 G181 D0.25 U0.75
N12395 G0 X50.832 Y238.071
N12400 ; DEPOSITION ON
N12405 G180 D0.25 U0.75
N12410 G1 X30.179 Y258.724 F508
N12415 ; DEPOSITION OFF
N12420 G181 D0.25 U0.75
N12425 X27.819 Y256.364
N12430 ; DEPOSITION ON
N12435 G180 D0.25 U0.75
N12440 X48.472 Y235.711
N12445 ; DEPOSITION OFF
N12450 G181 D0.25 U0.75
N12455 G0 X207.044 Y77.138
N12460 ; DEPOSITION ON
N12465 G180 D0.25 U0.75
N12470 G1 X235.522 Y48.661 F508
N12475 ; DEPOSITION OFF
N12480 G181 D0.25 U0.75
N12485 X233.162 Y46.3
N12490 ; DEPOSITION ON
N12495 G180 D0.25 U0.75
N12500 X204.684 Y74.778
N12505 ; DEPOSITION OFF
N12510 G181 D0.25 U0.75
N12515 G0 X46.112 Y233.35
N12520 ; DEPOSITION ON
N12525 G180 D0.25 U0.75
N12530 G1 X25.458 Y254.003 F508
N12535 ; DEPOSITION OFF
N12540 G181 D0.25 U0.75
N12545 X23.098 Y251.643
N12550 ; DEPOSITION ON
N12555 G180 D0.25 U0.75
N12560 X43.751 Y230.99
N12565 ; DEPOSITION OFF
N12570 G181 D0.25 U0.75
N12575 G0 X202.324 Y72.418
N12580 ; DEPOSITION ON
N12585 G180 D0.25 U0.75
N12590 G1 X230.801 Y43.94 F508
N12595 ; DEPOSITION OFF
N12600 G181 D0.25 U0.75
N12605 X228.441 Y41.58
N12610 ; DEPOSITION ON
N12615 G180 D0.25 U0.75
N12620 X20.738 Y249.283
N12625 ; DEPOSITION OFF
N12630 G181 D0.25 U0.75
N12635 X18.378 Y246.923
N12640 ; DEPOSITION ON
N12645 G180 D0.25 U0.75
N12650 X226.081 Y39.219
N12655 ; DEPOSITION OFF
N12660 G181 D0.25 U0.75
N12665 X223.721 Y36.859
N12670 ; DEPOSITION ON
N12675 G180 D0.25 U0.75
N12680 X16.017 Y244.562
N12685 ; DEPOSITION OFF
N12690 G181 D0.25 U0.75
N12695 X13.657 Y242.202
N12700 ; DEPOSITION ON
N12705 G180 D0.25 U0.75
N12710 X221.36 Y34.499
N12715 ; DEPOSITION OFF
N12720 G181 D0.25 U0.75
N12725 X219 Y32.139
N12730 ; DEPOSITION ON
N12735 G180 D0.25 U0.75
N12740 X11.297 Y239.842
N12745 ; DEPOSITION OFF
N12750 G181 D0.25 U0.75
N12755 G0 X188.162 Y58.256
N12760 ; DEPOSITION ON
N12765 G180 D0.25 U0.75
N12770 G1 X216.64 Y29.778 F508
N12775 ; DEPOSITION OFF
N12780 G181 D0.25 U0.75
N12785 X214.28 Y27.418
N12790 ; DEPOSITION ON
N12795 G180 D0.25 U0.75
N12800 X185.802 Y55.896
N12805 G181 D0.25 U0.75
N12810 V.P.layer_num = 11
N12815 P12011=0
N12820 #PCALL decking.nc P1 = V.P.layer_num
N12825 P12012= 11
N12830 P12011=1
N12835 ; LAYER 11  END
N12840 ; DEPOSITION OFF
N12845 G181 D0.25 U0.75
N12850 G0 Z24
N12855 X276.387 Y88.302
N12860 ; LAYER 12 START
N12865 ; DEPOSITION ON
N12870 G180 D0.25 U0.75
N12875 G1 X247.297 Y117.391 F508
N12880 ; DEPOSITION OFF
N12885 G181 D0.25 U0.75
N12890 X244.927 Y115.021
N12895 ; DEPOSITION ON
N12900 G180 D0.25 U0.75
N12905 X274.016 Y85.932
N12910 ; DEPOSITION OFF
N12915 G181 D0.25 U0.75
N12920 X271.646 Y83.562
N12925 ; DEPOSITION ON
N12930 G180 D0.25 U0.75
N12935 X242.557 Y112.651
N12940 ; DEPOSITION OFF
N12945 G181 D0.25 U0.75
N12950 X240.187 Y110.281
N12955 ; DEPOSITION ON
N12960 G180 D0.25 U0.75
N12965 X269.276 Y81.192
N12970 ; DEPOSITION OFF
N12975 G181 D0.25 U0.75
N12980 X266.906 Y78.822
N12985 ; DEPOSITION ON
N12990 G180 D0.25 U0.75
N12995 X237.817 Y107.911
N13000 ; DEPOSITION OFF
N13005 G181 D0.25 U0.75
N13010 X235.447 Y105.541
N13015 ; DEPOSITION ON
N13020 G180 D0.25 U0.75
N13025 X264.536 Y76.451
N13030 ; DEPOSITION OFF
N13035 G181 D0.25 U0.75
N13040 X262.165 Y74.081
N13045 ; DEPOSITION ON
N13050 G180 D0.25 U0.75
N13055 X233.076 Y103.17
N13060 ; DEPOSITION OFF
N13065 G181 D0.25 U0.75
N13070 G0 X51.22 Y280.287
N13075 ; DEPOSITION ON
N13080 G180 D0.25 U0.75
N13085 G1 X259.795 Y71.711 F508
N13090 ; DEPOSITION OFF
N13095 G181 D0.25 U0.75
N13100 X257.425 Y69.341
N13105 ; DEPOSITION ON
N13110 G180 D0.25 U0.75
N13115 X48.85 Y277.917
N13120 ; DEPOSITION OFF
N13125 G181 D0.25 U0.75
N13130 X46.479 Y275.546
N13135 ; DEPOSITION ON
N13140 G180 D0.25 U0.75
N13145 X255.055 Y66.971
N13150 ; DEPOSITION OFF
N13155 G181 D0.25 U0.75
N13160 X252.685 Y64.601
N13165 ; DEPOSITION ON
N13170 G180 D0.25 U0.75
N13175 X223.596 Y93.69
N13180 ; DEPOSITION OFF
N13185 G181 D0.25 U0.75
N13190 G0 X65.023 Y252.262
N13195 ; DEPOSITION ON
N13200 G180 D0.25 U0.75
N13205 G1 X44.109 Y273.176 F508
N13210 ; DEPOSITION OFF
N13215 G181 D0.25 U0.75
N13220 X41.739 Y270.806
N13225 ; DEPOSITION ON
N13230 G180 D0.25 U0.75
N13235 X62.653 Y249.892
N13240 ; DEPOSITION OFF
N13245 G181 D0.25 U0.75
N13250 G0 X221.226 Y91.32
N13255 ; DEPOSITION ON
N13260 G180 D0.25 U0.75
N13265 G1 X250.315 Y62.23 F508
N13270 ; DEPOSITION OFF
N13275 G181 D0.25 U0.75
N13280 X247.944 Y59.86
N13285 ; DEPOSITION ON
N13290 G180 D0.25 U0.75
N13295 X218.855 Y88.949
N13300 ; DEPOSITION OFF
N13305 G181 D0.25 U0.75
N13310 G0 X60.283 Y247.522
N13315 ; DEPOSITION ON
N13320 G180 D0.25 U0.75
N13325 G1 X39.369 Y268.436 F508
N13330 ; DEPOSITION OFF
N13335 G181 D0.25 U0.75
N13340 X36.999 Y266.066
N13345 ; DEPOSITION ON
N13350 G180 D0.25 U0.75
N13355 X57.913 Y245.152
N13360 ; DEPOSITION OFF
N13365 G181 D0.25 U0.75
N13370 G0 X216.485 Y86.579
N13375 ; DEPOSITION ON
N13380 G180 D0.25 U0.75
N13385 G1 X245.574 Y57.49 F508
N13390 ; DEPOSITION OFF
N13395 G181 D0.25 U0.75
N13400 X243.204 Y55.12
N13405 ; DEPOSITION ON
N13410 G180 D0.25 U0.75
N13415 X214.115 Y84.209
N13420 ; DEPOSITION OFF
N13425 G181 D0.25 U0.75
N13430 G0 X55.543 Y242.781
N13435 ; DEPOSITION ON
N13440 G180 D0.25 U0.75
N13445 G1 X34.629 Y263.695 F508
N13450 ; DEPOSITION OFF
N13455 G181 D0.25 U0.75
N13460 X32.258 Y261.325
N13465 ; DEPOSITION ON
N13470 G180 D0.25 U0.75
N13475 X53.173 Y240.411
N13480 ; DEPOSITION OFF
N13485 G181 D0.25 U0.75
N13490 G0 X211.745 Y81.839
N13495 ; DEPOSITION ON
N13500 G180 D0.25 U0.75
N13505 G1 X240.834 Y52.75 F508
N13510 ; DEPOSITION OFF
N13515 G181 D0.25 U0.75
N13520 X238.464 Y50.38
N13525 ; DEPOSITION ON
N13530 G180 D0.25 U0.75
N13535 X209.375 Y79.469
N13540 ; DEPOSITION OFF
N13545 G181 D0.25 U0.75
N13550 G0 X50.802 Y238.041
N13555 ; DEPOSITION ON
N13560 G180 D0.25 U0.75
N13565 G1 X29.888 Y258.955 F508
N13570 ; DEPOSITION OFF
N13575 G181 D0.25 U0.75
N13580 X27.518 Y256.585
N13585 ; DEPOSITION ON
N13590 G180 D0.25 U0.75
N13595 X48.432 Y235.671
N13600 ; DEPOSITION OFF
N13605 G181 D0.25 U0.75
N13610 G0 X207.005 Y77.099
N13615 ; DEPOSITION ON
N13620 G180 D0.25 U0.75
N13625 G1 X236.094 Y48.009 F508
N13630 ; DEPOSITION OFF
N13635 G181 D0.25 U0.75
N13640 X233.723 Y45.639
N13645 ; DEPOSITION ON
N13650 G180 D0.25 U0.75
N13655 X204.634 Y74.728
N13660 ; DEPOSITION OFF
N13665 G181 D0.25 U0.75
N13670 G0 X46.062 Y233.301
N13675 ; DEPOSITION ON
N13680 G180 D0.25 U0.75
N13685 G1 X25.148 Y254.215 F508
N13690 ; DEPOSITION OFF
N13695 G181 D0.25 U0.75
N13700 X22.778 Y251.845
N13705 ; DEPOSITION ON
N13710 G180 D0.25 U0.75
N13715 X43.692 Y230.931
N13720 ; DEPOSITION OFF
N13725 G181 D0.25 U0.75
N13730 G0 X202.264 Y72.358
N13735 ; DEPOSITION ON
N13740 G180 D0.25 U0.75
N13745 G1 X231.353 Y43.269 F508
N13750 ; DEPOSITION OFF
N13755 G181 D0.25 U0.75
N13760 X228.983 Y40.899
N13765 ; DEPOSITION ON
N13770 G180 D0.25 U0.75
N13775 X20.408 Y249.474
N13780 ; DEPOSITION OFF
N13785 G181 D0.25 U0.75
N13790 X18.037 Y247.104
N13795 ; DEPOSITION ON
N13800 G180 D0.25 U0.75
N13805 X226.613 Y38.529
N13810 ; DEPOSITION OFF
N13815 G181 D0.25 U0.75
N13820 X224.243 Y36.159
N13825 ; DEPOSITION ON
N13830 G180 D0.25 U0.75
N13835 X15.667 Y244.734
N13840 ; DEPOSITION OFF
N13845 G181 D0.25 U0.75
N13850 X13.297 Y242.364
N13855 ; DEPOSITION ON
N13860 G180 D0.25 U0.75
N13865 X221.873 Y33.788
N13870 ; DEPOSITION OFF
N13875 G181 D0.25 U0.75
N13880 X219.502 Y31.418
N13885 ; DEPOSITION ON
N13890 G180 D0.25 U0.75
N13895 X10.927 Y239.994
N13900 ; DEPOSITION OFF
N13905 G181 D0.25 U0.75
N13910 G0 X188.043 Y58.137
N13915 ; DEPOSITION ON
N13920 G180 D0.25 U0.75
N13925 G1 X217.132 Y29.048 F508
N13930 ; DEPOSITION OFF
N13935 G181 D0.25 U0.75
N13940 X214.762 Y26.678
N13945 ; DEPOSITION ON
N13950 G180 D0.25 U0.75
N13955 X185.673 Y55.767
N13960 G181 D0.25 U0.75
N13965 V.P.layer_num = 12
N13970 P12011=0
N13975 #PCALL decking.nc P1 = V.P.layer_num
N13980 P12012= 12
N13985 P12011=1
N13990 ; LAYER 12  END
N13995 ; DEPOSITION OFF
N14000 G181 D0.25 U0.75
N14005 G0 Z26
N14010 X277.125 Y87.818
N14015 ; LAYER 13 START
N14020 ; DEPOSITION ON
N14025 G180 D0.25 U0.75
N14030 G1 X247.425 Y117.519 F508
N14035 ; DEPOSITION OFF
N14040 G181 D0.25 U0.75
N14045 X245.045 Y115.139
N14050 ; DEPOSITION ON
N14055 G180 D0.25 U0.75
N14060 X274.745 Y85.438
N14065 ; DEPOSITION OFF
N14070 G181 D0.25 U0.75
N14075 X272.365 Y83.058
N14080 ; DEPOSITION ON
N14085 G180 D0.25 U0.75
N14090 X242.665 Y112.759
N14095 ; DEPOSITION OFF
N14100 G181 D0.25 U0.75
N14105 X240.285 Y110.379
N14110 ; DEPOSITION ON
N14115 G180 D0.25 U0.75
N14120 X269.986 Y80.678
N14125 ; DEPOSITION OFF
N14130 G181 D0.25 U0.75
N14135 X267.606 Y78.298
N14140 ; DEPOSITION ON
N14145 G180 D0.25 U0.75
N14150 X237.905 Y107.999
N14155 ; DEPOSITION OFF
N14160 G181 D0.25 U0.75
N14165 X235.525 Y105.619
N14170 ; DEPOSITION ON
N14175 G180 D0.25 U0.75
N14180 X265.226 Y75.919
N14185 ; DEPOSITION OFF
N14190 G181 D0.25 U0.75
N14195 X262.846 Y73.539
N14200 ; DEPOSITION ON
N14205 G180 D0.25 U0.75
N14210 X233.145 Y103.239
N14215 ; DEPOSITION OFF
N14220 G181 D0.25 U0.75
N14225 G0 X51.027 Y280.597
N14230 ; DEPOSITION ON
N14235 G180 D0.25 U0.75
N14240 G1 X260.466 Y71.159 F508
N14245 ; DEPOSITION OFF
N14250 G181 D0.25 U0.75
N14255 X258.086 Y68.779
N14260 ; DEPOSITION ON
N14265 G180 D0.25 U0.75
N14270 X48.647 Y278.217
N14275 ; DEPOSITION OFF
N14280 G181 D0.25 U0.75
N14285 X46.267 Y275.837
N14290 ; DEPOSITION ON
N14295 G180 D0.25 U0.75
N14300 X255.706 Y66.399
N14305 ; DEPOSITION OFF
N14310 G181 D0.25 U0.75
N14315 X253.326 Y64.019
N14320 ; DEPOSITION ON
N14325 G180 D0.25 U0.75
N14330 X223.625 Y93.719
N14335 ; DEPOSITION OFF
N14340 G181 D0.25 U0.75
N14345 G0 X65.053 Y252.292
N14350 ; DEPOSITION ON
N14355 G180 D0.25 U0.75
N14360 G1 X43.887 Y273.457 F508
N14365 ; DEPOSITION OFF
N14370 G181 D0.25 U0.75
N14375 X41.507 Y271.077
N14380 ; DEPOSITION ON
N14385 G180 D0.25 U0.75
N14390 X62.673 Y249.912
N14395 ; DEPOSITION OFF
N14400 G181 D0.25 U0.75
N14405 G0 X221.245 Y91.339
N14410 ; DEPOSITION ON
N14415 G180 D0.25 U0.75
N14420 G1 X250.946 Y61.639 F508
N14425 ; DEPOSITION OFF
N14430 G181 D0.25 U0.75
N14435 X248.566 Y59.259
N14440 ; DEPOSITION ON
N14445 G180 D0.25 U0.75
N14450 X218.865 Y88.959
N14455 ; DEPOSITION OFF
N14460 G181 D0.25 U0.75
N14465 G0 X60.293 Y247.532
N14470 ; DEPOSITION ON
N14475 G180 D0.25 U0.75
N14480 G1 X39.127 Y268.697 F508
N14485 ; DEPOSITION OFF
N14490 G181 D0.25 U0.75
N14495 X36.747 Y266.317
N14500 ; DEPOSITION ON
N14505 G180 D0.25 U0.75
N14510 X57.913 Y245.152
N14515 ; DEPOSITION OFF
N14520 G181 D0.25 U0.75
N14525 G0 X216.485 Y86.579
N14530 ; DEPOSITION ON
N14535 G180 D0.25 U0.75
N14540 G1 X246.186 Y56.879 F508
N14545 ; DEPOSITION OFF
N14550 G181 D0.25 U0.75
N14555 X243.806 Y54.499
N14560 ; DEPOSITION ON
N14565 G180 D0.25 U0.75
N14570 X214.105 Y84.199
N14575 ; DEPOSITION OFF
N14580 G181 D0.25 U0.75
N14585 G0 X55.533 Y242.772
N14590 ; DEPOSITION ON
N14595 G180 D0.25 U0.75
N14600 G1 X34.367 Y263.937 F508
N14605 ; DEPOSITION OFF
N14610 G181 D0.25 U0.75
N14615 X31.987 Y261.557
N14620 ; DEPOSITION ON
N14625 G180 D0.25 U0.75
N14630 X53.153 Y240.392
N14635 ; DEPOSITION OFF
N14640 G181 D0.25 U0.75
N14645 G0 X211.725 Y81.819
N14650 ; DEPOSITION ON
N14655 G180 D0.25 U0.75
N14660 G1 X241.426 Y52.119 F508
N14665 ; DEPOSITION OFF
N14670 G181 D0.25 U0.75
N14675 X239.046 Y49.739
N14680 ; DEPOSITION ON
N14685 G180 D0.25 U0.75
N14690 X209.345 Y79.439
N14695 ; DEPOSITION OFF
N14700 G181 D0.25 U0.75
N14705 G0 X50.773 Y238.012
N14710 ; DEPOSITION ON
N14715 G180 D0.25 U0.75
N14720 G1 X29.607 Y259.177 F508
N14725 ; DEPOSITION OFF
N14730 G181 D0.25 U0.75
N14735 X27.227 Y256.797
N14740 ; DEPOSITION ON
N14745 G180 D0.25 U0.75
N14750 X48.393 Y235.632
N14755 ; DEPOSITION OFF
N14760 G181 D0.25 U0.75
N14765 G0 X206.965 Y77.059
N14770 ; DEPOSITION ON
N14775 G180 D0.25 U0.75
N14780 G1 X236.666 Y47.359 F508
N14785 ; DEPOSITION OFF
N14790 G181 D0.25 U0.75
N14795 X234.286 Y44.979
N14800 ; DEPOSITION ON
N14805 G180 D0.25 U0.75
N14810 X204.585 Y74.679
N14815 ; DEPOSITION OFF
N14820 G181 D0.25 U0.75
N14825 G0 X46.013 Y233.252
N14830 ; DEPOSITION ON
N14835 G180 D0.25 U0.75
N14840 G1 X24.847 Y254.417 F508
N14845 ; DEPOSITION OFF
N14850 G181 D0.25 U0.75
N14855 X22.467 Y252.037
N14860 ; DEPOSITION ON
N14865 G180 D0.25 U0.75
N14870 X43.633 Y230.872
N14875 ; DEPOSITION OFF
N14880 G181 D0.25 U0.75
N14885 G0 X202.205 Y72.299
N14890 ; DEPOSITION ON
N14895 G180 D0.25 U0.75
N14900 G1 X231.906 Y42.599 F508
N14905 ; DEPOSITION OFF
N14910 G181 D0.25 U0.75
N14915 X229.526 Y40.219
N14920 ; DEPOSITION ON
N14925 G180 D0.25 U0.75
N14930 X20.087 Y249.657
N14935 ; DEPOSITION OFF
N14940 G181 D0.25 U0.75
N14945 X17.708 Y247.277
N14950 ; DEPOSITION ON
N14955 G180 D0.25 U0.75
N14960 X227.146 Y37.839
N14965 ; DEPOSITION OFF
N14970 G181 D0.25 U0.75
N14975 X224.766 Y35.459
N14980 ; DEPOSITION ON
N14985 G180 D0.25 U0.75
N14990 X15.328 Y244.897
N14995 ; DEPOSITION OFF
N15000 G181 D0.25 U0.75
N15005 X12.948 Y242.517
N15010 ; DEPOSITION ON
N15015 G180 D0.25 U0.75
N15020 X222.386 Y33.079
N15025 ; DEPOSITION OFF
N15030 G181 D0.25 U0.75
N15035 X220.006 Y30.699
N15040 ; DEPOSITION ON
N15045 G180 D0.25 U0.75
N15050 X10.568 Y240.137
N15055 ; DEPOSITION OFF
N15060 G181 D0.25 U0.75
N15065 G0 X187.926 Y58.019
N15070 ; DEPOSITION ON
N15075 G180 D0.25 U0.75
N15080 G1 X217.626 Y28.319 F508
N15085 ; DEPOSITION OFF
N15090 G181 D0.25 U0.75
N15095 X215.246 Y25.939
N15100 ; DEPOSITION ON
N15105 G180 D0.25 U0.75
N15110 X185.546 Y55.64
N15115 G181 D0.25 U0.75
N15120 V.P.layer_num = 13
N15125 P12011=0
N15130 #PCALL decking.nc P1 = V.P.layer_num
N15135 P12012= 13
N15140 P12011=1
N15145 ; LAYER 13  END
N15150 ; DEPOSITION OFF
N15155 G181 D0.25 U0.75
N15160 G0 Z28
N15165 X277.514 Y86.984
N15170 ; LAYER 14 START
N15175 ; DEPOSITION ON
N15180 G180 D0.25 U0.75
N15185 G1 X247.202 Y117.296 F508
N15190 ; DEPOSITION OFF
N15195 G181 D0.25 U0.75
N15200 X244.839 Y114.933
N15205 ; DEPOSITION ON
N15210 G180 D0.25 U0.75
N15215 X275.151 Y84.621
N15220 ; DEPOSITION OFF
N15225 G181 D0.25 U0.75
N15230 X272.788 Y82.258
N15235 ; DEPOSITION ON
N15240 G180 D0.25 U0.75
N15245 X242.476 Y112.57
N15250 ; DEPOSITION OFF
N15255 G181 D0.25 U0.75
N15260 X240.113 Y110.207
N15265 ; DEPOSITION ON
N15270 G180 D0.25 U0.75
N15275 X270.425 Y79.896
N15280 ; DEPOSITION OFF
N15285 G181 D0.25 U0.75
N15290 X268.063 Y77.533
N15295 ; DEPOSITION ON
N15300 G180 D0.25 U0.75
N15305 X237.751 Y107.845
N15310 ; DEPOSITION OFF
N15315 G181 D0.25 U0.75
N15320 X235.388 Y105.482
N15325 ; DEPOSITION ON
N15330 G180 D0.25 U0.75
N15335 X265.7 Y75.17
N15340 ; DEPOSITION OFF
N15345 G181 D0.25 U0.75
N15350 X263.337 Y72.807
N15355 ; DEPOSITION ON
N15360 G180 D0.25 U0.75
N15365 X233.025 Y103.119
N15370 ; DEPOSITION OFF
N15375 G181 D0.25 U0.75
N15380 G0 X50.682 Y280.736
N15385 ; DEPOSITION ON
N15390 G180 D0.25 U0.75
N15395 G1 X260.974 Y70.444 F508
N15400 ; DEPOSITION OFF
N15405 G181 D0.25 U0.75
N15410 X258.611 Y68.081
N15415 ; DEPOSITION ON
N15420 G180 D0.25 U0.75
N15425 X48.319 Y278.373
N15430 ; DEPOSITION OFF
N15435 G181 D0.25 U0.75
N15440 X45.957 Y276.01
N15445 ; DEPOSITION ON
N15450 G180 D0.25 U0.75
N15455 X256.248 Y65.719
N15460 ; DEPOSITION OFF
N15465 G181 D0.25 U0.75
N15470 X253.886 Y63.356
N15475 ; DEPOSITION ON
N15480 G180 D0.25 U0.75
N15485 X223.574 Y93.668
N15490 ; DEPOSITION OFF
N15495 G181 D0.25 U0.75
N15500 G0 X65.001 Y252.24
N15505 ; DEPOSITION ON
N15510 G180 D0.25 U0.75
N15515 G1 X43.594 Y273.648 F508
N15520 ; DEPOSITION OFF
N15525 G181 D0.25 U0.75
N15530 X41.231 Y271.285
N15535 ; DEPOSITION ON
N15540 G180 D0.25 U0.75
N15545 X62.639 Y249.877
N15550 ; DEPOSITION OFF
N15555 G181 D0.25 U0.75
N15560 G0 X221.211 Y91.305
N15565 ; DEPOSITION ON
N15570 G180 D0.25 U0.75
N15575 G1 X251.523 Y60.993 F508
N15580 ; DEPOSITION OFF
N15585 G181 D0.25 U0.75
N15590 X249.16 Y58.63
N15595 ; DEPOSITION ON
N15600 G180 D0.25 U0.75
N15605 X218.848 Y88.942
N15610 ; DEPOSITION OFF
N15615 G181 D0.25 U0.75
N15620 G0 X60.276 Y247.514
N15625 ; DEPOSITION ON
N15630 G180 D0.25 U0.75
N15635 G1 X38.868 Y268.922 F508
N15640 ; DEPOSITION OFF
N15645 G181 D0.25 U0.75
N15650 X36.505 Y266.559
N15655 ; DEPOSITION ON
N15660 G180 D0.25 U0.75
N15665 X57.913 Y245.152
N15670 ; DEPOSITION OFF
N15675 G181 D0.25 U0.75
N15680 G0 X216.485 Y86.579
N15685 ; DEPOSITION ON
N15690 G180 D0.25 U0.75
N15695 G1 X246.797 Y56.267 F508
N15700 ; DEPOSITION OFF
N15705 G181 D0.25 U0.75
N15710 X244.434 Y53.904
N15715 ; DEPOSITION ON
N15720 G180 D0.25 U0.75
N15725 X214.122 Y84.216
N15730 ; DEPOSITION OFF
N15735 G181 D0.25 U0.75
N15740 G0 X55.55 Y242.789
N15745 ; DEPOSITION ON
N15750 G180 D0.25 U0.75
N15755 G1 X34.142 Y264.196 F508
N15760 ; DEPOSITION OFF
N15765 G181 D0.25 U0.75
N15770 X31.78 Y261.834
N15775 ; DEPOSITION ON
N15780 G180 D0.25 U0.75
N15785 X53.187 Y240.426
N15790 ; DEPOSITION OFF
N15795 G181 D0.25 U0.75
N15800 G0 X211.76 Y81.854
N15805 ; DEPOSITION ON
N15810 G180 D0.25 U0.75
N15815 G1 X242.072 Y51.542 F508
N15820 ; DEPOSITION OFF
N15825 G181 D0.25 U0.75
N15830 X239.709 Y49.179
N15835 ; DEPOSITION ON
N15840 G180 D0.25 U0.75
N15845 X209.397 Y79.491
N15850 ; DEPOSITION OFF
N15855 G181 D0.25 U0.75
N15860 G0 X50.824 Y238.063
N15865 ; DEPOSITION ON
N15870 G180 D0.25 U0.75
N15875 G1 X29.417 Y259.471 F508
N15880 ; DEPOSITION OFF
N15885 G181 D0.25 U0.75
N15890 X27.054 Y257.108
N15895 ; DEPOSITION ON
N15900 G180 D0.25 U0.75
N15905 X48.462 Y235.7
N15910 ; DEPOSITION OFF
N15915 G181 D0.25 U0.75
N15920 G0 X207.034 Y77.128
N15925 ; DEPOSITION ON
N15930 G180 D0.25 U0.75
N15935 G1 X237.346 Y46.816 F508
N15940 ; DEPOSITION OFF
N15945 G181 D0.25 U0.75
N15950 X234.983 Y44.453
N15955 ; DEPOSITION ON
N15960 G180 D0.25 U0.75
N15965 X204.671 Y74.765
N15970 ; DEPOSITION OFF
N15975 G181 D0.25 U0.75
N15980 G0 X46.099 Y233.337
N15985 ; DEPOSITION ON
N15990 G180 D0.25 U0.75
N15995 G1 X24.691 Y254.745 F508
N16000 ; DEPOSITION OFF
N16005 G181 D0.25 U0.75
N16010 X22.328 Y252.382
N16015 ; DEPOSITION ON
N16020 G180 D0.25 U0.75
N16025 X43.736 Y230.975
N16030 ; DEPOSITION OFF
N16035 G181 D0.25 U0.75
N16040 G0 X202.308 Y72.402
N16045 ; DEPOSITION ON
N16050 G180 D0.25 U0.75
N16055 G1 X232.62 Y42.09 F508
N16060 ; DEPOSITION OFF
N16065 G181 D0.25 U0.75
N16070 X230.257 Y39.728
N16075 ; DEPOSITION ON
N16080 G180 D0.25 U0.75
N16085 X19.965 Y250.019
N16090 ; DEPOSITION OFF
N16095 G181 D0.25 U0.75
N16100 X17.603 Y247.657
N16105 ; DEPOSITION ON
N16110 G180 D0.25 U0.75
N16115 X227.895 Y37.365
N16120 ; DEPOSITION OFF
N16125 G181 D0.25 U0.75
N16130 X225.532 Y35.002
N16135 ; DEPOSITION ON
N16140 G180 D0.25 U0.75
N16145 X15.24 Y245.294
N16150 ; DEPOSITION OFF
N16155 G181 D0.25 U0.75
N16160 X12.877 Y242.931
N16165 ; DEPOSITION ON
N16170 G180 D0.25 U0.75
N16175 X223.169 Y32.639
N16180 ; DEPOSITION OFF
N16185 G181 D0.25 U0.75
N16190 X220.806 Y30.276
N16195 ; DEPOSITION ON
N16200 G180 D0.25 U0.75
N16205 X10.514 Y240.568
N16210 ; DEPOSITION OFF
N16215 G181 D0.25 U0.75
N16220 G0 X188.131 Y58.225
N16225 ; DEPOSITION ON
N16230 G180 D0.25 U0.75
N16235 G1 X218.443 Y27.913 F508
N16240 ; DEPOSITION OFF
N16245 G181 D0.25 U0.75
N16250 X216.08 Y25.551
N16255 ; DEPOSITION ON
N16260 G180 D0.25 U0.75
N16265 X185.769 Y55.862
N16270 G181 D0.25 U0.75
N16275 V.P.layer_num = 14
N16280 P12011=0
N16285 #PCALL decking.nc P1 = V.P.layer_num
N16290 P12012= 14
N16295 P12011=1
N16300 ; LAYER 14  END
N16305 ; DEPOSITION OFF
N16310 G181 D0.25 U0.75
N16315 G0 Z30
N16320 X278.249 Y86.496
N16325 ; LAYER 15 START
N16330 ; DEPOSITION ON
N16335 G180 D0.25 U0.75
N16340 G1 X247.325 Y117.419 F508
N16345 ; DEPOSITION OFF
N16350 G181 D0.25 U0.75
N16355 X244.953 Y115.047
N16360 ; DEPOSITION ON
N16365 G180 D0.25 U0.75
N16370 X275.876 Y84.124
N16375 ; DEPOSITION OFF
N16380 G181 D0.25 U0.75
N16385 X273.504 Y81.751
N16390 ; DEPOSITION ON
N16395 G180 D0.25 U0.75
N16400 X242.581 Y112.675
N16405 ; DEPOSITION OFF
N16410 G181 D0.25 U0.75
N16415 X240.208 Y110.302
N16420 ; DEPOSITION ON
N16425 G180 D0.25 U0.75
N16430 X271.132 Y79.379
N16435 ; DEPOSITION OFF
N16440 G181 D0.25 U0.75
N16445 X268.759 Y77.007
N16450 ; DEPOSITION ON
N16455 G180 D0.25 U0.75
N16460 X237.836 Y107.93
N16465 ; DEPOSITION OFF
N16470 G181 D0.25 U0.75
N16475 X235.464 Y105.558
N16480 ; DEPOSITION ON
N16485 G180 D0.25 U0.75
N16490 X266.387 Y74.634
N16495 ; DEPOSITION OFF
N16500 G181 D0.25 U0.75
N16505 X264.015 Y72.262
N16510 ; DEPOSITION ON
N16515 G180 D0.25 U0.75
N16520 X233.091 Y103.185
N16525 ; DEPOSITION OFF
N16530 G181 D0.25 U0.75
N16535 G0 X50.506 Y281.026
N16540 ; DEPOSITION ON
N16545 G180 D0.25 U0.75
N16550 G1 X261.642 Y69.89 F508
N16555 ; DEPOSITION OFF
N16560 G181 D0.25 U0.75
N16565 X259.27 Y67.517
N16570 ; DEPOSITION ON
N16575 G180 D0.25 U0.75
N16580 X48.134 Y278.653
N16585 ; DEPOSITION OFF
N16590 G181 D0.25 U0.75
N16595 X45.762 Y276.281
N16600 ; DEPOSITION ON
N16605 G180 D0.25 U0.75
N16610 X256.898 Y65.145
N16615 ; DEPOSITION OFF
N16620 G181 D0.25 U0.75
N16625 X254.526 Y62.773
N16630 ; DEPOSITION ON
N16635 G180 D0.25 U0.75
N16640 X223.602 Y93.696
N16645 ; DEPOSITION OFF
N16650 G181 D0.25 U0.75
N16655 G0 X65.03 Y252.268
N16660 ; DEPOSITION ON
N16665 G180 D0.25 U0.75
N16670 G1 X43.389 Y273.909 F508
N16675 ; DEPOSITION OFF
N16680 G181 D0.25 U0.75
N16685 X41.017 Y271.537
N16690 ; DEPOSITION ON
N16695 G180 D0.25 U0.75
N16700 X62.657 Y249.896
N16705 ; DEPOSITION OFF
N16710 G181 D0.25 U0.75
N16715 G0 X221.23 Y91.324
N16720 ; DEPOSITION ON
N16725 G180 D0.25 U0.75
N16730 G1 X252.153 Y60.4 F508
N16735 ; DEPOSITION OFF
N16740 G181 D0.25 U0.75
N16745 X249.781 Y58.028
N16750 ; DEPOSITION ON
N16755 G180 D0.25 U0.75
N16760 X218.858 Y88.951
N16765 ; DEPOSITION OFF
N16770 G181 D0.25 U0.75
N16775 G0 X60.285 Y247.524
N16780 ; DEPOSITION ON
N16785 G180 D0.25 U0.75
N16790 G1 X38.645 Y269.164 F508
N16795 ; DEPOSITION OFF
N16800 G181 D0.25 U0.75
N16805 X36.273 Y266.792
N16810 ; DEPOSITION ON
N16815 G180 D0.25 U0.75
N16820 X57.913 Y245.152
N16825 ; DEPOSITION OFF
N16830 G181 D0.25 U0.75
N16835 G0 X216.485 Y86.579
N16840 ; DEPOSITION ON
N16845 G180 D0.25 U0.75
N16850 G1 X247.409 Y55.656 F508
N16855 ; DEPOSITION OFF
N16860 G181 D0.25 U0.75
N16865 X245.036 Y53.284
N16870 ; DEPOSITION ON
N16875 G180 D0.25 U0.75
N16880 X214.113 Y84.207
N16885 ; DEPOSITION OFF
N16890 G181 D0.25 U0.75
N16895 G0 X55.541 Y242.779
N16900 ; DEPOSITION ON
N16905 G180 D0.25 U0.75
N16910 G1 X33.9 Y264.42 F508
N16915 ; DEPOSITION OFF
N16920 G181 D0.25 U0.75
N16925 X31.528 Y262.047
N16930 ; DEPOSITION ON
N16935 G180 D0.25 U0.75
N16940 X53.168 Y240.407
N16945 ; DEPOSITION OFF
N16950 G181 D0.25 U0.75
N16955 G0 X211.741 Y81.835
N16960 ; DEPOSITION ON
N16965 G180 D0.25 U0.75
N16970 G1 X242.664 Y50.911 F508
N16975 ; DEPOSITION OFF
N16980 G181 D0.25 U0.75
N16985 X240.292 Y48.539
N16990 ; DEPOSITION ON
N16995 G180 D0.25 U0.75
N17000 X209.368 Y79.462
N17005 ; DEPOSITION OFF
N17010 G181 D0.25 U0.75
N17015 G0 X50.796 Y238.035
N17020 ; DEPOSITION ON
N17025 G180 D0.25 U0.75
N17030 G1 X29.156 Y259.675 F508
N17035 ; DEPOSITION OFF
N17040 G181 D0.25 U0.75
N17045 X26.783 Y257.303
N17050 ; DEPOSITION ON
N17055 G180 D0.25 U0.75
N17060 X48.424 Y235.662
N17065 ; DEPOSITION OFF
N17070 G181 D0.25 U0.75
N17075 G0 X206.996 Y77.09
N17080 ; DEPOSITION ON
N17085 G180 D0.25 U0.75
N17090 G1 X237.919 Y46.167 F508
N17095 ; DEPOSITION OFF
N17100 G181 D0.25 U0.75
N17105 X235.547 Y43.794
N17110 ; DEPOSITION ON
N17115 G180 D0.25 U0.75
N17120 X204.624 Y74.718
N17125 ; DEPOSITION OFF
N17130 G181 D0.25 U0.75
N17135 G0 X46.051 Y233.29
N17140 ; DEPOSITION ON
N17145 G180 D0.25 U0.75
N17150 G1 X24.411 Y254.93 F508
N17155 ; DEPOSITION OFF
N17160 G181 D0.25 U0.75
N17165 X22.039 Y252.558
N17170 ; DEPOSITION ON
N17175 G180 D0.25 U0.75
N17180 X43.679 Y230.918
N17185 ; DEPOSITION OFF
N17190 G181 D0.25 U0.75
N17195 G0 X202.251 Y72.345
N17200 ; DEPOSITION ON
N17205 G180 D0.25 U0.75
N17210 G1 X233.175 Y41.422 F508
N17215 ; DEPOSITION OFF
N17220 G181 D0.25 U0.75
N17225 X230.802 Y39.05
N17230 ; DEPOSITION ON
N17235 G180 D0.25 U0.75
N17240 X19.666 Y250.186
N17245 ; DEPOSITION OFF
N17250 G181 D0.25 U0.75
N17255 X17.294 Y247.813
N17260 ; DEPOSITION ON
N17265 G180 D0.25 U0.75
N17270 X228.43 Y36.677
N17275 ; DEPOSITION OFF
N17280 G181 D0.25 U0.75
N17285 X226.058 Y34.305
N17290 ; DEPOSITION ON
N17295 G180 D0.25 U0.75
N17300 X14.922 Y245.441
N17305 ; DEPOSITION OFF
N17310 G181 D0.25 U0.75
N17315 X12.549 Y243.069
N17320 ; DEPOSITION ON
N17325 G180 D0.25 U0.75
N17330 X223.686 Y31.933
N17335 ; DEPOSITION OFF
N17340 G181 D0.25 U0.75
N17345 X221.313 Y29.56
N17350 ; DEPOSITION ON
N17355 G180 D0.25 U0.75
N17360 X10.177 Y240.697
N17365 ; DEPOSITION OFF
N17370 G181 D0.25 U0.75
N17375 G0 X188.018 Y58.111
N17380 ; DEPOSITION ON
N17385 G180 D0.25 U0.75
N17390 G1 X218.941 Y27.188 F508
N17395 ; DEPOSITION OFF
N17400 G181 D0.25 U0.75
N17405 X216.569 Y24.816
N17410 ; DEPOSITION ON
N17415 G180 D0.25 U0.75
N17420 X185.645 Y55.739
N17425 G181 D0.25 U0.75
N17430 V.P.layer_num = 15
N17435 P12011=0
N17440 #PCALL decking.nc P1 = V.P.layer_num
N17445 P12012= 15
N17450 P12011=1
N17455 ; LAYER 15  END
N17460 ; DEPOSITION OFF
N17465 G181 D0.25 U0.75
N17470 G0 Z32
N17475 X278.982 Y86.006
N17480 ; LAYER 16 START
N17485 ; DEPOSITION ON
N17490 G180 D0.25 U0.75
N17495 G1 X247.447 Y117.541 F508
N17500 ; DEPOSITION OFF
N17505 G181 D0.25 U0.75
N17510 X245.066 Y115.159
N17515 ; DEPOSITION ON
N17520 G180 D0.25 U0.75
N17525 X276.6 Y83.625
N17530 ; DEPOSITION OFF
N17535 G181 D0.25 U0.75
N17540 X274.219 Y81.243
N17545 ; DEPOSITION ON
N17550 G180 D0.25 U0.75
N17555 X242.684 Y112.778
N17560 ; DEPOSITION OFF
N17565 G181 D0.25 U0.75
N17570 X240.302 Y110.396
N17575 ; DEPOSITION ON
N17580 G180 D0.25 U0.75
N17585 X271.837 Y78.861
N17590 ; DEPOSITION OFF
N17595 G181 D0.25 U0.75
N17600 X269.455 Y76.48
N17605 ; DEPOSITION ON
N17610 G180 D0.25 U0.75
N17615 X237.92 Y108.014
N17620 ; DEPOSITION OFF
N17625 G181 D0.25 U0.75
N17630 X235.539 Y105.633
N17635 ; DEPOSITION ON
N17640 G180 D0.25 U0.75
N17645 X267.074 Y74.098
N17650 ; DEPOSITION OFF
N17655 G181 D0.25 U0.75
N17660 X264.692 Y71.716
N17665 ; DEPOSITION ON
N17670 G180 D0.25 U0.75
N17675 X233.157 Y103.251
N17680 ; DEPOSITION OFF
N17685 G181 D0.25 U0.75
N17690 G0 X50.339 Y281.305
N17695 ; DEPOSITION ON
N17700 G180 D0.25 U0.75
N17705 G1 X262.31 Y69.335 F508
N17710 ; DEPOSITION OFF
N17715 G181 D0.25 U0.75
N17720 X259.928 Y66.953
N17725 ; DEPOSITION ON
N17730 G180 D0.25 U0.75
N17735 X47.958 Y278.924
N17740 ; DEPOSITION OFF
N17745 G181 D0.25 U0.75
N17750 X45.576 Y276.542
N17755 ; DEPOSITION ON
N17760 G180 D0.25 U0.75
N17765 X257.547 Y64.571
N17770 ; DEPOSITION OFF
N17775 G181 D0.25 U0.75
N17780 X255.165 Y62.189
N17785 ; DEPOSITION ON
N17790 G180 D0.25 U0.75
N17795 X223.63 Y93.724
N17800 ; DEPOSITION OFF
N17805 G181 D0.25 U0.75
N17810 G0 X65.058 Y252.297
N17815 ; DEPOSITION ON
N17820 G180 D0.25 U0.75
N17825 G1 X43.194 Y274.16 F508
N17830 ; DEPOSITION OFF
N17835 G181 D0.25 U0.75
N17840 X40.813 Y271.779
N17845 ; DEPOSITION ON
N17850 G180 D0.25 U0.75
N17855 X62.676 Y249.915
N17860 ; DEPOSITION OFF
N17865 G181 D0.25 U0.75
N17870 G0 X221.249 Y91.343
N17875 ; DEPOSITION ON
N17880 G180 D0.25 U0.75
N17885 G1 X252.783 Y59.808 F508
N17890 ; DEPOSITION OFF
N17895 G181 D0.25 U0.75
N17900 X250.402 Y57.426
N17905 ; DEPOSITION ON
N17910 G180 D0.25 U0.75
N17915 X218.867 Y88.961
N17920 ; DEPOSITION OFF
N17925 G181 D0.25 U0.75
N17930 G0 X60.295 Y247.533
N17935 ; DEPOSITION ON
N17940 G180 D0.25 U0.75
N17945 G1 X38.431 Y269.397 F508
N17950 ; DEPOSITION OFF
N17955 G181 D0.25 U0.75
N17960 X36.049 Y267.015
N17965 ; DEPOSITION ON
N17970 G180 D0.25 U0.75
N17975 X57.913 Y245.152
N17980 ; DEPOSITION OFF
N17985 G181 D0.25 U0.75
N17990 G0 X216.485 Y86.579
N17995 ; DEPOSITION ON
N18000 G180 D0.25 U0.75
N18005 G1 X248.02 Y55.044 F508
N18010 ; DEPOSITION OFF
N18015 G181 D0.25 U0.75
N18020 X245.638 Y52.663
N18025 ; DEPOSITION ON
N18030 G180 D0.25 U0.75
N18035 X214.104 Y84.198
N18040 ; DEPOSITION OFF
N18045 G181 D0.25 U0.75
N18050 G0 X55.531 Y242.77
N18055 ; DEPOSITION ON
N18060 G180 D0.25 U0.75
N18065 G1 X33.667 Y264.634 F508
N18070 ; DEPOSITION OFF
N18075 G181 D0.25 U0.75
N18080 X31.286 Y262.252
N18085 ; DEPOSITION ON
N18090 G180 D0.25 U0.75
N18095 X53.15 Y240.388
N18100 ; DEPOSITION OFF
N18105 G181 D0.25 U0.75
N18110 G0 X211.722 Y81.816
N18115 ; DEPOSITION ON
N18120 G180 D0.25 U0.75
N18125 G1 X243.257 Y50.281 F508
N18130 ; DEPOSITION OFF
N18135 G181 D0.25 U0.75
N18140 X240.875 Y47.899
N18145 ; DEPOSITION ON
N18150 G180 D0.25 U0.75
N18155 X209.34 Y79.434
N18160 ; DEPOSITION OFF
N18165 G181 D0.25 U0.75
N18170 G0 X50.768 Y238.007
N18175 ; DEPOSITION ON
N18180 G180 D0.25 U0.75
N18185 G1 X28.904 Y259.87 F508
N18190 ; DEPOSITION OFF
N18195 G181 D0.25 U0.75
N18200 X26.522 Y257.489
N18205 ; DEPOSITION ON
N18210 G180 D0.25 U0.75
N18215 X48.386 Y235.625
N18220 ; DEPOSITION OFF
N18225 G181 D0.25 U0.75
N18230 G0 X206.959 Y77.052
N18235 ; DEPOSITION ON
N18240 G180 D0.25 U0.75
N18245 G1 X238.493 Y45.518 F508
N18250 ; DEPOSITION OFF
N18255 G181 D0.25 U0.75
N18260 X236.112 Y43.136
N18265 ; DEPOSITION ON
N18270 G180 D0.25 U0.75
N18275 X204.577 Y74.671
N18280 ; DEPOSITION OFF
N18285 G181 D0.25 U0.75
N18290 G0 X46.004 Y233.243
N18295 ; DEPOSITION ON
N18300 G180 D0.25 U0.75
N18305 G1 X24.141 Y255.107 F508
N18310 ; DEPOSITION OFF
N18315 G181 D0.25 U0.75
N18320 X21.759 Y252.725
N18325 ; DEPOSITION ON
N18330 G180 D0.25 U0.75
N18335 X43.623 Y230.861
N18340 ; DEPOSITION OFF
N18345 G181 D0.25 U0.75
N18350 G0 X202.195 Y72.289
N18355 ; DEPOSITION ON
N18360 G180 D0.25 U0.75
N18365 G1 X233.73 Y40.754 F508
N18370 ; DEPOSITION OFF
N18375 G181 D0.25 U0.75
N18380 X231.348 Y38.373
N18385 ; DEPOSITION ON
N18390 G180 D0.25 U0.75
N18395 X19.377 Y250.343
N18400 ; DEPOSITION OFF
N18405 G181 D0.25 U0.75
N18410 X16.996 Y247.962
N18415 ; DEPOSITION ON
N18420 G180 D0.25 U0.75
N18425 X228.967 Y35.991
N18430 ; DEPOSITION OFF
N18435 G181 D0.25 U0.75
N18440 X226.585 Y33.609
N18445 ; DEPOSITION ON
N18450 G180 D0.25 U0.75
N18455 X14.614 Y245.58
N18460 ; DEPOSITION OFF
N18465 G181 D0.25 U0.75
N18470 X12.232 Y243.198
N18475 ; DEPOSITION ON
N18480 G180 D0.25 U0.75
N18485 X224.203 Y31.228
N18490 ; DEPOSITION OFF
N18495 G181 D0.25 U0.75
N18500 X221.821 Y28.846
N18505 ; DEPOSITION ON
N18510 G180 D0.25 U0.75
N18515 X9.851 Y240.817
N18520 ; DEPOSITION OFF
N18525 G181 D0.25 U0.75
N18530 G0 X187.905 Y57.999
N18535 ; DEPOSITION ON
N18540 G180 D0.25 U0.75
N18545 G1 X219.44 Y26.464 F508
N18550 ; DEPOSITION OFF
N18555 G181 D0.25 U0.75
N18560 X217.058 Y24.082
N18565 ; DEPOSITION ON
N18570 G180 D0.25 U0.75
N18575 X185.523 Y55.617
N18580 G181 D0.25 U0.75
N18585 V.P.layer_num = 16
N18590 P12011=0
N18595 #PCALL decking.nc P1 = V.P.layer_num
N18600 P12012= 16
N18605 P12011=1
N18610 ; LAYER 16  END
N18615 ; DEPOSITION OFF
N18620 G181 D0.25 U0.75
N18625 G0 Z34
N18630 X265.62 Y71.422
N18635 ; LAYER 17 START
N18640 ; DEPOSITION ON
N18645 G180 D0.25 U0.75
N18650 G1 X233.474 Y103.568 F508
N18655 ; DEPOSITION OFF
N18660 G181 D0.25 U0.75
N18665 G0 X50.46 Y281.854
N18670 ; DEPOSITION ON
N18675 G180 D0.25 U0.75
N18680 G1 X263.256 Y69.058 F508
N18685 ; DEPOSITION OFF
N18690 G181 D0.25 U0.75
N18695 X260.892 Y66.693
N18700 ; DEPOSITION ON
N18705 G180 D0.25 U0.75
N18710 X48.095 Y279.489
N18715 ; DEPOSITION OFF
N18720 G181 D0.25 U0.75
N18725 X45.731 Y277.125
N18730 ; DEPOSITION ON
N18735 G180 D0.25 U0.75
N18740 X258.527 Y64.329
N18745 ; DEPOSITION OFF
N18750 G181 D0.25 U0.75
N18755 X256.163 Y61.964
N18760 ; DEPOSITION ON
N18765 G180 D0.25 U0.75
N18770 X224.017 Y94.111
N18775 ; DEPOSITION OFF
N18780 G181 D0.25 U0.75
N18785 G0 X65.444 Y252.683
N18790 ; DEPOSITION ON
N18795 G180 D0.25 U0.75
N18800 G1 X43.366 Y274.761 F508
N18805 ; DEPOSITION OFF
N18810 G181 D0.25 U0.75
N18815 X41.002 Y272.396
N18820 ; DEPOSITION ON
N18825 G180 D0.25 U0.75
N18830 X63.08 Y250.318
N18835 ; DEPOSITION OFF
N18840 G181 D0.25 U0.75
N18845 G0 X221.652 Y91.746
N18850 ; DEPOSITION ON
N18855 G180 D0.25 U0.75
N18860 G1 X253.798 Y59.6 F508
N18865 ; DEPOSITION OFF
N18870 G181 D0.25 U0.75
N18875 X251.434 Y57.236
N18880 ; DEPOSITION ON
N18885 G180 D0.25 U0.75
N18890 X219.288 Y89.382
N18895 ; DEPOSITION OFF
N18900 G181 D0.25 U0.75
N18905 G0 X60.715 Y247.954
N18910 ; DEPOSITION ON
N18915 G180 D0.25 U0.75
N18920 G1 X38.638 Y270.032 F508
N18925 ; DEPOSITION OFF
N18930 G181 D0.25 U0.75
N18935 X36.273 Y267.667
N18940 ; DEPOSITION ON
N18945 G180 D0.25 U0.75
N18950 X58.351 Y245.59
N18955 ; DEPOSITION OFF
N18960 G181 D0.25 U0.75
N18965 G0 X216.923 Y87.017
N18970 ; DEPOSITION ON
N18975 G180 D0.25 U0.75
N18980 G1 X249.07 Y54.871 F508
N18985 ; DEPOSITION OFF
N18990 G181 D0.25 U0.75
N18995 X246.705 Y52.507
N19000 ; DEPOSITION ON
N19005 G180 D0.25 U0.75
N19010 X214.559 Y84.653
N19015 ; DEPOSITION OFF
N19020 G181 D0.25 U0.75
N19025 G0 X55.987 Y243.225
N19030 ; DEPOSITION ON
N19035 G180 D0.25 U0.75
N19040 G1 X33.909 Y265.303 F508
N19045 ; DEPOSITION OFF
N19050 G181 D0.25 U0.75
N19055 X29.18 Y260.574
N19060 ; DEPOSITION ON
N19065 G180 D0.25 U0.75
N19070 X51.258 Y238.497
N19075 ; DEPOSITION OFF
N19080 G181 D0.25 U0.75
N19085 G0 X31.544 Y262.939
N19090 ; DEPOSITION ON
N19095 G180 D0.25 U0.75
N19100 G1 X53.622 Y240.861 F508
N19105 ; DEPOSITION OFF
N19110 G181 D0.25 U0.75
N19115 G0 X212.195 Y82.289
N19120 ; DEPOSITION ON
N19125 G180 D0.25 U0.75
N19130 G1 X244.341 Y50.142 F508
N19135 ; DEPOSITION OFF
N19140 G181 D0.25 U0.75
N19145 G0 X48.893 Y236.132
N19150 ; DEPOSITION ON
N19155 G180 D0.25 U0.75
N19160 G1 X26.816 Y258.21 F508
N19165 ; DEPOSITION OFF
N19170 G181 D0.25 U0.75
N19175 X24.451 Y255.845
N19180 ; DEPOSITION ON
N19185 G180 D0.25 U0.75
N19190 X46.529 Y233.768
N19195 ; DEPOSITION OFF
N19200 G181 D0.25 U0.75
N19205 G0 X205.101 Y75.195
N19210 ; DEPOSITION ON
N19215 G180 D0.25 U0.75
N19220 G1 X237.248 Y43.049 F508
N19225 ; DEPOSITION OFF
N19230 G181 D0.25 U0.75
N19235 X234.883 Y40.685
N19240 ; DEPOSITION ON
N19245 G180 D0.25 U0.75
N19250 X202.737 Y72.831
N19255 ; DEPOSITION OFF
N19260 G181 D0.25 U0.75
N19265 G0 X44.165 Y231.403
N19270 ; DEPOSITION ON
N19275 G180 D0.25 U0.75
N19280 G1 X22.087 Y253.481 F508
N19285 ; DEPOSITION OFF
N19290 G181 D0.25 U0.75
N19295 X19.722 Y251.117
N19300 ; DEPOSITION ON
N19305 G180 D0.25 U0.75
N19310 X232.519 Y38.32
N19315 ; DEPOSITION OFF
N19320 G181 D0.25 U0.75
N19325 X230.154 Y35.956
N19330 ; DEPOSITION ON
N19335 G180 D0.25 U0.75
N19340 X17.358 Y248.752
N19345 ; DEPOSITION OFF
N19350 G181 D0.25 U0.75
N19355 X14.994 Y246.388
N19360 ; DEPOSITION ON
N19365 G180 D0.25 U0.75
N19370 X227.79 Y33.592
N19375 ; DEPOSITION OFF
N19380 G181 D0.25 U0.75
N19385 X225.426 Y31.227
N19390 ; DEPOSITION ON
N19395 G180 D0.25 U0.75
N19400 X12.629 Y244.023
N19405 ; DEPOSITION OFF
N19410 G181 D0.25 U0.75
N19415 X10.265 Y241.659
N19420 ; DEPOSITION ON
N19425 G180 D0.25 U0.75
N19430 X223.061 Y28.863
N19435 ; DEPOSITION OFF
N19440 G181 D0.25 U0.75
N19445 X220.697 Y26.498
N19450 ; DEPOSITION ON
N19455 G180 D0.25 U0.75
N19460 X188.551 Y58.645
N19465 ; DEPOSITION OFF
N19470 G181 D0.25 U0.75
N19475 X186.186 Y56.28
N19480 ; DEPOSITION ON
N19485 G180 D0.25 U0.75
N19490 X218.332 Y24.134
N19495 ; DEPOSITION OFF
N19500 G181 D0.25 U0.75
N19505 G0 X279.692 Y85.493
N19510 ; DEPOSITION ON
N19515 G180 D0.25 U0.75
N19520 G1 X247.545 Y117.639 F508
N19525 G181 D0.25 U0.75
N19530 V.P.layer_num = 17
N19535 P12011=0
N19540 #PCALL decking.nc P1 = V.P.layer_num
N19545 P12012= 17
N19550 P12011=1
N19555 ; LAYER 17  END
N19560 ; DEPOSITION OFF
N19565 G181 D0.25 U0.75
N19570 G0 Z36
N19575 X265.608 Y70.187
N19580 ; LAYER 18 START
N19585 ; DEPOSITION ON
N19590 G180 D0.25 U0.75
N19595 G1 X232.85 Y102.944 F508
N19600 ; DEPOSITION OFF
N19605 G181 D0.25 U0.75
N19610 G0 X49.622 Y281.426
N19615 ; DEPOSITION ON
N19620 G180 D0.25 U0.75
N19625 G1 X263.235 Y67.813 F508
N19630 ; DEPOSITION OFF
N19635 G181 D0.25 U0.75
N19640 X260.861 Y65.44
N19645 ; DEPOSITION ON
N19650 G180 D0.25 U0.75
N19655 X47.249 Y279.052
N19660 ; DEPOSITION OFF
N19665 G181 D0.25 U0.75
N19670 X44.875 Y276.679
N19675 ; DEPOSITION ON
N19680 G180 D0.25 U0.75
N19685 X258.488 Y63.066
N19690 ; DEPOSITION OFF
N19695 G181 D0.25 U0.75
N19700 X256.114 Y60.693
N19705 ; DEPOSITION ON
N19710 G180 D0.25 U0.75
N19715 X223.357 Y93.451
N19720 ; DEPOSITION OFF
N19725 G181 D0.25 U0.75
N19730 G0 X64.784 Y252.023
N19735 ; DEPOSITION ON
N19740 G180 D0.25 U0.75
N19745 G1 X42.502 Y274.305 F508
N19750 ; DEPOSITION OFF
N19755 G181 D0.25 U0.75
N19760 X40.128 Y271.932
N19765 ; DEPOSITION ON
N19770 G180 D0.25 U0.75
N19775 X62.411 Y249.649
N19780 ; DEPOSITION OFF
N19785 G181 D0.25 U0.75
N19790 G0 X220.983 Y91.077
N19795 ; DEPOSITION ON
N19800 G180 D0.25 U0.75
N19805 G1 X253.741 Y58.319 F508
N19810 ; DEPOSITION OFF
N19815 G181 D0.25 U0.75
N19820 X251.367 Y55.946
N19825 ; DEPOSITION ON
N19830 G180 D0.25 U0.75
N19835 X218.61 Y88.704
N19840 ; DEPOSITION OFF
N19845 G181 D0.25 U0.75
N19850 G0 X60.037 Y247.276
N19855 ; DEPOSITION ON
N19860 G180 D0.25 U0.75
N19865 G1 X37.755 Y269.559 F508
N19870 ; DEPOSITION OFF
N19875 G181 D0.25 U0.75
N19880 X35.381 Y267.185
N19885 ; DEPOSITION ON
N19890 G180 D0.25 U0.75
N19895 X57.664 Y244.903
N19900 ; DEPOSITION OFF
N19905 G181 D0.25 U0.75
N19910 G0 X216.236 Y86.33
N19915 ; DEPOSITION ON
N19920 G180 D0.25 U0.75
N19925 G1 X248.994 Y53.573 F508
N19930 ; DEPOSITION OFF
N19935 G181 D0.25 U0.75
N19940 X246.62 Y51.199
N19945 ; DEPOSITION ON
N19950 G180 D0.25 U0.75
N19955 X213.863 Y83.957
N19960 ; DEPOSITION OFF
N19965 G181 D0.25 U0.75
N19970 G0 X55.29 Y242.529
N19975 ; DEPOSITION ON
N19980 G180 D0.25 U0.75
N19985 G1 X33.008 Y264.812 F508
N19990 ; DEPOSITION OFF
N19995 G181 D0.25 U0.75
N20000 G0 X52.917 Y240.156
N20005 ; DEPOSITION ON
N20010 G180 D0.25 U0.75
N20015 G1 X30.634 Y262.438 F508
N20020 ; DEPOSITION OFF
N20025 G181 D0.25 U0.75
N20030 X28.261 Y260.065
N20035 ; DEPOSITION ON
N20040 G180 D0.25 U0.75
N20045 X50.543 Y237.782
N20050 ; DEPOSITION OFF
N20055 G181 D0.25 U0.75
N20060 X48.17 Y235.409
N20065 ; DEPOSITION ON
N20070 G180 D0.25 U0.75
N20075 X25.887 Y257.691
N20080 ; DEPOSITION OFF
N20085 G181 D0.25 U0.75
N20090 X23.514 Y255.318
N20095 ; DEPOSITION ON
N20100 G180 D0.25 U0.75
N20105 X45.797 Y233.035
N20110 ; DEPOSITION OFF
N20115 G181 D0.25 U0.75
N20120 G0 X234.753 Y39.332
N20125 ; DEPOSITION ON
N20130 G180 D0.25 U0.75
N20135 G1 X201.995 Y72.089 F508
N20140 ; DEPOSITION OFF
N20145 G181 D0.25 U0.75
N20150 G0 X43.423 Y230.662
N20155 ; DEPOSITION ON
N20160 G180 D0.25 U0.75
N20165 G1 X21.141 Y252.944 F508
N20170 ; DEPOSITION OFF
N20175 G181 D0.25 U0.75
N20180 X18.767 Y250.571
N20185 ; DEPOSITION ON
N20190 G180 D0.25 U0.75
N20195 X232.38 Y36.958
N20200 ; DEPOSITION OFF
N20205 G181 D0.25 U0.75
N20210 X230.006 Y34.585
N20215 ; DEPOSITION ON
N20220 G180 D0.25 U0.75
N20225 X16.394 Y248.197
N20230 ; DEPOSITION OFF
N20235 G181 D0.25 U0.75
N20240 X14.02 Y245.824
N20245 ; DEPOSITION ON
N20250 G180 D0.25 U0.75
N20255 X227.633 Y32.211
N20260 ; DEPOSITION OFF
N20265 G181 D0.25 U0.75
N20270 X225.259 Y29.838
N20275 ; DEPOSITION ON
N20280 G180 D0.25 U0.75
N20285 X11.647 Y243.45
N20290 ; DEPOSITION OFF
N20295 G181 D0.25 U0.75
N20300 X9.273 Y241.077
N20305 ; DEPOSITION ON
N20310 G180 D0.25 U0.75
N20315 X222.886 Y27.464
N20320 ; DEPOSITION OFF
N20325 G181 D0.25 U0.75
N20330 X220.512 Y25.091
N20335 ; DEPOSITION ON
N20340 G180 D0.25 U0.75
N20345 X187.755 Y57.849
N20350 ; DEPOSITION OFF
N20355 G181 D0.25 U0.75
N20360 X185.381 Y55.475
N20365 ; DEPOSITION ON
N20370 G180 D0.25 U0.75
N20375 X218.139 Y22.718
N20380 G181 D0.25 U0.75
N20385 V.P.layer_num = 18
N20390 P12011=0
N20395 #PCALL decking.nc P1 = V.P.layer_num
N20400 P12012= 18
N20405 P12011=1
N20410 ; LAYER 18  END
N20415 ; DEPOSITION OFF
N20420 G181 D0.25 U0.75
N20425 G0 Z38
N20430 X266.641 Y69.997
N20435 ; LAYER 19 START
N20440 ; DEPOSITION ON
N20445 G180 D0.25 U0.75
N20450 G1 X233.272 Y103.366 F508
N20455 ; DEPOSITION OFF
N20460 G181 D0.25 U0.75
N20465 G0 X49.865 Y282.06
N20470 ; DEPOSITION ON
N20475 G180 D0.25 U0.75
N20480 G1 X264.284 Y67.64 F508
N20485 ; DEPOSITION OFF
N20490 G181 D0.25 U0.75
N20495 X261.928 Y65.284
N20500 ; DEPOSITION ON
N20505 G180 D0.25 U0.75
N20510 X47.509 Y279.703
N20515 ; DEPOSITION OFF
N20520 G181 D0.25 U0.75
N20525 X45.153 Y277.347
N20530 ; DEPOSITION ON
N20535 G180 D0.25 U0.75
N20540 X259.572 Y62.928
N20545 ; DEPOSITION OFF
N20550 G181 D0.25 U0.75
N20555 X257.216 Y60.572
N20560 ; DEPOSITION ON
N20565 G180 D0.25 U0.75
N20570 X223.847 Y93.941
N20575 ; DEPOSITION OFF
N20580 G181 D0.25 U0.75
N20585 G0 X65.274 Y252.513
N20590 ; DEPOSITION ON
N20595 G180 D0.25 U0.75
N20600 G1 X42.796 Y274.991 F508
N20605 ; DEPOSITION OFF
N20610 G181 D0.25 U0.75
N20615 X40.44 Y272.635
N20620 ; DEPOSITION ON
N20625 G180 D0.25 U0.75
N20630 X62.918 Y250.157
N20635 ; DEPOSITION OFF
N20640 G181 D0.25 U0.75
N20645 G0 X221.49 Y91.584
N20650 ; DEPOSITION ON
N20655 G180 D0.25 U0.75
N20660 G1 X254.859 Y58.215 F508
N20665 ; DEPOSITION OFF
N20670 G181 D0.25 U0.75
N20675 X252.503 Y55.859
N20680 ; DEPOSITION ON
N20685 G180 D0.25 U0.75
N20690 X219.134 Y89.228
N20695 ; DEPOSITION OFF
N20700 G181 D0.25 U0.75
N20705 G0 X60.562 Y247.8
N20710 ; DEPOSITION ON
N20715 G180 D0.25 U0.75
N20720 G1 X38.084 Y270.279 F508
N20725 ; DEPOSITION OFF
N20730 G181 D0.25 U0.75
N20735 X35.728 Y267.922
N20740 ; DEPOSITION ON
N20745 G180 D0.25 U0.75
N20750 X58.206 Y245.444
N20755 ; DEPOSITION OFF
N20760 G181 D0.25 U0.75
N20765 G0 X216.778 Y86.872
N20770 ; DEPOSITION ON
N20775 G180 D0.25 U0.75
N20780 G1 X250.147 Y53.503 F508
N20785 ; DEPOSITION OFF
N20790 G181 D0.25 U0.75
N20795 X247.791 Y51.147
N20800 ; DEPOSITION ON
N20805 G180 D0.25 U0.75
N20810 X214.422 Y84.516
N20815 ; DEPOSITION OFF
N20820 G181 D0.25 U0.75
N20825 G0 X55.849 Y243.088
N20830 ; DEPOSITION ON
N20835 G180 D0.25 U0.75
N20840 G1 X33.371 Y265.566 F508
N20845 ; DEPOSITION OFF
N20850 G181 D0.25 U0.75
N20855 G0 X53.493 Y240.732
N20860 ; DEPOSITION ON
N20865 G180 D0.25 U0.75
N20870 G1 X31.015 Y263.21 F508
N20875 ; DEPOSITION OFF
N20880 G181 D0.25 U0.75
N20885 X28.659 Y260.853
N20890 ; DEPOSITION ON
N20895 G180 D0.25 U0.75
N20900 X51.137 Y238.375
N20905 ; DEPOSITION OFF
N20910 G181 D0.25 U0.75
N20915 X48.781 Y236.019
N20920 ; DEPOSITION ON
N20925 G180 D0.25 U0.75
N20930 X26.303 Y258.497
N20935 ; DEPOSITION OFF
N20940 G181 D0.25 U0.75
N20945 X23.946 Y256.141
N20950 ; DEPOSITION ON
N20955 G180 D0.25 U0.75
N20960 X46.424 Y233.663
N20965 ; DEPOSITION OFF
N20970 G181 D0.25 U0.75
N20975 X44.068 Y231.307
N20980 ; DEPOSITION ON
N20985 G180 D0.25 U0.75
N20990 X21.59 Y253.785
